ncols        136
nrows        276
xllcorner    5645400.000000000000
yllcorner    6136700.000000000000
cellsize     100.000000000000
NODATA_value  -9999
 -9999 -9999 -9999 -9999 -9999 -9999 -9999 -9999 -9999 -9999 -9999 -9999 -9999 -9999 -9999 -9999 -9999 -9999 -9999 -9999 -9999 -9999 -9999 -9999 -9999 -9999 -9999 -9999 -9999 -9999 -9999 -9999 -9999 -9999 -9999 -9999 -9999 -9999 -9999 -9999 -9999 -9999 -9999 -9999 -9999 -9999 -9999 -9999 -9999 -9999 -9999 -9999 -9999 -9999 -9999 -9999 -9999 -9999 -9999 -9999 -9999 -9999 -9999 -9999 -9999 -9999 -9999 -9999 -9999 -9999 -9999 -9999 -9999 -9999 -9999 -9999 -9999 -9999 -9999 -9999 -9999 -9999 -9999 -9999 -9999 -9999 -9999 -9999 -9999 -9999 -9999 -9999 -9999 -9999 -9999 -9999 -9999 -9999 -9999 -9999 -9999 -9999 -9999 -9999 -9999 -9999 -9999 -9999 -9999 -9999 -9999 -9999 -9999 -9999 -9999 -9999 -9999 -9999 -9999 -9999 -9999 -9999 -9999 -9999 -9999 -9999 -9999 -9999 -9999 -9999 -9999 -9999 -9999 -9999 -9999 -9999
 -9999 -9999 -9999 -9999 -9999 -9999 -9999 -9999 -9999 -9999 -9999 -9999 -9999 -9999 -9999 -9999 -9999 -9999 -9999 -9999 -9999 -9999 -9999 -9999 -9999 -9999 -9999 -9999 -9999 -9999 -9999 -9999 -9999 -9999 -9999 -9999 -9999 -9999 -9999 -9999 -9999 -9999 -9999 -9999 -9999 -9999 -9999 -9999 -9999 -9999 -9999 -9999 -9999 -9999 -9999 -9999 -9999 -9999 -9999 -9999 -9999 -9999 -9999 -9999 -9999 -9999 -9999 -9999 -9999 -9999 -9999 -9999 -9999 -9999 -9999 -9999 -9999 -9999 -9999 -9999 -9999 -9999 -9999 -9999 -9999 -9999 -9999 1 1 1 -9999 -9999 -9999 -9999 -9999 -9999 -9999 -9999 -9999 -9999 -9999 -9999 -9999 -9999 -9999 -9999 -9999 -9999 -9999 -9999 -9999 -9999 -9999 -9999 -9999 -9999 -9999 -9999 -9999 -9999 -9999 -9999 -9999 -9999 -9999 -9999 -9999 -9999 -9999 -9999 -9999 -9999 -9999 -9999 -9999 -9999
 -9999 -9999 -9999 -9999 -9999 -9999 -9999 -9999 -9999 -9999 -9999 -9999 -9999 -9999 -9999 -9999 -9999 -9999 -9999 -9999 -9999 -9999 -9999 -9999 -9999 -9999 -9999 -9999 -9999 -9999 -9999 -9999 -9999 -9999 -9999 -9999 -9999 -9999 -9999 -9999 -9999 -9999 -9999 -9999 -9999 -9999 -9999 -9999 -9999 -9999 -9999 -9999 -9999 -9999 -9999 -9999 -9999 -9999 -9999 -9999 -9999 -9999 -9999 -9999 -9999 -9999 -9999 -9999 -9999 -9999 -9999 -9999 -9999 -9999 -9999 -9999 -9999 -9999 -9999 -9999 -9999 -9999 -9999 -9999 -9999 -9999 -9999 1 1 2 6302 -9999 -9999 -9999 -9999 -9999 -9999 -9999 -9999 -9999 -9999 -9999 -9999 -9999 -9999 -9999 -9999 -9999 -9999 -9999 -9999 -9999 -9999 -9999 -9999 -9999 -9999 -9999 -9999 -9999 -9999 -9999 -9999 -9999 -9999 -9999 -9999 -9999 -9999 -9999 -9999 -9999 -9999 -9999 -9999 -9999
 -9999 -9999 -9999 -9999 -9999 -9999 -9999 -9999 -9999 -9999 -9999 -9999 -9999 -9999 -9999 -9999 -9999 -9999 -9999 -9999 -9999 -9999 -9999 -9999 -9999 -9999 -9999 -9999 -9999 -9999 -9999 -9999 -9999 -9999 -9999 -9999 -9999 -9999 -9999 -9999 -9999 -9999 -9999 -9999 -9999 -9999 -9999 -9999 -9999 -9999 -9999 -9999 -9999 -9999 -9999 -9999 -9999 -9999 -9999 -9999 -9999 -9999 -9999 -9999 -9999 -9999 -9999 -9999 -9999 -9999 -9999 -9999 -9999 -9999 -9999 -9999 -9999 -9999 -9999 -9999 -9999 -9999 -9999 -9999 -9999 1 1 1 1 6301 5 1 1 -9999 -9999 -9999 -9999 -9999 -9999 -9999 -9999 -9999 -9999 -9999 -9999 -9999 -9999 -9999 -9999 -9999 -9999 -9999 -9999 -9999 -9999 -9999 -9999 -9999 -9999 -9999 -9999 -9999 -9999 -9999 -9999 -9999 -9999 -9999 -9999 -9999 -9999 -9999 -9999 -9999 -9999 -9999
 -9999 -9999 -9999 -9999 -9999 -9999 -9999 -9999 -9999 -9999 -9999 -9999 -9999 -9999 -9999 -9999 -9999 -9999 -9999 -9999 -9999 -9999 -9999 -9999 -9999 -9999 -9999 -9999 -9999 -9999 -9999 -9999 -9999 -9999 -9999 -9999 -9999 -9999 -9999 -9999 -9999 -9999 -9999 -9999 -9999 -9999 -9999 -9999 -9999 -9999 -9999 -9999 -9999 -9999 -9999 -9999 -9999 -9999 -9999 -9999 -9999 -9999 -9999 -9999 -9999 -9999 -9999 -9999 -9999 -9999 -9999 -9999 -9999 -9999 -9999 -9999 -9999 -9999 -9999 -9999 -9999 -9999 -9999 -9999 -9999 1 1 1 6297 2 2 2 1 -9999 -9999 -9999 -9999 -9999 -9999 -9999 -9999 -9999 -9999 -9999 -9999 -9999 -9999 -9999 -9999 -9999 -9999 -9999 -9999 -9999 -9999 -9999 -9999 -9999 -9999 -9999 -9999 -9999 -9999 -9999 -9999 -9999 -9999 -9999 -9999 -9999 -9999 -9999 -9999 -9999 -9999 -9999
 -9999 -9999 -9999 -9999 -9999 -9999 -9999 -9999 -9999 -9999 -9999 -9999 -9999 -9999 -9999 -9999 -9999 -9999 -9999 -9999 -9999 -9999 -9999 -9999 -9999 -9999 -9999 -9999 -9999 -9999 -9999 -9999 -9999 -9999 -9999 -9999 -9999 -9999 -9999 -9999 -9999 -9999 -9999 -9999 -9999 -9999 -9999 -9999 -9999 -9999 -9999 -9999 -9999 -9999 -9999 -9999 -9999 -9999 -9999 -9999 -9999 -9999 -9999 -9999 -9999 -9999 -9999 -9999 -9999 -9999 -9999 -9999 -9999 -9999 -9999 -9999 -9999 -9999 -9999 -9999 -9999 -9999 -9999 1 1 1 2 6293 2 1 1 1 1 1 1 1 -9999 -9999 -9999 -9999 -9999 -9999 -9999 -9999 -9999 -9999 -9999 -9999 -9999 -9999 -9999 -9999 -9999 -9999 -9999 -9999 -9999 -9999 -9999 -9999 -9999 -9999 -9999 -9999 -9999 -9999 -9999 -9999 -9999 -9999 -9999 -9999 -9999 -9999 -9999 -9999
 -9999 -9999 -9999 -9999 -9999 -9999 -9999 -9999 -9999 -9999 -9999 -9999 -9999 -9999 -9999 -9999 -9999 -9999 -9999 -9999 -9999 -9999 -9999 -9999 -9999 -9999 -9999 -9999 -9999 -9999 -9999 -9999 -9999 -9999 -9999 -9999 -9999 -9999 -9999 -9999 -9999 -9999 -9999 -9999 -9999 -9999 -9999 -9999 -9999 -9999 -9999 -9999 -9999 -9999 -9999 -9999 -9999 -9999 -9999 -9999 -9999 -9999 -9999 -9999 -9999 -9999 -9999 -9999 -9999 -9999 -9999 -9999 -9999 -9999 -9999 -9999 -9999 -9999 -9999 -9999 -9999 -9999 1 1 1 2 6287 3 1 1 1 2 3 4 1 1 1 -9999 -9999 -9999 -9999 -9999 -9999 -9999 -9999 -9999 -9999 -9999 -9999 -9999 -9999 -9999 -9999 -9999 -9999 -9999 -9999 -9999 -9999 -9999 -9999 -9999 -9999 -9999 -9999 -9999 -9999 -9999 -9999 -9999 -9999 -9999 -9999 -9999 -9999 -9999
 -9999 -9999 -9999 -9999 -9999 -9999 -9999 -9999 -9999 -9999 -9999 -9999 -9999 -9999 -9999 -9999 -9999 -9999 -9999 -9999 -9999 -9999 -9999 -9999 -9999 -9999 -9999 -9999 -9999 -9999 -9999 -9999 -9999 -9999 -9999 -9999 -9999 -9999 -9999 -9999 -9999 -9999 -9999 -9999 -9999 -9999 -9999 -9999 -9999 -9999 -9999 -9999 -9999 -9999 -9999 -9999 -9999 -9999 -9999 -9999 -9999 -9999 -9999 -9999 -9999 -9999 -9999 -9999 -9999 -9999 -9999 -9999 -9999 -9999 -9999 -9999 -9999 -9999 -9999 -9999 -9999 1 1 1 1 6281 3 1 1 1 2 3 4 1 8 1 1 1 -9999 -9999 -9999 -9999 -9999 -9999 -9999 -9999 -9999 -9999 -9999 -9999 -9999 -9999 -9999 -9999 -9999 -9999 -9999 -9999 -9999 -9999 -9999 -9999 -9999 -9999 -9999 -9999 -9999 -9999 -9999 -9999 -9999 -9999 -9999 -9999 -9999 -9999
 -9999 -9999 -9999 -9999 -9999 -9999 -9999 -9999 -9999 -9999 -9999 -9999 -9999 -9999 -9999 -9999 -9999 -9999 -9999 -9999 -9999 -9999 -9999 -9999 -9999 -9999 -9999 -9999 -9999 -9999 -9999 -9999 -9999 -9999 -9999 -9999 -9999 -9999 -9999 -9999 -9999 -9999 -9999 -9999 -9999 -9999 -9999 -9999 -9999 -9999 -9999 -9999 -9999 -9999 -9999 -9999 -9999 -9999 -9999 -9999 -9999 -9999 -9999 -9999 -9999 -9999 -9999 -9999 -9999 -9999 -9999 -9999 -9999 -9999 -9999 -9999 -9999 -9999 -9999 -9999 1 1 1 2 6273 4 2 1 1 1 1 1 1 5 9 1 1 1 1 -9999 -9999 -9999 -9999 -9999 -9999 -9999 -9999 -9999 -9999 -9999 -9999 -9999 -9999 -9999 -9999 -9999 -9999 -9999 -9999 -9999 -9999 -9999 -9999 -9999 -9999 -9999 -9999 -9999 -9999 -9999 -9999 -9999 -9999 -9999 -9999 -9999
 -9999 -9999 -9999 -9999 -9999 -9999 -9999 -9999 -9999 -9999 -9999 -9999 -9999 -9999 -9999 -9999 -9999 -9999 -9999 -9999 -9999 -9999 -9999 -9999 -9999 -9999 -9999 -9999 -9999 -9999 -9999 -9999 -9999 -9999 -9999 -9999 -9999 -9999 -9999 -9999 -9999 -9999 -9999 -9999 -9999 -9999 -9999 -9999 -9999 -9999 -9999 -9999 -9999 -9999 -9999 -9999 -9999 -9999 -9999 -9999 -9999 -9999 -9999 -9999 -9999 -9999 -9999 -9999 -9999 -9999 -9999 -9999 -9999 -9999 -9999 -9999 -9999 -9999 -9999 1 1 1 2 6268 2 2 1 1 1 2 4 2 2 7 10 2 2 1 1 1 1 -9999 -9999 -9999 -9999 -9999 -9999 -9999 -9999 -9999 -9999 -9999 -9999 -9999 -9999 -9999 -9999 -9999 -9999 -9999 -9999 -9999 -9999 -9999 -9999 -9999 -9999 -9999 -9999 -9999 -9999 -9999 -9999 -9999 -9999 -9999
 -9999 -9999 -9999 -9999 -9999 -9999 -9999 -9999 -9999 -9999 -9999 -9999 -9999 -9999 -9999 -9999 -9999 -9999 -9999 -9999 -9999 -9999 -9999 -9999 -9999 -9999 -9999 -9999 -9999 -9999 -9999 -9999 -9999 -9999 -9999 -9999 -9999 -9999 -9999 -9999 -9999 -9999 -9999 -9999 -9999 -9999 -9999 -9999 -9999 -9999 -9999 -9999 -9999 -9999 -9999 -9999 -9999 -9999 -9999 -9999 -9999 -9999 -9999 -9999 -9999 -9999 -9999 -9999 -9999 -9999 -9999 -9999 -9999 -9999 -9999 -9999 -9999 -9999 1 1 1 6258 6262 2 1 1 1 1 2 4 1 5 3 10 11 1 5 2 1 1 1 1 -9999 -9999 -9999 -9999 -9999 -9999 -9999 -9999 -9999 -9999 -9999 -9999 -9999 -9999 -9999 -9999 -9999 -9999 -9999 -9999 -9999 -9999 -9999 -9999 -9999 -9999 -9999 -9999 -9999 -9999 -9999 -9999 -9999 -9999
 -9999 -9999 -9999 -9999 -9999 -9999 -9999 -9999 -9999 -9999 -9999 -9999 -9999 -9999 -9999 -9999 -9999 -9999 -9999 -9999 -9999 -9999 -9999 -9999 -9999 -9999 -9999 -9999 -9999 -9999 -9999 -9999 -9999 -9999 -9999 -9999 -9999 -9999 -9999 -9999 -9999 -9999 -9999 -9999 -9999 -9999 -9999 -9999 -9999 -9999 -9999 -9999 -9999 -9999 -9999 -9999 -9999 -9999 -9999 -9999 -9999 -9999 -9999 -9999 -9999 -9999 -9999 -9999 -9999 -9999 -9999 -9999 -9999 -9999 -9999 -9999 1 1 1 1 6253 2 2 1 1 1 1 1 1 2 5 2 9 11 12 72 79 6 2 2 1 1 1 -9999 -9999 -9999 -9999 -9999 -9999 -9999 -9999 -9999 -9999 -9999 -9999 -9999 -9999 -9999 -9999 -9999 -9999 -9999 -9999 -9999 -9999 -9999 -9999 -9999 -9999 -9999 -9999 -9999 -9999 -9999 -9999 -9999
 -9999 -9999 -9999 -9999 -9999 -9999 -9999 -9999 -9999 -9999 -9999 -9999 -9999 -9999 -9999 -9999 -9999 -9999 -9999 -9999 -9999 -9999 -9999 -9999 -9999 -9999 -9999 -9999 -9999 -9999 -9999 -9999 -9999 -9999 -9999 -9999 -9999 -9999 -9999 -9999 -9999 -9999 -9999 -9999 -9999 -9999 -9999 -9999 -9999 -9999 -9999 -9999 -9999 -9999 -9999 -9999 -9999 -9999 -9999 -9999 -9999 -9999 -9999 -9999 -9999 -9999 -9999 -9999 -9999 -9999 -9999 -9999 -9999 -9999 -9999 1 1 1 2 6245 6 2 1 1 1 3 4 1 1 2 5 11 40 41 58 1 1 87 7 3 1 1 1 1 5 -9999 -9999 -9999 -9999 -9999 -9999 -9999 -9999 -9999 -9999 -9999 -9999 -9999 -9999 -9999 -9999 -9999 -9999 -9999 -9999 -9999 -9999 -9999 -9999 -9999 -9999 -9999 -9999 -9999 -9999 -9999
 -9999 -9999 -9999 -9999 -9999 -9999 -9999 -9999 -9999 -9999 -9999 -9999 -9999 -9999 -9999 -9999 -9999 -9999 -9999 -9999 -9999 -9999 -9999 -9999 -9999 -9999 -9999 -9999 -9999 -9999 -9999 -9999 -9999 -9999 -9999 -9999 -9999 -9999 -9999 -9999 -9999 -9999 -9999 -9999 -9999 -9999 -9999 -9999 -9999 -9999 -9999 -9999 -9999 -9999 -9999 -9999 -9999 -9999 -9999 -9999 -9999 -9999 -9999 -9999 -9999 -9999 -9999 -9999 -9999 -9999 -9999 -9999 -9999 -9999 -9999 1 1 2 6238 4 2 1 1 1 1 2 10 1 1 2 3 9 17 4 1 1 1 98 3 1 1 1 3 4 16680 -9999 -9999 -9999 -9999 -9999 -9999 -9999 -9999 -9999 -9999 -9999 -9999 -9999 -9999 -9999 -9999 -9999 -9999 -9999 -9999 -9999 -9999 -9999 -9999 -9999 -9999 -9999 -9999 -9999 -9999 -9999
 -9999 -9999 -9999 -9999 -9999 -9999 -9999 -9999 -9999 -9999 -9999 -9999 -9999 -9999 -9999 -9999 -9999 -9999 -9999 -9999 -9999 -9999 -9999 -9999 -9999 -9999 -9999 -9999 -9999 -9999 -9999 -9999 -9999 -9999 -9999 -9999 -9999 -9999 -9999 -9999 -9999 -9999 -9999 -9999 -9999 -9999 -9999 -9999 -9999 -9999 -9999 -9999 -9999 -9999 -9999 -9999 -9999 -9999 -9999 -9999 -9999 -9999 -9999 -9999 -9999 -9999 -9999 -9999 -9999 -9999 -9999 -9999 -9999 1 1 1 1 2 6233 2 1 1 1 2 1 2 13 1 2 1 5 3 4 2 1 1 103 1 1 1 1 1 2 16679 1 -9999 -9999 -9999 -9999 -9999 -9999 -9999 -9999 -9999 -9999 -9999 -9999 -9999 -9999 -9999 -9999 -9999 -9999 -9999 -9999 -9999 -9999 -9999 -9999 -9999 -9999 -9999 -9999 -9999 -9999 -9999
 -9999 -9999 -9999 -9999 -9999 -9999 -9999 -9999 -9999 -9999 -9999 -9999 -9999 -9999 -9999 -9999 -9999 -9999 -9999 -9999 -9999 -9999 -9999 -9999 -9999 -9999 -9999 -9999 -9999 -9999 -9999 -9999 -9999 -9999 -9999 -9999 -9999 -9999 -9999 -9999 -9999 -9999 -9999 -9999 -9999 -9999 -9999 -9999 -9999 -9999 -9999 -9999 -9999 -9999 -9999 -9999 -9999 -9999 -9999 -9999 -9999 -9999 -9999 -9999 -9999 -9999 -9999 -9999 -9999 -9999 -9999 -9999 1 1 1 1 1 6230 1 1 1 1 3 3 1 1 2 14 2 3 1 1 2 1 1 1 107 2 1 1 1 2 16674 2 1 -9999 -9999 -9999 -9999 -9999 -9999 -9999 -9999 -9999 -9999 -9999 -9999 -9999 -9999 -9999 -9999 -9999 -9999 -9999 -9999 -9999 -9999 -9999 -9999 -9999 -9999 -9999 -9999 -9999 -9999 -9999
 -9999 -9999 -9999 -9999 -9999 -9999 -9999 -9999 -9999 -9999 -9999 -9999 -9999 -9999 -9999 -9999 -9999 -9999 -9999 -9999 -9999 -9999 -9999 -9999 -9999 -9999 -9999 -9999 -9999 -9999 -9999 -9999 -9999 -9999 -9999 -9999 -9999 -9999 -9999 -9999 -9999 -9999 -9999 -9999 -9999 -9999 -9999 -9999 -9999 -9999 -9999 -9999 -9999 -9999 -9999 -9999 -9999 -9999 -9999 -9999 -9999 -9999 -9999 -9999 -9999 -9999 -9999 -9999 -9999 -9999 -9999 1 1 1 1 2 6224 4 3 1 1 2 3 7 2 1 1 3 18 7 3 1 1 1 1 1 108 1 1 1 3 16669 2 1 1 -9999 -9999 -9999 -9999 -9999 -9999 -9999 -9999 -9999 -9999 -9999 -9999 -9999 -9999 -9999 -9999 -9999 -9999 -9999 -9999 -9999 -9999 -9999 -9999 -9999 -9999 -9999 -9999 -9999 -9999 -9999
 -9999 -9999 -9999 -9999 -9999 -9999 -9999 -9999 -9999 -9999 -9999 -9999 -9999 -9999 -9999 -9999 -9999 -9999 -9999 -9999 -9999 -9999 -9999 -9999 -9999 -9999 -9999 -9999 -9999 -9999 -9999 -9999 -9999 -9999 -9999 -9999 -9999 -9999 -9999 -9999 -9999 -9999 -9999 -9999 -9999 -9999 -9999 -9999 -9999 -9999 -9999 -9999 -9999 -9999 -9999 -9999 -9999 -9999 -9999 -9999 -9999 -9999 -9999 -9999 -9999 -9999 -9999 -9999 -9999 -9999 -9999 1 1 2 2 6208 12 4 2 1 1 2 3 7 10 2 1 2 26 1 1 1 1 1 2 3 113 1 1 2 16662 2 1 1 1 -9999 -9999 -9999 -9999 -9999 -9999 -9999 -9999 -9999 -9999 -9999 -9999 -9999 -9999 -9999 -9999 -9999 -9999 -9999 -9999 -9999 -9999 -9999 -9999 -9999 -9999 -9999 -9999 -9999 -9999 -9999
 -9999 -9999 -9999 -9999 -9999 -9999 -9999 -9999 -9999 -9999 -9999 -9999 -9999 -9999 -9999 -9999 -9999 -9999 -9999 -9999 -9999 -9999 -9999 -9999 -9999 -9999 -9999 -9999 -9999 -9999 -9999 -9999 -9999 -9999 -9999 -9999 -9999 -9999 -9999 -9999 -9999 -9999 -9999 -9999 -9999 -9999 -9999 -9999 -9999 -9999 -9999 -9999 -9999 -9999 -9999 -9999 -9999 -9999 -9999 -9999 -9999 -9999 -9999 -9999 -9999 -9999 -9999 -9999 -9999 -9999 1 1 1 1 6201 3 7 2 1 1 1 1 2 3 18 1 3 30 2 1 1 1 1 2 2 3 1 115 2 16656 3 1 1 1 1 -9999 -9999 -9999 -9999 -9999 -9999 -9999 -9999 -9999 -9999 -9999 -9999 -9999 -9999 -9999 -9999 -9999 -9999 -9999 -9999 -9999 -9999 -9999 -9999 -9999 -9999 -9999 -9999 -9999 -9999 -9999
 -9999 -9999 -9999 -9999 -9999 -9999 -9999 -9999 -9999 -9999 -9999 -9999 -9999 -9999 -9999 -9999 -9999 -9999 -9999 -9999 -9999 -9999 -9999 -9999 -9999 -9999 -9999 -9999 -9999 -9999 -9999 -9999 -9999 -9999 -9999 -9999 -9999 -9999 -9999 -9999 -9999 -9999 -9999 -9999 -9999 -9999 -9999 -9999 -9999 -9999 -9999 -9999 -9999 -9999 -9999 -9999 -9999 -9999 -9999 -9999 -9999 -9999 -9999 -9999 -9999 -9999 -9999 -9999 -9999 1 1 1 1 6196 1 2 3 1 1 1 1 2 3 4 22 1 2 42 4 2 1 1 2 2 7 4 1 2 16648 5 2 1 1 -9999 -9999 -9999 -9999 -9999 -9999 -9999 -9999 -9999 -9999 -9999 -9999 -9999 -9999 -9999 -9999 -9999 -9999 -9999 -9999 -9999 -9999 -9999 -9999 -9999 -9999 -9999 -9999 -9999 -9999 -9999 -9999 -9999
 -9999 -9999 -9999 -9999 -9999 -9999 -9999 -9999 -9999 -9999 -9999 -9999 -9999 -9999 -9999 -9999 -9999 -9999 -9999 -9999 -9999 -9999 -9999 -9999 -9999 -9999 -9999 -9999 -9999 -9999 -9999 -9999 -9999 -9999 -9999 -9999 -9999 -9999 -9999 -9999 -9999 -9999 -9999 -9999 -9999 -9999 -9999 -9999 -9999 -9999 -9999 -9999 -9999 -9999 -9999 -9999 -9999 -9999 -9999 -9999 -9999 -9999 -9999 -9999 -9999 -9999 -9999 1 1 1 1 1 6191 1 1 1 1 1 1 1 2 2 1 1 27 1 2 45 1 2 2 1 1 4 5 13 6 16525 3 2 2 1 1 -9999 -9999 -9999 -9999 -9999 -9999 -9999 -9999 -9999 -9999 -9999 -9999 -9999 -9999 -9999 -9999 -9999 -9999 -9999 -9999 -9999 -9999 -9999 -9999 -9999 -9999 -9999 -9999 -9999 -9999 -9999 -9999 -9999
 -9999 -9999 -9999 -9999 -9999 -9999 -9999 -9999 -9999 -9999 -9999 -9999 -9999 -9999 -9999 -9999 -9999 -9999 -9999 -9999 -9999 -9999 -9999 -9999 -9999 -9999 -9999 -9999 -9999 -9999 -9999 -9999 -9999 -9999 -9999 -9999 -9999 -9999 -9999 -9999 -9999 -9999 -9999 -9999 -9999 -9999 -9999 -9999 -9999 -9999 -9999 -9999 -9999 -9999 -9999 -9999 -9999 -9999 -9999 -9999 -9999 -9999 -9999 -9999 -9999 -9999 -9999 1 1 1 1 6185 1 2 1 1 2 1 1 2 2 5 2 2 28 2 1 118 167 3 2 1 1 2 3 1 16512 4 2 2 1 1 1 -9999 -9999 -9999 -9999 -9999 -9999 -9999 -9999 -9999 -9999 -9999 -9999 -9999 -9999 -9999 -9999 -9999 -9999 -9999 -9999 -9999 -9999 -9999 -9999 -9999 -9999 -9999 -9999 -9999 -9999 -9999 -9999 -9999
 -9999 -9999 -9999 -9999 -9999 -9999 -9999 -9999 -9999 -9999 -9999 -9999 -9999 -9999 -9999 -9999 -9999 -9999 -9999 -9999 -9999 -9999 -9999 -9999 -9999 -9999 -9999 -9999 -9999 -9999 -9999 -9999 -9999 -9999 -9999 -9999 -9999 -9999 -9999 -9999 -9999 -9999 -9999 -9999 -9999 -9999 -9999 -9999 -9999 -9999 -9999 -9999 -9999 -9999 -9999 -9999 -9999 -9999 -9999 -9999 -9999 -9999 -9999 -9999 -9999 -9999 -9999 1 1 2 6168 1 13 1 1 1 1 5 1 2 5 34 44 46 31 3 116 1 169 6 2 1 1 1 1 16495 2 2 1 1 1 1 1 -9999 -9999 -9999 -9999 -9999 -9999 -9999 -9999 -9999 -9999 -9999 -9999 -9999 -9999 -9999 -9999 -9999 -9999 -9999 -9999 -9999 -9999 -9999 -9999 -9999 -9999 -9999 -9999 -9999 -9999 -9999 -9999 -9999
 -9999 -9999 -9999 -9999 -9999 -9999 -9999 -9999 -9999 -9999 -9999 -9999 -9999 -9999 -9999 -9999 -9999 -9999 -9999 -9999 -9999 -9999 -9999 -9999 -9999 -9999 -9999 -9999 -9999 -9999 -9999 -9999 -9999 -9999 -9999 -9999 -9999 -9999 -9999 -9999 -9999 -9999 -9999 -9999 -9999 -9999 -9999 -9999 -9999 -9999 -9999 -9999 -9999 -9999 -9999 -9999 -9999 -9999 -9999 -9999 -9999 -9999 -9999 -9999 1 1 1 1 1 6161 2 1 1 10 4 1 1 2 8 10 26 2 1 3 53 111 1 1 2 178 4 1 1 3 16486 4 2 1 1 1 1 1 -9999 -9999 -9999 -9999 -9999 -9999 -9999 -9999 -9999 -9999 -9999 -9999 -9999 -9999 -9999 -9999 -9999 -9999 -9999 -9999 -9999 -9999 -9999 -9999 -9999 -9999 -9999 -9999 -9999 -9999 -9999 -9999 -9999 -9999
 -9999 -9999 -9999 -9999 -9999 -9999 -9999 -9999 -9999 -9999 -9999 -9999 -9999 -9999 -9999 -9999 -9999 -9999 -9999 -9999 -9999 -9999 -9999 -9999 -9999 -9999 -9999 -9999 -9999 -9999 -9999 -9999 -9999 -9999 -9999 -9999 -9999 -9999 -9999 -9999 -9999 -9999 -9999 -9999 -9999 -9999 -9999 -9999 -9999 -9999 -9999 -9999 -9999 -9999 -9999 -9999 -9999 -9999 -9999 -9999 -9999 -9999 1 1 1 1 1 17 6156 2 1 1 1 2 1 1 1 2 4 14 1 1 2 3 3 22 1 1 3 7 192 2 16468 16478 4 2 1 1 1 1 -9999 -9999 -9999 -9999 -9999 -9999 -9999 -9999 -9999 -9999 -9999 -9999 -9999 -9999 -9999 -9999 -9999 -9999 -9999 -9999 -9999 -9999 -9999 -9999 -9999 -9999 -9999 -9999 -9999 -9999 -9999 -9999 -9999 -9999 -9999 -9999
 -9999 -9999 -9999 -9999 -9999 -9999 -9999 -9999 -9999 -9999 -9999 -9999 -9999 -9999 -9999 -9999 -9999 -9999 -9999 -9999 -9999 -9999 -9999 -9999 -9999 -9999 -9999 -9999 -9999 -9999 -9999 -9999 -9999 -9999 -9999 -9999 -9999 -9999 -9999 -9999 -9999 -9999 -9999 -9999 -9999 -9999 -9999 -9999 -9999 -9999 -9999 -9999 -9999 -9999 -9999 1 1 -9999 -9999 -9999 -9999 -9999 1 1 10 13 15 1 6135 2 1 1 1 1 1 1 1 1 1 4 4 1 2 2 6 1 14 1 3 2 3 16464 5 2 2 1 1 1 1 -9999 -9999 -9999 -9999 -9999 -9999 -9999 -9999 -9999 -9999 -9999 -9999 -9999 -9999 -9999 -9999 -9999 -9999 -9999 -9999 -9999 -9999 -9999 -9999 -9999 -9999 -9999 -9999 -9999 -9999 -9999 -9999 -9999 -9999 -9999 -9999 -9999
 -9999 -9999 -9999 -9999 -9999 -9999 -9999 -9999 -9999 -9999 -9999 -9999 -9999 -9999 -9999 -9999 -9999 -9999 -9999 -9999 -9999 -9999 -9999 -9999 -9999 -9999 -9999 -9999 -9999 -9999 -9999 -9999 -9999 -9999 -9999 -9999 -9999 -9999 -9999 -9999 -9999 -9999 -9999 -9999 -9999 -9999 -9999 -9999 -9999 -9999 -9999 -9999 -9999 -9999 1 1 1 1 -9999 -9999 -9999 1 1 8 2 2 12 45 6074 15 4 2 1 1 1 3 2 1 1 2 3 1 1 5 2 10 13 2 1 1 2 16268 2 2 1 1 1 1 -9999 -9999 -9999 -9999 -9999 -9999 -9999 -9999 -9999 -9999 -9999 -9999 -9999 -9999 -9999 -9999 -9999 -9999 -9999 -9999 -9999 -9999 -9999 -9999 -9999 -9999 -9999 -9999 -9999 -9999 -9999 -9999 -9999 -9999 -9999 -9999 -9999 -9999
 -9999 -9999 -9999 -9999 -9999 -9999 -9999 -9999 -9999 -9999 -9999 -9999 -9999 -9999 -9999 -9999 -9999 -9999 -9999 -9999 -9999 -9999 -9999 -9999 -9999 -9999 -9999 -9999 -9999 -9999 -9999 -9999 -9999 -9999 -9999 -9999 -9999 -9999 -9999 -9999 -9999 -9999 -9999 -9999 -9999 -9999 -9999 -9999 -9999 -9999 -9999 -9999 -9999 1 1 1 1 1 1 1 1 1 7 1 1 1 8 32 1 6072 10 3 1 1 4 8 5 1 1 1 1 1 4 1 3 4 2 1 1 2 16263 4 1 1 1 1 1 -9999 -9999 -9999 -9999 -9999 -9999 -9999 -9999 -9999 -9999 -9999 -9999 -9999 -9999 -9999 -9999 -9999 -9999 -9999 -9999 -9999 -9999 -9999 -9999 -9999 -9999 -9999 -9999 -9999 -9999 -9999 -9999 -9999 -9999 -9999 -9999 -9999 -9999 -9999
 -9999 -9999 -9999 -9999 -9999 -9999 -9999 -9999 -9999 -9999 -9999 -9999 -9999 -9999 -9999 -9999 -9999 -9999 -9999 -9999 -9999 -9999 -9999 -9999 -9999 -9999 -9999 -9999 -9999 -9999 -9999 -9999 -9999 -9999 -9999 -9999 -9999 -9999 -9999 -9999 -9999 -9999 -9999 -9999 -9999 -9999 -9999 -9999 -9999 -9999 -9999 -9999 1 1 1 2 3 1 1 1 3 6 2 3 4 7 20 11 1 6070 4 2 1 1 1 1 15 1 1 1 1 1 1 2 2 1 1 1 2 3 16257 1 1 1 1 1 -9999 -9999 -9999 -9999 -9999 -9999 -9999 -9999 -9999 -9999 -9999 -9999 -9999 -9999 -9999 -9999 -9999 -9999 -9999 -9999 -9999 -9999 -9999 -9999 -9999 -9999 -9999 -9999 -9999 -9999 -9999 -9999 -9999 -9999 -9999 -9999 -9999 -9999 -9999 -9999
 -9999 -9999 -9999 -9999 -9999 -9999 -9999 -9999 -9999 -9999 -9999 -9999 -9999 -9999 -9999 -9999 -9999 -9999 -9999 -9999 -9999 -9999 -9999 -9999 -9999 -9999 -9999 -9999 -9999 -9999 -9999 -9999 -9999 -9999 -9999 -9999 -9999 -9999 -9999 -9999 -9999 -9999 1 1 1 1 -9999 -9999 -9999 -9999 -9999 1 1 2 4 5 11 3 1 1 1 1 1 1 2 3 16 10 1 6068 2 1 1 3 1 1 1 17 2 3 2 1 1 1 1 1 1 1 2 16254 1 1 1 1 -9999 -9999 -9999 -9999 -9999 -9999 -9999 -9999 -9999 -9999 -9999 -9999 -9999 -9999 -9999 -9999 -9999 -9999 -9999 -9999 -9999 -9999 -9999 -9999 -9999 -9999 -9999 -9999 -9999 -9999 -9999 -9999 -9999 -9999 -9999 -9999 -9999 -9999 -9999 -9999 -9999 -9999
 -9999 -9999 -9999 -9999 -9999 -9999 -9999 -9999 -9999 -9999 -9999 -9999 -9999 -9999 -9999 -9999 -9999 -9999 -9999 -9999 -9999 -9999 -9999 -9999 -9999 -9999 -9999 -9999 -9999 -9999 -9999 -9999 -9999 -9999 -9999 -9999 -9999 -9999 -9999 -9999 1 1 1 1 1 1 1 -9999 -9999 1 1 1 1 1 1 2 3 21 2 1 1 2 1 1 2 15 5 4 6064 3 1 2 3 12 3 1 1 1 19 25 8 4 2 1 1 1 2 4 16247 4 2 1 1 -9999 -9999 -9999 -9999 -9999 -9999 -9999 -9999 -9999 -9999 -9999 -9999 -9999 -9999 -9999 -9999 -9999 -9999 -9999 -9999 -9999 -9999 -9999 -9999 -9999 -9999 -9999 -9999 -9999 -9999 -9999 -9999 -9999 -9999 -9999 -9999 -9999 -9999 -9999 -9999 -9999 -9999 -9999
 -9999 -9999 -9999 -9999 -9999 -9999 -9999 -9999 -9999 -9999 -9999 -9999 -9999 -9999 -9999 -9999 -9999 -9999 -9999 -9999 -9999 -9999 -9999 -9999 -9999 -9999 -9999 -9999 -9999 -9999 -9999 -9999 -9999 -9999 -9999 -9999 -9999 -9999 -9999 -9999 1 1 2 5 3 1 1 -9999 -9999 1 1 1 1 1 1 2 3 23 1 1 1 3 3 2 14 4 3 6059 4 2 1 3 6 21 1 1 1 2 1 40 6 3 2 1 1 2 4 16240 2 1 1 1 1 -9999 -9999 -9999 -9999 -9999 -9999 -9999 -9999 -9999 -9999 -9999 -9999 -9999 -9999 -9999 -9999 -9999 -9999 -9999 -9999 -9999 -9999 -9999 -9999 -9999 -9999 -9999 -9999 -9999 -9999 -9999 -9999 -9999 -9999 -9999 -9999 -9999 -9999 -9999 -9999 -9999 -9999 -9999
 -9999 -9999 -9999 -9999 -9999 -9999 -9999 -9999 -9999 -9999 -9999 -9999 -9999 -9999 -9999 -9999 -9999 -9999 -9999 -9999 -9999 -9999 -9999 -9999 -9999 -9999 -9999 -9999 -9999 -9999 -9999 -9999 -9999 -9999 -9999 -9999 -9999 -9999 1 1 1 1 12 2 1 1 1 1 1 1 1 3 3 1 1 1 28 1 2 1 1 1 6 11 3 2 1 6057 3 1 2 2 2 2 24 27 2 3 42 1 1 1 1 1 1 2 16233 2 1 1 1 -9999 -9999 -9999 -9999 -9999 -9999 -9999 -9999 -9999 -9999 -9999 -9999 -9999 -9999 -9999 -9999 -9999 -9999 -9999 -9999 -9999 -9999 -9999 -9999 -9999 -9999 -9999 -9999 -9999 -9999 -9999 -9999 -9999 -9999 -9999 -9999 -9999 -9999 -9999 -9999 -9999 -9999 -9999 -9999 -9999
 -9999 -9999 -9999 -9999 -9999 -9999 -9999 -9999 -9999 -9999 -9999 -9999 -9999 -9999 -9999 -9999 -9999 -9999 -9999 -9999 -9999 -9999 -9999 -9999 -9999 -9999 -9999 -9999 -9999 -9999 -9999 -9999 -9999 -9999 -9999 -9999 -9999 1 1 1 1 1 13 1 1 1 1 1 1 2 3 5 12 2 1 2 5992 5993 6003 6005 1 1 1 1 1 1 6055 1 2 1 1 1 1 1 37 42 74 77 47 2 1 1 1 2 5 16228 2 1 1 1 -9999 -9999 -9999 -9999 -9999 -9999 -9999 -9999 -9999 -9999 -9999 -9999 -9999 -9999 -9999 -9999 -9999 -9999 -9999 -9999 -9999 -9999 -9999 -9999 -9999 -9999 -9999 -9999 -9999 -9999 -9999 -9999 -9999 -9999 -9999 -9999 -9999 -9999 -9999 -9999 -9999 -9999 -9999 -9999 -9999 -9999
 -9999 -9999 -9999 -9999 -9999 -9999 -9999 -9999 -9999 -9999 -9999 -9999 -9999 -9999 -9999 -9999 -9999 -9999 -9999 -9999 -9999 -9999 -9999 -9999 -9999 -9999 -9999 -9999 -9999 -9999 -9999 -9999 -9999 -9999 -9999 -9999 1 1 1 2 2 1 15 5 2 1 2 2 1 2 4 5 8 21 4 5960 1 3 3 1 6011 1 1 1 1 6053 1 1 1 2 3 4 1 35 4 2 2 3 130 1 1 1 2 16215 16218 4 1 1 1 -9999 -9999 -9999 -9999 -9999 -9999 -9999 -9999 -9999 -9999 -9999 -9999 -9999 -9999 -9999 -9999 -9999 -9999 -9999 -9999 -9999 -9999 -9999 -9999 -9999 -9999 -9999 -9999 -9999 -9999 -9999 -9999 -9999 -9999 -9999 -9999 -9999 -9999 -9999 -9999 -9999 -9999 -9999 -9999 -9999 -9999 -9999
 -9999 -9999 -9999 -9999 -9999 -9999 -9999 -9999 -9999 -9999 -9999 -9999 -9999 -9999 -9999 -9999 -9999 -9999 -9999 -9999 -9999 -9999 -9999 -9999 -9999 -9999 -9999 -9999 -9999 -9999 -9999 -9999 -9999 -9999 -9999 1 1 1 2 5 1 1 17 6 1 2 3 3 1 1 1 2 2 3 5954 1 1 1 2 3 1 6013 6017 6020 6050 1 1 1 1 2 15 19 33 3 1 1 1 1 1 132 1 2 16211 1 1 3 1 1 -9999 -9999 -9999 -9999 -9999 -9999 -9999 -9999 -9999 -9999 -9999 -9999 -9999 -9999 -9999 -9999 -9999 -9999 -9999 -9999 -9999 -9999 -9999 -9999 -9999 -9999 -9999 -9999 -9999 -9999 -9999 -9999 -9999 -9999 -9999 -9999 -9999 -9999 -9999 -9999 -9999 -9999 -9999 -9999 -9999 -9999 -9999 -9999
 -9999 -9999 -9999 -9999 -9999 -9999 -9999 -9999 -9999 -9999 -9999 -9999 -9999 -9999 -9999 -9999 -9999 -9999 -9999 -9999 -9999 -9999 -9999 -9999 -9999 -9999 -9999 1 -9999 1 1 1 1 1 1 1 1 2 3 7 1 1 19 7 2 3 7 1 1 2 1 1 1 3 5915 11 4 1 1 2 1 2 1 3 29 1 1 4 9 12 3 7 2 1 1 1 1 1 1 134 2 16202 5 1 1 1 1 -9999 -9999 -9999 -9999 -9999 -9999 -9999 -9999 -9999 -9999 -9999 -9999 -9999 -9999 -9999 -9999 -9999 -9999 -9999 -9999 -9999 -9999 -9999 -9999 -9999 -9999 -9999 -9999 -9999 -9999 -9999 -9999 -9999 -9999 -9999 -9999 -9999 -9999 -9999 -9999 -9999 -9999 -9999 -9999 -9999 -9999 -9999 -9999 -9999
 -9999 -9999 -9999 -9999 -9999 -9999 -9999 -9999 -9999 -9999 -9999 -9999 -9999 -9999 -9999 -9999 -9999 -9999 -9999 -9999 -9999 -9999 -9999 -9999 -9999 -9999 1 1 1 1 1 3 2 1 1 2 3 7 1 11 2 2 20 8 5739 5751 1 2 2 3 2 1 1 2 5912 3 3 2 1 1 2 3 1 18 5 1 1 4 2 2 1 5 1 1 1 1 2 2 2 138 16198 1 2 1 1 1 1 -9999 -9999 -9999 -9999 -9999 -9999 -9999 -9999 -9999 -9999 -9999 -9999 -9999 -9999 -9999 -9999 -9999 -9999 -9999 -9999 -9999 -9999 -9999 -9999 -9999 -9999 -9999 -9999 -9999 -9999 -9999 -9999 -9999 -9999 -9999 -9999 -9999 -9999 -9999 -9999 -9999 -9999 -9999 -9999 -9999 -9999 -9999 -9999 -9999
 -9999 -9999 -9999 -9999 -9999 -9999 -9999 -9999 -9999 -9999 -9999 -9999 -9999 -9999 -9999 -9999 -9999 -9999 -9999 -9999 -9999 -9999 -9999 -9999 -9999 -9999 1 1 1 2 5 1 1 1 3 6 8 9 8 10 5672 5683 5724 5728 1 1 5752 4 5771 5777 5 1 1 2 5909 1 1 2 1 1 2 4 17 2 1 1 1 1 1 1 2 2 2 3 5 2 2 5 16037 16056 2 1 1 2 1 -9999 -9999 -9999 -9999 -9999 -9999 -9999 -9999 -9999 -9999 -9999 -9999 -9999 -9999 -9999 -9999 -9999 -9999 -9999 -9999 -9999 -9999 -9999 -9999 -9999 -9999 -9999 -9999 -9999 -9999 -9999 -9999 -9999 -9999 -9999 -9999 -9999 -9999 -9999 -9999 -9999 -9999 -9999 -9999 -9999 -9999 -9999 -9999 -9999 -9999 -9999
 -9999 -9999 -9999 -9999 -9999 -9999 -9999 -9999 -9999 -9999 -9999 -9999 -9999 -9999 -9999 -9999 -9999 -9999 -9999 -9999 -9999 -9999 -9999 -9999 -9999 -9999 1 1 3 9 2 1 1 1 2 1 1 2 12 5648 8 20 1 1 1 1 5764 5766 1 3 5787 1 1 1 2 5906 1 2 1 1 1 2 7 2 1 1 2 1 1 1 1 1 1 2 3 9 12 16029 9 7 2 1 1 37 -9999 -9999 -9999 -9999 -9999 -9999 -9999 -9999 -9999 -9999 -9999 -9999 -9999 -9999 -9999 -9999 -9999 -9999 -9999 -9999 -9999 -9999 -9999 -9999 -9999 -9999 -9999 -9999 -9999 -9999 -9999 -9999 -9999 -9999 -9999 -9999 -9999 -9999 -9999 -9999 -9999 -9999 -9999 -9999 -9999 -9999 -9999 -9999 -9999 -9999 -9999 -9999
 -9999 -9999 -9999 -9999 -9999 -9999 -9999 -9999 -9999 -9999 -9999 -9999 -9999 -9999 -9999 -9999 -9999 -9999 -9999 -9999 -9999 -9999 -9999 -9999 -9999 -9999 1 1 2 19 3 2 1 1 1 1 1 2 5635 3 4 16 3 1 1 3 9 1 1 1 2 5790 1 1 3 5904 10 3 2 1 1 1 3 1 1 1 4 2 1 1 1 1 1 3 5 16009 16016 5 3 4 2 1 36 1 -9999 -9999 -9999 -9999 -9999 -9999 -9999 -9999 -9999 -9999 -9999 -9999 -9999 -9999 -9999 -9999 -9999 -9999 -9999 -9999 -9999 -9999 -9999 -9999 -9999 -9999 -9999 -9999 -9999 -9999 -9999 -9999 -9999 -9999 -9999 -9999 -9999 -9999 -9999 -9999 -9999 -9999 -9999 -9999 -9999 -9999 -9999 -9999 -9999 -9999 -9999 -9999
 -9999 -9999 -9999 -9999 -9999 -9999 -9999 -9999 -9999 -9999 -9999 -9999 -9999 -9999 -9999 -9999 -9999 -9999 -9999 -9999 -9999 -9999 -9999 -9999 -9999 1 1 1 4 67 89 96 100 101 105 108 112 118 5514 2 3 3 12 1 1 1 4 1 1 1 1 5794 1 1 5869 2 19 4 3 2 1 1 1 1 2 4 538 3 2 2 2 4 1 1 16003 3 3 4 2 2 1 1 35 1 -9999 -9999 -9999 -9999 -9999 -9999 -9999 -9999 -9999 -9999 -9999 -9999 -9999 -9999 -9999 -9999 -9999 -9999 -9999 -9999 -9999 -9999 -9999 -9999 -9999 -9999 -9999 -9999 -9999 -9999 -9999 -9999 -9999 -9999 -9999 -9999 -9999 -9999 -9999 -9999 -9999 -9999 -9999 -9999 -9999 -9999 -9999 -9999 -9999 -9999 -9999 -9999
 -9999 -9999 -9999 -9999 -9999 -9999 -9999 -9999 -9999 -9999 -9999 -9999 -9999 -9999 -9999 -9999 -9999 -9999 -9999 -9999 -9999 -9999 -9999 -9999 -9999 1 1 2 1 65 2 1 2 2 1 2 3 2 5513 1 2 2 1 10 3 3 1 3 8 1 1 5795 1 5867 1 1 2 16 6 5 1 1 1 1 2 528 4 552 555 3 1 1 5 16002 1 1 2 3 1 1 1 2 32 1 -9999 -9999 -9999 -9999 -9999 -9999 -9999 -9999 -9999 -9999 -9999 -9999 -9999 -9999 -9999 -9999 -9999 -9999 -9999 -9999 -9999 -9999 -9999 -9999 -9999 -9999 -9999 -9999 -9999 -9999 -9999 -9999 -9999 -9999 -9999 -9999 -9999 -9999 -9999 -9999 -9999 -9999 -9999 -9999 -9999 -9999 -9999 -9999 -9999 -9999 -9999 -9999
 -9999 -9999 -9999 -9999 -9999 -9999 -9999 -9999 -9999 -9999 -9999 -9999 -9999 -9999 -9999 -9999 -9999 -9999 -9999 -9999 -9999 -9999 -9999 -9999 1 1 1 5 58 6 1 1 1 1 1 1 1 1 5511 1 1 1 1 5 2 2 1 2 2 12 2 5796 5860 4 2 1 1 7 1 2 1 1 2 4 525 1 2 6 3 563 565 1 2 15994 2 1 1 1 1 1 3 29 2 1 -9999 -9999 -9999 -9999 -9999 -9999 -9999 -9999 -9999 -9999 -9999 -9999 -9999 -9999 -9999 -9999 -9999 -9999 -9999 -9999 -9999 -9999 -9999 -9999 -9999 -9999 -9999 -9999 -9999 -9999 -9999 -9999 -9999 -9999 -9999 -9999 -9999 -9999 -9999 -9999 -9999 -9999 -9999 -9999 -9999 -9999 -9999 -9999 -9999 -9999 -9999 -9999
 -9999 -9999 -9999 -9999 -9999 -9999 -9999 -9999 -9999 -9999 -9999 -9999 -9999 -9999 -9999 -9999 -9999 -9999 -9999 -9999 -9999 -9999 -9999 -9999 1 1 3 3 49 2 2 1 1 1 1 1 1 1 164 5346 5343 5339 2 2 1 1 1 1 23 24 51 59 4 2 1 1 1 4 1 1 2 4 6 7 520 1 1 4 2 1 1 566 15988 3 2 1 1 1 1 1 2 23 1 1 -9999 -9999 -9999 -9999 -9999 -9999 -9999 -9999 -9999 -9999 -9999 -9999 -9999 -9999 -9999 -9999 -9999 -9999 -9999 -9999 -9999 -9999 -9999 -9999 -9999 -9999 -9999 -9999 -9999 -9999 -9999 -9999 -9999 -9999 -9999 -9999 -9999 -9999 -9999 -9999 -9999 -9999 -9999 -9999 -9999 -9999 -9999 -9999 -9999 -9999 -9999 -9999
 -9999 -9999 -9999 -9999 -9999 -9999 -9999 -9999 -9999 -9999 -9999 -9999 -9999 -9999 -9999 -9999 -9999 -9999 -9999 -9999 -9999 -9999 -9999 -9999 1 1 2 8 40 1 1 2 6 140 145 150 157 160 2 2 3 5336 2 1 1 1 2 22 1 4 12 7 2 1 1 1 1 1 1 1 1 1 3 4 508 1 1 2 1 2 3 5 15420 3 2 1 2 2 2 1 1 21 1 1 -9999 -9999 -9999 -9999 -9999 -9999 -9999 -9999 -9999 -9999 -9999 -9999 -9999 -9999 -9999 -9999 -9999 -9999 -9999 -9999 -9999 -9999 -9999 -9999 -9999 -9999 -9999 -9999 -9999 -9999 -9999 -9999 -9999 -9999 -9999 -9999 -9999 -9999 -9999 -9999 -9999 -9999 -9999 -9999 -9999 -9999 -9999 -9999 -9999 -9999 -9999 -9999
 -9999 -9999 -9999 -9999 -9999 -9999 -9999 -9999 -9999 -9999 -9999 -9999 -9999 -9999 -9999 -9999 -9999 -9999 -9999 -9999 -9999 -9999 1 1 1 1 7 29 3 7 1 2 121 10 3 3 5 2 1 1 2 5330 5 1 1 1 13 19 2 4 3 3 1 1 2 1 1 1 1 1 1 1 1 3 506 2 1 1 1 1 5 14 564 14833 14819 14817 9 6 1 1 19 1 1 -9999 -9999 -9999 -9999 -9999 -9999 -9999 -9999 -9999 -9999 -9999 -9999 -9999 -9999 -9999 -9999 -9999 -9999 -9999 -9999 -9999 -9999 -9999 -9999 -9999 -9999 -9999 -9999 -9999 -9999 -9999 -9999 -9999 -9999 -9999 -9999 -9999 -9999 -9999 -9999 -9999 -9999 -9999 -9999 -9999 -9999 -9999 -9999 -9999 -9999 -9999 -9999 -9999
 -9999 -9999 -9999 -9999 -9999 -9999 -9999 -9999 -9999 -9999 -9999 -9999 -9999 -9999 -9999 -9999 -9999 -9999 -9999 -9999 -9999 -9999 1 1 3 6 19 9 2 6 1 120 6 3 2 2 3 1 1 1 1 5328 2 2 1 11 3 2 1 3 2 1 1 1 5 1 2 1 3 3 1 1 1 467 495 5 2 1 1 3 2 6 563 4 9 1 14807 2 1 1 7 10 1 -9999 -9999 -9999 -9999 -9999 -9999 -9999 -9999 -9999 -9999 -9999 -9999 -9999 -9999 -9999 -9999 -9999 -9999 -9999 -9999 -9999 -9999 -9999 -9999 -9999 -9999 -9999 -9999 -9999 -9999 -9999 -9999 -9999 -9999 -9999 -9999 -9999 -9999 -9999 -9999 -9999 -9999 -9999 -9999 -9999 -9999 -9999 -9999 -9999 -9999 -9999 -9999 -9999
 -9999 -9999 -9999 -9999 -9999 -9999 -9999 -9999 -9999 -9999 -9999 -9999 -9999 -9999 -9999 -9999 -9999 -9999 -9999 -9999 -9999 -9999 1 1 2 15 3 8 1 5 4 115 5 2 1 1 1 1 1 1 5326 1 1 1 3 5 2 1 1 1 1 1 1 9 1 1 1 4 4 4 2 2 466 1 25 1 2 1 1 1 3 2 562 3 8 1 14801 2 1 1 4 9 5 1 1 -9999 -9999 -9999 -9999 -9999 -9999 -9999 -9999 -9999 -9999 -9999 -9999 -9999 -9999 -9999 -9999 -9999 -9999 -9999 -9999 -9999 -9999 -9999 -9999 -9999 -9999 -9999 -9999 -9999 -9999 -9999 -9999 -9999 -9999 -9999 -9999 -9999 -9999 -9999 -9999 -9999 -9999 -9999 -9999 -9999 -9999 -9999 -9999 -9999 -9999 -9999
 -9999 -9999 -9999 -9999 -9999 -9999 -9999 -9999 -9999 -9999 -9999 -9999 -9999 -9999 -9999 -9999 -9999 -9999 -9999 -9999 -9999 -9999 1 1 9 5 2 7 4 3 1 113 3 1 1 1 2 3 5 5253 71 1 1 1 2 2 2 1 1 2 3 4 10 32 1 1 3 6 11 9 449 458 5 1 19 4 3 1 1 2 1 561 2 3 4 1 14795 4 1 1 2 4 4 4 1 -9999 -9999 -9999 -9999 -9999 -9999 -9999 -9999 -9999 -9999 -9999 -9999 -9999 -9999 -9999 -9999 -9999 -9999 -9999 -9999 -9999 -9999 -9999 -9999 -9999 -9999 -9999 -9999 -9999 -9999 -9999 -9999 -9999 -9999 -9999 -9999 -9999 -9999 -9999 -9999 -9999 -9999 -9999 -9999 -9999 -9999 -9999 -9999 -9999 -9999 -9999
 -9999 -9999 -9999 -9999 -9999 -9999 -9999 -9999 -9999 -9999 -9999 -9999 -9999 -9999 -9999 -9999 -9999 -9999 -9999 -9999 -9999 -9999 1 4 4 4 1 6 3 2 4 108 1 1 1 1 2 4 5245 1 1 69 3 1 1 1 1 1 1 2 3 4 12 2 34 1 1 1 3 437 7 1 3 1 1 17 2 1 1 557 560 1 2 2 1 1 14793 1 1 1 1 2 3 3 12 1 1 -9999 -9999 -9999 -9999 -9999 -9999 -9999 -9999 -9999 -9999 -9999 -9999 -9999 -9999 -9999 -9999 -9999 -9999 -9999 -9999 -9999 -9999 -9999 -9999 -9999 -9999 -9999 -9999 -9999 -9999 -9999 -9999 -9999 -9999 -9999 -9999 -9999 -9999 -9999 -9999 -9999 -9999 -9999 -9999 -9999 -9999 -9999 -9999 -9999
 -9999 -9999 -9999 -9999 -9999 -9999 -9999 -9999 -9999 -9999 -9999 -9999 -9999 -9999 -9999 -9999 -9999 -9999 -9999 -9999 -9999 -9999 1 3 3 3 2 3 2 1 3 107 1 1 1 2 1 1 5234 6 1 1 64 3 1 1 2 1 1 3 6 11 1 1 3 36 1 1 2 420 5 1 2 1 7 7 2 1 1 554 2 1 1 1 2 1 14789 2 1 1 1 1 1 2 10 1 1 -9999 -9999 -9999 -9999 -9999 -9999 -9999 -9999 -9999 -9999 -9999 -9999 -9999 -9999 -9999 -9999 -9999 -9999 -9999 -9999 -9999 -9999 -9999 -9999 -9999 -9999 -9999 -9999 -9999 -9999 -9999 -9999 -9999 -9999 -9999 -9999 -9999 -9999 -9999 -9999 -9999 -9999 -9999 -9999 -9999 -9999 -9999 -9999 -9999
 -9999 -9999 -9999 -9999 -9999 -9999 -9999 -9999 -9999 -9999 -9999 -9999 -9999 -9999 -9999 -9999 -9999 -9999 -9999 -9999 -9999 -9999 1 2 2 2 1 2 1 2 2 104 3 5 7 11 1 1 5231 2 2 1 34 24 2 3 1 1 1 2 2 2 1 1 6 39 1 1 416 3 3 1 1 1 4 3 1 1 1 552 1 1 1 2 3 14784 1 3 2 1 1 1 1 1 5 3 1 1 1 -9999 -9999 -9999 -9999 -9999 -9999 -9999 -9999 -9999 -9999 -9999 -9999 -9999 -9999 -9999 -9999 -9999 -9999 -9999 -9999 -9999 -9999 -9999 -9999 -9999 -9999 -9999 -9999 -9999 -9999 -9999 -9999 -9999 -9999 -9999 -9999 -9999 -9999 -9999 -9999 -9999 -9999 -9999 -9999 -9999 -9999 -9999
 -9999 -9999 -9999 -9999 -9999 -9999 -9999 -9999 -9999 -9999 -9999 -9999 -9999 -9999 -9999 -9999 -9999 -9999 -9999 -9999 -9999 1 1 1 1 1 1 1 1 1 103 2 3 6 10 22 37 5228 2 1 1 1 31 1 21 5 2 1 1 1 1 2 3 5 309 355 1 414 1 1 1 2 1 2 1 1 1 1 1 1 549 1 1 2 6 14778 14741 5 4 2 2 1 1 1 2 1 2 1 1 1 1 1 1 1 -9999 -9999 -9999 -9999 -9999 -9999 -9999 -9999 -9999 -9999 -9999 -9999 -9999 -9999 -9999 -9999 -9999 -9999 -9999 -9999 -9999 -9999 -9999 -9999 -9999 -9999 -9999 -9999 -9999 -9999 -9999 -9999 -9999 -9999 -9999 -9999 -9999 -9999 -9999 -9999 -9999 -9999
 -9999 -9999 -9999 -9999 -9999 -9999 -9999 -9999 -9999 -9999 -9999 -9999 -9999 -9999 -9999 -9999 -9999 -9999 -9999 -9999 -9999 1 1 1 1 1 1 1 2 102 1 2 2 3 3 8 3 5189 1 1 1 1 30 1 1 15 7 4 2 1 1 1 2 3 300 1 361 51 5 4 3 1 1 3 4 1 1 2 2 545 2 1 1 3 2 10 18 14735 14728 1 4 2 1 1 1 1 1 1 1 1 4 2 1 1 1 1 -9999 -9999 -9999 -9999 -9999 -9999 -9999 -9999 -9999 -9999 -9999 -9999 -9999 -9999 -9999 -9999 -9999 -9999 -9999 -9999 -9999 -9999 -9999 -9999 -9999 -9999 -9999 -9999 -9999 -9999 -9999 -9999 -9999 -9999 -9999 -9999 -9999 -9999 -9999 -9999
 -9999 -9999 -9999 -9999 -9999 -9999 -9999 -9999 -9999 -9999 -9999 -9999 -9999 -9999 -9999 -9999 -9999 -9999 -9999 -9999 -9999 1 1 3 2 1 2 4 89 10 1 1 2 2 3 4 2 5187 1 1 3 10 12 5 1 3 2 1 1 1 1 3 60 63 299 1 3 45 6 3 1 2 1 3 6 22 24 3 1 539 2 1 1 1 4 5 17 3 3 14726 14716 9 5 3 1 1 3 2 1 1 5 3 2 1 1 1 1 1 1 1 -9999 -9999 -9999 -9999 -9999 -9999 -9999 -9999 -9999 -9999 -9999 -9999 -9999 -9999 -9999 -9999 -9999 -9999 -9999 -9999 -9999 -9999 -9999 -9999 -9999 -9999 -9999 -9999 -9999 -9999 -9999 -9999 -9999 -9999 -9999 -9999
 -9999 -9999 -9999 -9999 -9999 -9999 -9999 -9999 -9999 -9999 -9999 -9999 -9999 -9999 -9999 -9999 -9999 -9999 -9999 -9999 1 1 1 2 6 2 1 74 9 7 2 1 1 2 2 1 1 5185 1 2 5 4 4 3 2 1 1 1 1 2 1 56 2 2 235 1 1 27 11 2 1 1 2 2 3 7 1 26 537 1 1 1 1 1 2 4 16 2 2 1 8 14702 14697 14695 1 1 5 4 2 1 9 1 1 2 1 1 1 1 1 1 1 -9999 -9999 -9999 -9999 -9999 -9999 -9999 -9999 -9999 -9999 -9999 -9999 -9999 -9999 -9999 -9999 -9999 -9999 -9999 -9999 -9999 -9999 -9999 -9999 -9999 -9999 -9999 -9999 -9999 -9999 -9999 -9999 -9999 -9999 -9999
 -9999 -9999 -9999 -9999 -9999 -9999 -9999 -9999 -9999 -9999 -9999 -9999 -9999 -9999 -9999 -9999 -9999 -9999 -9999 -9999 1 1 1 2 5 69 72 4 4 2 4 1 1 1 1 2 3 5184 1 1 1 3 3 1 1 1 1 1 1 5 55 1 1 2 9 223 5 21 7 3 1 1 1 2 3 3 4 5 450 57 43 42 2 1 1 3 15 1 1 2 5 3 1 1 14693 2 6 8 1 2 17 6 4 3 2 3 1 2 2 1 1 1 1 1 1 1 -9999 -9999 -9999 -9999 -9999 -9999 -9999 -9999 -9999 -9999 -9999 -9999 -9999 -9999 -9999 -9999 -9999 -9999 -9999 -9999 -9999 -9999 -9999 -9999 -9999 -9999 -9999 -9999 -9999 -9999
 -9999 -9999 -9999 -9999 -9999 -9999 -9999 -9999 -9999 -9999 -9999 -9999 -9999 -9999 -9999 -9999 -9999 -9999 -9999 -9999 1 1 2 2 50 5 2 3 3 1 2 1 1 1 2 3 4 5 5175 1 1 1 1 1 1 2 3 31 32 38 11 1 1 2 6 222 4 20 4 6 2 1 1 2 2 3 3 4 415 29 12 37 3 2 1 2 13 1 1 1 3 1 1 1 1 14689 15 42 41 40 20 19 18 17 16 5 3 1 3 6 4 3 2 1 1 1 -9999 -9999 -9999 -9999 -9999 -9999 -9999 -9999 -9999 -9999 -9999 -9999 -9999 -9999 -9999 -9999 -9999 -9999 -9999 -9999 -9999 -9999 -9999 -9999 -9999 -9999 -9999 -9999 -9999 -9999
 -9999 -9999 -9999 -9999 -9999 -9999 -9999 -9999 -9999 -9999 -9999 -9999 -9999 -9999 -9999 -9999 -9999 -9999 -9999 1 1 1 4 47 1 3 1 2 2 1 3 4 5 7 22 30 34 35 1 5172 1 1 2 1 1 2 5 20 1 4 7 2 1 1 2 221 3 8 7 3 5 1 1 1 2 2 2 4 406 28 11 19 14 6 1 1 12 4 2 1 1 1 1 1 3 4 14669 1 1 1 4 3 2 1 2 3 1 5 7 4 3 2 1 2 1 1 1 1 -9999 -9999 -9999 -9999 -9999 -9999 -9999 -9999 -9999 -9999 -9999 -9999 -9999 -9999 -9999 -9999 -9999 -9999 -9999 -9999 -9999 -9999 -9999 -9999 -9999 -9999 -9999 -9999
 -9999 -9999 -9999 -9999 -9999 -9999 -9999 -9999 -9999 -9999 -9999 -9999 -9999 -9999 -9999 -9999 -9999 -9999 -9999 1 1 3 38 4 3 2 2 1 1 2 1 2 3 14 7 3 4 5 41 1 5128 5 2 1 1 2 10 2 7 3 5 1 1 1 2 218 2 2 5 6 2 3 1 1 1 1 1 1 404 27 10 5 13 7 4 1 4 2 1 1 1 1 3 5 6 18 14607 2 1 6 1 1 1 1 1 1 1 13 5 3 2 1 1 3 2 1 1 1 1 -9999 -9999 -9999 -9999 -9999 -9999 -9999 -9999 -9999 -9999 -9999 -9999 -9999 -9999 -9999 -9999 -9999 -9999 -9999 -9999 -9999 -9999 -9999 -9999 -9999 -9999 -9999
 -9999 -9999 -9999 -9999 -9999 -9999 -9999 -9999 -9999 -9999 -9999 -9999 -9999 -9999 -9999 -9999 -9999 -9999 -9999 1 1 3 34 16 3 2 1 1 1 2 4 5 10 6 2 3 1 2 3 4 5117 3 2 1 1 7 2 1 5 1 2 4 1 1 216 1 1 1 4 3 2 1 1 1 1 1 2 403 19 7 8 1 4 12 6 3 2 1 1 1 1 3 4 5 6 5 14603 1 8 2 2 2 2 2 1 1 223 222 195 2 1 1 2 4 4 4 2 1 1 1 -9999 -9999 -9999 -9999 -9999 -9999 -9999 -9999 -9999 -9999 -9999 -9999 -9999 -9999 -9999 -9999 -9999 -9999 -9999 -9999 -9999 -9999 -9999 -9999 -9999 -9999
 -9999 -9999 -9999 -9999 -9999 -9999 -9999 -9999 -9999 -9999 -9999 -9999 -9999 -9999 -9999 -9999 -9999 -9999 -9999 1 1 6 8 9 3 1 1 1 1 1 2 4 5 1 2 3 6 7 8 9 5113 2 1 1 1 5 1 1 2 2 1 3 5 7 208 1 1 1 3 1 1 1 1 1 2 4 400 10 8 6 6 1 3 5 6 5 2 1 1 1 2 1 2 3 4 1 1 14601 11 3 3 1 5 4 2 225 1 2 6 189 180 2 3 5 12 3 2 1 1 1 1 -9999 -9999 -9999 -9999 -9999 -9999 -9999 -9999 -9999 -9999 -9999 -9999 -9999 -9999 -9999 -9999 -9999 -9999 -9999 -9999 -9999 -9999 -9999 -9999 -9999
 -9999 -9999 -9999 -9999 -9999 -9999 -9999 -9999 -9999 -9999 -9999 -9999 -9999 -9999 -9999 -9999 -9999 -9999 -9999 1 2 3 7 7 1 1 2 1 1 1 1 1 3 1 2 2 2 4 7 19 7 5075 2 2 1 3 2 1 1 1 2 4 2 3 206 5 3 1 1 2 1 1 1 2 4 395 4 5 7 4 1 5 2 4 4 1 4 1 1 2 4 7 8 1 1 1 2 1 14588 253 249 241 234 229 228 2 1 1 5 4 4 177 36 21 3 2 1 2 1 1 1 -9999 -9999 -9999 -9999 -9999 -9999 -9999 -9999 -9999 -9999 -9999 -9999 -9999 -9999 -9999 -9999 -9999 -9999 -9999 -9999 -9999 -9999 -9999 -9999 -9999
 -9999 -9999 -9999 -9999 -9999 -9999 -9999 -9999 -9999 -9999 -9999 -9999 -9999 -9999 -9999 -9999 -9999 -9999 -9999 1 1 2 6 5 1 1 3 2 2 1 1 1 1 1 1 1 1 2 2 9 3 3 5072 2665 2663 2662 2 1 1 1 3 1 2 3 183 11 4 3 1 1 1 4 6 8 13 377 3 4 3 3 3 4 1 3 1 2 3 1 7 9 10 11 1 9 3 1 2 5 14326 2 1 7 6 5 4 3 2 1 4 3 3 4 136 11 5 4 3 2 2 1 1 1 -9999 -9999 -9999 -9999 -9999 -9999 -9999 -9999 -9999 -9999 -9999 -9999 -9999 -9999 -9999 -9999 -9999 -9999 -9999 -9999 -9999 -9999 -9999 -9999
 -9999 -9999 -9999 -9999 -9999 -9999 -9999 -9999 -9999 -9999 -9999 -9999 -9999 -9999 -9999 -9999 -9999 -9999 -9999 1 1 2 3 3 1 2 7 3 3 3 1 1 1 1 1 1 1 1 6 2 2 2 2398 6 3 2 2659 2648 2 1 2 1 2 5 11 166 6 2 1 1 1 1 3 4 1 375 1 1 3 2 2 2 3 1 1 1 2 5 4 6 7 8 20 27 43 46 47 49 14323 1 1 1 9 8 7 4 3 1 3 2 2 3 125 10 5 4 3 3 2 1 1 1 1 1 -9999 -9999 -9999 -9999 -9999 -9999 -9999 -9999 -9999 -9999 -9999 -9999 -9999 -9999 -9999 -9999 -9999 -9999 -9999 -9999 -9999 -9999
 -9999 -9999 -9999 -9999 -9999 -9999 -9999 -9999 -9999 -9999 -9999 -9999 -9999 -9999 -9999 -9999 -9999 -9999 -9999 1 1 2 1 1 1 2 3 14 23 8 3 1 1 3 5 2 4 5 1 1 1 22 2372 3 2 1 3 7 2644 1 1 1 2 2 8 2 163 3 2 1 1 1 2 3 4 370 2 1 1 1 1 1 1 2 1 1 4 3 1 2 3 4 5 1 2 1 1 4 14267 1 3 13 3 2 1 2 1 1 2 1 1 2 1 123 9 8 7 3 2 2 1 1 1 1 1 -9999 -9999 -9999 -9999 -9999 -9999 -9999 -9999 -9999 -9999 -9999 -9999 -9999 -9999 -9999 -9999 -9999 -9999 -9999 -9999 -9999
 -9999 -9999 -9999 -9999 -9999 -9999 -9999 -9999 -9999 -9999 -9999 -9999 -9999 -9999 -9999 -9999 -9999 -9999 -9999 1 1 1 2 1 1 1 3 2 93 125 2 1 1 2 3 9 10 11 12 13 21 2355 13 3 2 1 2 6 2642 3 1 1 1 4 3 1 156 6 5 2 1 1 1 3 4 363 2 1 1 23 22 21 20 17 2 1 2 2 1 1 2 3 1 1 1 2 3 1 2 14263 14260 8 7 6 5 4 3 2 1 1 1 2 4 11 111 99 9 8 5 2 2 2 1 1 1 -9999 -9999 -9999 -9999 -9999 -9999 -9999 -9999 -9999 -9999 -9999 -9999 -9999 -9999 -9999 -9999 -9999 -9999 -9999 -9999 -9999
 -9999 -9999 -9999 -9999 -9999 -9999 -9999 -9999 -9999 -9999 -9999 -9999 -9999 -9999 -9999 -9999 -9999 -9999 1 1 1 2 3 4 1 1 1 1 91 2 130 1 1 1 2 3 4 5 6 7 9 2345 9 3 2 1 1 5 2636 2 1 1 3 1 1 6 153 2 1 1 2 1 1 2 3 360 47 45 38 11 6 5 3 2 14 1 1 1 1 2 3 4 9 1 1 1 1 1 1 1 14235 9 8 7 6 5 4 3 2 1 1 1 2 4 3 8 89 73 4 3 3 2 2 1 1 1 -9999 -9999 -9999 -9999 -9999 -9999 -9999 -9999 -9999 -9999 -9999 -9999 -9999 -9999 -9999 -9999 -9999 -9999 -9999 -9999
 -9999 -9999 -9999 -9999 -9999 -9999 -9999 -9999 -9999 -9999 -9999 -9999 -9999 -9999 -9999 -9999 -9999 -9999 1 1 1 1 2 8 2 1 1 89 1 1 1 131 2 2 3 4 5 6 7 8 2327 17 5 3 2 1 1 3 2632 3 1 1 2 4 5 25 119 2 1 1 1 4 1 1 3 19 287 1 5 3 4 2 1 2 1 13 2 1 1 2 3 4 9 25 28 1 1 2 1 1 14225 3 2 1 1 6 5 4 3 2 1 1 2 1 2 7 8 7 68 5 1 3 3 2 1 1 1 -9999 -9999 -9999 -9999 -9999 -9999 -9999 -9999 -9999 -9999 -9999 -9999 -9999 -9999 -9999 -9999 -9999 -9999 -9999
 -9999 -9999 -9999 -9999 -9999 -9999 -9999 -9999 -9999 -9999 -9999 -9999 -9999 -9999 -9999 -9999 -9999 -9999 1 1 3 2 3 14 3 2 1 83 4 1 1 3 137 141 142 143 144 145 146 2326 3 13 1 3 2 1 1 1 2622 9 2 1 1 2 24 1 7 111 1 1 3 5 1 1 2 3 13 286 2 2 2 1 1 1 2 5 5 3 1 2 3 4 5 2 4 29 2 4 1 14217 3 2 1 2 10 3 2 1 1 3 2 1 1 1 2 4 4 3 6 62 51 14 10 6 2 1 1 -9999 -9999 -9999 -9999 -9999 -9999 -9999 -9999 -9999 -9999 -9999 -9999 -9999 -9999 -9999 -9999 -9999 -9999 -9999
 -9999 -9999 -9999 -9999 -9999 -9999 -9999 -9999 -9999 -9999 -9999 -9999 -9999 -9999 -9999 -9999 -9999 -9999 1 1 2 6 7 62 63 71 80 1 1 1 1 2 3 1 2 3 4 5 10 2169 2 4 8 2 2 1 1 2 2621 2 8 1 1 2 19 5 1 7 102 95 77 6 2 1 1 1 10 2 285 1 1 1 1 1 1 1 1 2 1 2 3 4 1 1 1 6 30 101 104 14110 2 1 3 11 9 8 7 6 4 4 3 2 1 1 1 2 3 2 5 4 6 36 31 10 5 2 1 1 -9999 -9999 -9999 -9999 -9999 -9999 -9999 -9999 -9999 -9999 -9999 -9999 -9999 -9999 -9999 -9999 -9999 -9999
 -9999 -9999 -9999 -9999 -9999 -9999 -9999 -9999 -9999 -9999 -9999 -9999 -9999 -9999 -9999 -9999 -9999 -9999 1 1 3 5 9 31 1 1 7 1 1 1 1 1 1 1 1 1 2 4 2163 5 1 3 3 2 1 1 2 3 2616 4 1 7 1 10 8 4 1 4 5 1 16 67 27 9 1 1 6 2 1 284 1 2 1 1 1 1 1 1 1 2 3 4 5 1 1 2 64 1 1 1 14106 4 64 52 42 41 40 39 29 6 5 4 3 2 1 1 2 1 4 3 5 4 13 7 4 2 1 1 -9999 -9999 -9999 -9999 -9999 -9999 -9999 -9999 -9999 -9999 -9999 -9999 -9999 -9999 -9999 -9999 -9999 -9999
 -9999 -9999 -9999 -9999 -9999 -9999 -9999 -9999 -9999 -9999 -9999 -9999 -9999 -9999 -9999 -9999 -9999 -9999 1 1 1 3 4 23 3 3 2 1 1 3 6 2 1 2 2 2 1 2103 59 3 1 2 1 1 1 1 1 3 2604 1 3 6 9 3 4 3 1 2 4 15 34 3 4 13 7 1 4 1 1 2 280 3 2 2 3 2 1 1 1 2 3 4 5 11 13 28 55 3 1 1 14030 71 6 5 4 3 2 1 9 18 7 6 5 4 3 2 1 1 3 2 4 3 12 3 3 3 1 1 -9999 -9999 -9999 -9999 -9999 -9999 -9999 -9999 -9999 -9999 -9999 -9999 -9999 -9999 -9999 -9999 -9999 -9999
 -9999 -9999 -9999 -9999 -9999 -9999 -9999 -9999 -9999 -9999 -9999 -9999 -9999 -9999 -9999 -9999 -9999 -9999 1 1 2 3 2 20 2 2 1 1 2 81 83 114 117 120 123 2098 2102 1 57 1 2 1 1 1 1 1 1 1 2601 1 2 5 8 2 3 2 1 3 14 31 2 2 3 7 5 5 2 1 1 3 5 266 44 43 11 5 3 1 1 3 4 5 6 7 14 18 4 1 1 1 14027 7 6 5 4 3 2 1 1 8 10 9 8 7 6 5 4 2 2 1 3 2 3 8 2 2 2 1 1 -9999 -9999 -9999 -9999 -9999 -9999 -9999 -9999 -9999 -9999 -9999 -9999 -9999 -9999 -9999 -9999 -9999
 -9999 -9999 -9999 -9999 -9999 -9999 -9999 -9999 -9999 -9999 -9999 -9999 -9999 -9999 -9999 -9999 -9999 -9999 1 1 2 1 1 18 1 1 1 2 78 1 2 22 1 2 5 1965 2 1 55 2 1 1 1 3 3 2 1 2597 1 2 1 4 7 1 2 1 2 1 12 30 1 1 2 6 4 1 3 1 1 1 2 2 221 22 7 3 2 1 1 2 3 4 5 6 13 4 2 1 1 7 14004 8 7 6 5 4 3 2 1 1 7 6 5 4 3 2 1 1 1 1 2 1 2 6 1 1 1 1 1 1 -9999 -9999 -9999 -9999 -9999 -9999 -9999 -9999 -9999 -9999 -9999 -9999 -9999 -9999 -9999 -9999
 -9999 -9999 -9999 -9999 -9999 -9999 -9999 -9999 -9999 -9999 -9999 -9999 -9999 -9999 -9999 -9999 -9999 -9999 1 1 3 7 10 6 1 2 10 72 3 1 2 19 1 2 4 1960 1 2 52 2 1 1 2 3 10 3 2592 3 2 1 1 3 4 2 1 1 2 5 6 28 1 1 1 4 2 1 1 1 1 1 1 217 3 2 19 3 2 1 1 1 2 3 4 9 3 3 1 4 5 1 13994 8 7 6 5 4 3 2 2 1 9 8 7 6 5 4 3 2 1 1 1 1 1 1 4 3 2 1 1 1 -9999 -9999 -9999 -9999 -9999 -9999 -9999 -9999 -9999 -9999 -9999 -9999 -9999 -9999 -9999 -9999
 -9999 -9999 -9999 -9999 -9999 -9999 -9999 -9999 -9999 -9999 -9999 -9999 -9999 -9999 -9999 -9999 -9999 -9999 1 1 3 2 2 3 1 7 58 3 2 1 9 9 1 3 1957 2 1 2 42 3 1 1 2 3 4 2576 12 3 2 1 1 1 2 3 1 1 2 2 3 26 1 1 2 1 1 1 3 1 1 2 211 5 2 1 15 3 2 1 1 1 2 3 4 1 1 2 3 1 3 4 13909 80 10 9 8 7 6 5 2 10 1 1 1 1 2 1 1 1 2 2 1 1 1 1 1 1 1 1 1 -9999 -9999 -9999 -9999 -9999 -9999 -9999 -9999 -9999 -9999 -9999 -9999 -9999 -9999 -9999 -9999 -9999
 -9999 -9999 -9999 -9999 -9999 -9999 -9999 -9999 -9999 -9999 -9999 -9999 -9999 -9999 -9999 -9999 -9999 1 1 2 1 1 1 1 6 53 4 2 1 8 8 1 2 1947 9 1 1 3 18 20 1 1 3 4 10 2394 157 8 7 6 4 2 1 1 2 1 1 1 1 24 1 1 2 3 1 1 1 5 3 207 1 1 3 1 12 2 1 1 1 2 3 4 5 1 1 1 1 1 2 3 13905 52 17 16 15 14 13 12 11 4 2 2 2 3 1 2 2 3 3 2 2 1 2 3 6 4 2 1 1 -9999 -9999 -9999 -9999 -9999 -9999 -9999 -9999 -9999 -9999 -9999 -9999 -9999 -9999 -9999 -9999 -9999
 -9999 -9999 -9999 -9999 -9999 -9999 -9999 -9999 -9999 -9999 -9999 -9999 -9999 -9999 -9999 -9999 -9999 1 1 1 2 3 4 5 50 2 3 1 7 7 3 6 1946 3 4 1 2 14 3 18 1 1 2 5 4 2389 9 147 144 6 3 2 1 1 1 1 2 3 10 13 1 3 4 5 49 52 53 54 197 6 5 3 1 2 2 9 1 2 1 2 1 2 3 7 1 1 1 1 1 2 13899 3 51 10 9 8 7 6 5 1 3 3 4 2 3 3 4 4 3 3 22 20 17 13 6 4 2 1 1 -9999 -9999 -9999 -9999 -9999 -9999 -9999 -9999 -9999 -9999 -9999 -9999 -9999 -9999 -9999 -9999 -9999
 -9999 -9999 -9999 -9999 -9999 -9999 -9999 -9999 -9999 -9999 -9999 -9999 -9999 -9999 -9999 -9999 -9999 1 1 2 3 4 5 48 1 1 2 6 6 2 2 1935 4 2 3 1 13 2 3 13 1 1 2 3 3 2385 8 2 2 137 2 1 2 1 1 1 2 6 4 8 1 1 4 17 22 2 1 2 137 3 2 1 1 1 1 6 1 1 4 6 9 10 11 15 9 2 2 1 1 69 13829 2 25 15 14 5 4 3 2 4 4 1 5 3 7 5 5 44 40 36 13 11 7 5 2 1 1 1 -9999 -9999 -9999 -9999 -9999 -9999 -9999 -9999 -9999 -9999 -9999 -9999 -9999 -9999 -9999 -9999 -9999 -9999
 -9999 -9999 -9999 -9999 -9999 -9999 -9999 -9999 -9999 -9999 -9999 -9999 -9999 -9999 -9999 -9999 -9999 1 1 2 3 4 5 34 3 1 5 5 1 1 1 1933 3 1 2 12 1 2 6 5 1 1 2 2 2 2382 3 2 1 1 136 8 5 3 1 1 3 3 3 4 1 2 12 12 9 1 4 5 131 3 1 1 1 1 1 5 2 1 2 3 4 5 6 16 53 58 62 1 67 13827 1 1 22 2 1 8 7 6 5 5 2 6 4 8 6 55 49 4 3 2 1 1 3 1 2 1 1 1 -9999 -9999 -9999 -9999 -9999 -9999 -9999 -9999 -9999 -9999 -9999 -9999 -9999 -9999 -9999 -9999 -9999 -9999
 -9999 -9999 -9999 -9999 -9999 -9999 -9999 -9999 -9999 -9999 -9999 -9999 -9999 -9999 -9999 -9999 -9999 1 1 2 3 9 30 3 2 4 2 2 1 3 1922 10 2 1 1 10 1 2 3 3 1 1 1 1 1 2380 2 1 1 2 127 113 6 3 1 1 2 2 3 3 7 11 11 7 1 3 2 6 97 19 1 1 3 1 1 1 1 1 2 3 4 5 9 10 2 2 2 65 1 2 13824 1 1 21 20 19 18 17 16 10 7 5 9 7 56 1 7 6 5 4 3 2 1 2 1 1 1 -9999 -9999 1 1 1 1 -9999 -9999 -9999 -9999 -9999 -9999 -9999 -9999 -9999 -9999 -9999 -9999 -9999
 -9999 -9999 -9999 -9999 -9999 -9999 -9999 -9999 -9999 -9999 -9999 -9999 -9999 -9999 -9999 -9999 1 1 1 4 5 3 17 2 1 3 1 1 1 2 1918 7 2 1 1 8 1 2 2 2 3 145 146 147 150 2225 4 1 1 3 2 6 106 2 1 1 1 2 2 3 3 10 1 5 2 1 3 2 92 2 18 13 9 4 1 1 1 1 1 1 2 3 8 1 1 1 1 1 1 2 13822 13813 1 1 1 5 4 3 2 1 1 15 8 57 2 18 10 9 8 7 6 5 4 3 2 1 1 1 1 1 1 1 1 1 1 -9999 -9999 -9999 -9999 -9999 -9999 -9999 -9999 -9999 -9999 -9999
 -9999 -9999 -9999 -9999 -9999 -9999 -9999 -9999 -9999 -9999 -9999 -9999 -9999 -9999 -9999 -9999 1 1 2 1 2 1 15 1 2 1 2 1 1 2 1913 4 2 1 1 6 1 1 1 4 15 126 1 2 2218 5 1 2 1 2 1 2 3 105 1 1 1 1 2 2 6 3 4 1 1 2 1 1 90 1 2 2 2 1 1 1 4 1 2 4 5 6 1 1 2 3 1 1 3 4 1 1 13810 8 6 4 3 2 1 1 2 16 66 3 29 10 9 8 7 6 5 4 3 2 1 1 1 1 1 1 2 2 1 1 1 -9999 -9999 -9999 -9999 -9999 -9999 -9999 -9999 -9999 -9999 -9999
 -9999 -9999 -9999 -9999 -9999 -9999 -9999 -9999 -9999 -9999 -9999 -9999 -9999 -9999 -9999 -9999 1 1 3 4 5 10 4 1 1 1 1 4 1 1 1911 1 2 1 2 3 1 2 3 10 123 2 1 14 2202 1 4 3 2 1 1 1 1 1 104 3 1 1 1 5 2 3 1 21 28 30 33 34 55 1 1 3 1 1 1 1 2 7 9 10 11 12 1 1 2 3 5 1 1 1 1 10 13790 8 5 1 2 1 1 4 17 67 38 34 4 3 2 1 3 2 1 1 1 1 2 1 1 2 2 3 5 1 3 1 1 -9999 -9999 -9999 -9999 -9999 -9999 -9999 -9999 -9999 -9999 -9999
 -9999 -9999 -9999 -9999 -9999 -9999 -9999 -9999 -9999 -9999 -9999 -9999 -9999 -9999 -9999 1 1 1 1 2 4 2 1 1 1 2 3 1852 1858 1907 3 2 1 1 1 2 1 7 9 119 3 1 2 10 5 2196 2187 4 3 2 1 1 1 1 96 3 2 1 4 1 2 9 19 6 1 2 6 44 54 1 2 1 4 4 1 1 1 1 2 3 4 5 13 2 1 2 10 2 1 1 5 8 13780 1 2 3 1 2 1 22 112 44 5 4 3 2 1 1 4 3 2 2 2 3 1 2 2 3 3 4 7 8 4 1 1 -9999 -9999 -9999 -9999 -9999 -9999 -9999 -9999 -9999 -9999 -9999
 -9999 -9999 -9999 -9999 -9999 -9999 -9999 -9999 -9999 -9999 -9999 -9999 -9999 1 1 1 1 1 1 1 1 48 1 1 3 1839 1847 1 1 48 7 1 1 2 3 4 5 1 2 116 2 1 3 6 4 2 6 2182 4 3 1 4 6 71 95 7 3 1 3 1 8 9 3 2 1 5 8 29 9 1 8 9 12 26 1 1 2 2 3 4 5 6 6 14 17 105 142 3 1 1 1 1 1 13779 178 33 28 25 23 132 19 5 4 3 2 1 2 5 4 1 3 1 3 4 2 3 3 4 8 22 14 4 2 1 1 -9999 -9999 -9999 -9999 -9999 -9999 -9999 -9999 -9999 -9999 -9999
 -9999 -9999 -9999 -9999 -9999 -9999 -9999 -9999 -9999 -9999 -9999 -9999 -9999 1 1 2 3 5 7 9 47 1 49 2 87 1745 6 1 35 5 4 1 1 2 5 6 7 1 111 4 1 2 1 4 3 1 5 2174 3 2 1 3 55 8 4 12 3 1 2 7 1 7 2 1 4 7 25 3 8 1 5 1 4 1 28 30 32 35 47 48 49 50 57 64 87 22 2 149 1 1 1 1 1 13597 2 144 139 138 137 4 2 13 12 11 10 9 6 5 2 6 2 1 4 5 3 4 4 41 28 5 2 1 1 1 1 -9999 -9999 -9999 -9999 -9999 -9999 -9999 -9999 -9999 -9999 -9999
 -9999 -9999 -9999 -9999 -9999 -9999 -9999 -9999 -9999 -9999 -9999 -9999 -9999 1 1 2 3 4 13 37 1 2 4 84 1741 3 2 3 34 4 2 1 1 2 2 3 4 110 1 1 1 1 1 2 2 1 3 2170 3 2 1 2 54 7 3 8 3 2 1 6 4 2 1 3 6 24 2 3 4 4 1 2 1 1 3 4 5 11 4 5 6 10 12 22 21 1 2 154 3 1 1 2 13594 2 1 1 4 3 2 1 1 1 165 164 163 162 161 152 11 4 3 1 5 6 8 58 53 6 4 2 2 1 1 1 1 -9999 -9999 -9999 -9999 -9999 -9999 -9999 -9999 -9999 -9999 -9999
 -9999 -9999 -9999 -9999 -9999 -9999 -9999 -9999 -9999 -9999 -9999 -9999 -9999 1 1 2 3 8 2 21 26 29 30 264 1476 2 1 2 33 2 1 1 1 1 1 2 6 7 91 2 1 1 1 1 1 2 3 2163 3 2 1 1 53 6 2 4 3 2 1 5 3 1 2 5 23 1 2 3 3 1 2 3 1 1 1 3 5 3 1 2 3 1 9 17 3 1 2 1 159 1 2 1 13590 9 8 7 6 4 2 1 1 166 7 6 5 4 2 3 138 137 130 102 96 89 80 21 11 5 1 1 1 1 1 -9999 -9999 -9999 -9999 -9999 -9999 -9999 -9999 -9999 -9999 -9999 -9999 -9999
 -9999 -9999 -9999 -9999 -9999 -9999 -9999 -9999 -9999 -9999 -9999 -9999 -9999 1 1 3 4 1 20 25 2 1 2 261 1471 4 1 1 30 2 1 1 1 1 2 3 1 2 88 1 2 1 1 1 1 2 1 2161 2 1 1 1 51 4 1 1 3 2 1 4 2 1 4 20 2 1 2 2 2 3 4 5 9 2 1 1 2 2 4 6 7 8 13 3 2 1 1 2 3 160 4 1 13578 1 4 3 1 1 1 2 167 12 4 3 2 1 1 1 2 1 6 27 5 4 3 2 9 10 4 3 2 1 1 -9999 -9999 -9999 -9999 -9999 -9999 -9999 -9999 -9999 -9999 -9999 -9999 -9999
 -9999 -9999 -9999 -9999 -9999 -9999 -9999 -9999 -9999 -9999 -9999 -9999 -9999 1 1 2 3 19 24 1 2 3 4 256 1470 2 1 1 14 14 1 5 7 15 21 27 32 35 84 6 3 1 1 2 4 5 20 2158 3 2 1 1 11 38 3 2 1 2 1 3 1 3 2 17 1 1 1 1 1 2 3 25 36 48 1 1 1 1 1 2 5 12 2 1 1 2 3 4 5 9 174 12783 5 788 3 1 1 1 3 197 29 16 15 14 13 12 11 10 9 7 4 5 21 4 3 2 1 8 9 3 2 1 1 -9999 -9999 -9999 -9999 -9999 -9999 -9999 -9999 -9999 -9999 -9999 -9999 -9999
 -9999 -9999 -9999 -9999 -9999 -9999 -9999 -9999 -9999 -9999 -9999 -9999 -9999 1 1 3 4 15 23 1 2 6 12 243 1467 2 1 1 12 10 3 4 6 5 5 4 2 3 4 35 13 1 1 2 10 14 2114 20 4 3 1 1 9 11 26 10 5 3 1 2 2 1 6 8 2 1 2 1 1 2 21 10 3 16 50 1 1 1 1 2 2 4 1 1 2 3 4 10 12594 12597 12602 6 4 4 776 1 1 2 213 12 11 10 9 8 7 6 5 4 3 1 2 3 4 16 6 3 1 2 5 5 3 1 1 -9999 -9999 -9999 -9999 -9999 -9999 -9999 -9999 -9999 -9999 -9999 -9999 -9999
 -9999 -9999 -9999 -9999 -9999 -9999 -9999 -9999 -9999 -9999 -9999 -9999 1 1 2 1 2 8 22 1 3 2 3 242 1464 2 1 1 10 9 2 3 5 4 4 3 1 2 3 8 13 11 4 7 3 2113 3 9 3 2 1 4 4 10 13 2 4 1 2 1 1 2 3 7 1 4 5 8 10 18 9 2 12 6 28 79 94 96 1 1 2 1 1 1 1 3 5 12579 4 2 4 5 3 2 1 775 3 214 11 10 9 8 7 6 5 4 3 2 1 2 1 2 3 7 2 2 2 1 3 1 1 1 1 1 1 -9999 -9999 -9999 -9999 -9999 -9999 -9999 -9999 -9999 -9999 -9999
 -9999 -9999 -9999 -9999 -9999 -9999 -9999 -9999 -9999 -9999 -9999 -9999 1 1 2 3 7 18 3 2 1 2 2 239 1439 24 1 2 7 8 1 2 4 3 3 2 1 2 1 6 12 10 2 2 2 2112 2 5 3 2 1 3 3 9 7 5 1 3 2 1 1 2 2 4 3 1 2 3 7 8 1 11 5 5 1 6 6 5 102 1 108 109 110 3 1 1 12576 2 3 1 3 4 1 1 1 1 769 12 1 2 1 1 1 1 6 5 4 3 2 1 1 1 2 3 3 1 1 1 1 1 1 1 1 1 1 1 1 1 -9999 -9999 -9999 -9999 -9999 -9999 -9999 -9999
 -9999 -9999 -9999 -9999 -9999 -9999 -9999 -9999 -9999 -9999 -9999 -9999 1 1 2 3 16 1 2 1 1 1 1 237 6 1432 23 1 6 3 4 1 3 2 2 1 1 1 5 2 9 9 1 1 1 2111 1 1 3 2 1 2 2 8 2 4 4 3 2 1 1 1 3 2 1 1 2 3 7 7 10 4 2 2 2 2 5 4 4 107 1 2 3 114 4 12575 1 1 1 2 2 3 1 1 2 25 515 2 3 1 2 2 2 13 6 5 4 3 2 1 1 1 1 1 1 2 1 1 1 1 2 2 3 1 1 2 1 1 -9999 -9999 -9999 -9999 -9999 -9999 -9999 -9999
 -9999 -9999 -9999 -9999 -9999 -9999 -9999 -9999 -9999 -9999 -9999 -9999 1 1 2 4 11 1 2 3 4 5 6 230 5 1431 20 2 5 1 1 3 2 1 1 1 2 3 1 1 7 8 1 2 3 2110 11 3 2 1 1 1 1 2 5 1 3 2 1 1 1 2 1 1 2 4 5 6 6 2 3 1 1 1 1 2 2 3 3 1 1 2 3 4 12569 1 1 1 1 1 2 6 7 11 20 1 1 514 5 6 3 3 22 8 7 6 5 4 3 2 2 1 1 1 1 1 1 1 2 3 3 6 2 2 3 1 1 1 -9999 -9999 -9999 -9999 -9999 -9999 -9999 -9999
 -9999 -9999 -9999 -9999 -9999 -9999 -9999 -9999 -9999 -9999 -9999 -9999 1 1 1 3 10 1 3 12 13 14 21 208 4 1430 4 15 1 4 3 2 2 1 1 2 3 4 5 6 7 2 30 31 175 1920 7 7 3 2 1 1 1 1 1 4 3 2 1 1 1 2 3 1 2 3 4 5 1 1 1 1 1 1 1 1 2 2 1 2 2 3 5 7 12445 5 3 1 1 1 1 2 2 4 4 1 1 1 507 47 34 30 7 6 5 4 3 2 1 3 2 2 2 2 2 2 1 2 3 4 10 3 3 4 2 2 1 1 -9999 -9999 -9999 -9999 -9999 -9999 -9999 -9999
 -9999 -9999 -9999 -9999 -9999 -9999 -9999 -9999 -9999 -9999 -9999 1 1 1 2 1 5 2 8 2 3 6 199 8 3 1429 1 2 14 3 2 1 1 1 1 2 3 4 5 6 1 27 17 117 26 1912 2 4 3 2 1 3 2 1 1 6 5 4 3 1 1 1 2 6 7 8 9 10 11 12 13 14 2 2 2 1 1 2 4 5 3 1 1 2 4 12433 2 1 2 1 1 1 1 2 3 1 3 434 2 17 12 11 10 9 8 7 6 5 4 3 3 1 3 3 3 3 2 3 4 5 14 4 5 3 3 2 1 1 -9999 -9999 -9999 -9999 -9999 -9999 -9999 -9999
 -9999 -9999 -9999 -9999 -9999 -9999 -9999 -9999 -9999 -9999 1 1 1 2 3 4 1 7 1 1 2 5 193 7 2 1426 2 1 6 4 3 2 1 1 2 3 4 5 6 13 26 16 10 89 23 2 1911 1 3 2 1 33 28 17 15 8 7 6 5 4 1 1 2 3 4 5 6 7 8 9 10 11 15 18 23 1 1 1 1 2 8 4 1 1 1 12428 1 1 4 1 1 1 1 2 2 4 5 429 403 1 16 15 14 13 12 11 10 9 8 4 2 1 4 7 1 4 3 4 5 6 15 10 8 4 3 2 1 1 1 -9999 -9999 -9999 -9999 -9999 -9999 -9999
 -9999 -9999 -9999 -9999 -9999 -9999 -9999 -9999 -9999 -9999 1 1 2 3 4 5 6 1 2 3 4 187 5 6 1 2 1423 1 1 4 3 2 1 1 2 3 4 5 6 12 15 9 52 36 15 7 1 1910 37 1 34 1 1 7 6 5 4 3 2 1 1 1 2 3 4 5 6 7 8 9 34 38 50 51 75 2 1 1 1 1 2 11 5 1 2 3 12424 41 10 4 2 1 1 1 1 2 3 16 1 402 396 191 17 16 15 14 13 12 11 10 7 5 15 7 5 1 114 110 100 84 68 57 6 5 1 3 2 1 1 1 -9999 -9999 -9999 -9999 -9999 -9999
 -9999 -9999 -9999 -9999 -9999 -9999 -9999 -9999 -9999 -9999 1 1 2 11 13 14 15 16 17 18 183 3 4 5 1 2 42 1380 6 5 4 3 1 1 2 3 4 5 11 14 8 51 9 26 5 9 6 4 1868 35 2 1 1 7 6 5 4 3 2 1 1 1 2 1 2 3 4 5 21 24 3 3 6 9 12 90 1 2 2 2 3 4 16 6 7 12380 2 2 27 3 2 1 1 1 1 2 4 7 4 5 4 200 173 4 3 2 1 155 154 153 152 151 135 134 133 131 16 13 6 9 6 4 42 38 1 4 6 2 1 1 -9999 -9999 -9999 -9999 -9999 -9999
 -9999 -9999 -9999 -9999 -9999 -9999 -9999 -9999 1 1 2 3 8 1 5 6 7 8 9 162 2 2 3 4 1 8 31 1359 14 6 3 2 1 1 2 3 4 5 13 7 50 8 19 6 4 8 5 2 1 1867 38 34 32 24 14 7 6 5 4 3 1 1 2 5 6 7 8 15 2 2 2 2 2 2 2 3 94 2 5 8 9 10 11 28 1 12371 1 1 2 21 1 3 3 1 1 1 2 4 3 4 1 2 199 168 167 166 165 9 8 7 6 5 4 3 2 1 1 1 6 5 2 1 3 3 36 31 6 4 2 2 1 1 -9999 -9999 -9999 -9999
 -9999 -9999 -9999 -9999 -9999 -9999 -9999 -9999 1 1 2 4 3 4 1 2 3 4 11 141 1 1 2 3 7 30 5 1353 6 1 2 1 1 1 2 3 9 12 6 49 7 9 9 5 3 7 4 1 1 1789 39 29 23 2 7 6 5 4 3 2 1 1 2 3 4 5 6 1 1 1 1 1 1 1 1 7 8 103 104 105 106 1 1 1 12369 1 1 1 1 2 17 9 4 2 1 1 1 2 2 2 1 1 193 5 4 3 2 1 15 14 13 12 11 10 9 8 7 6 5 5 4 1 2 2 4 11 3 1 1 1 1 1 -9999 -9999 -9999 -9999
 -9999 -9999 -9999 -9999 -9999 -9999 -9999 1 1 1 3 2 1 2 3 4 5 6 23 116 1 1 2 6 29 4 3 1349 1 4 3 2 1 1 3 5 2 5 48 6 6 2 8 4 2 6 2 1 2 1785 4 5 5 22 1 6 5 4 3 2 1 1 2 3 4 5 6 1 1 1 1 2 3 4 5 1 2 3 4 5 6 113 2 2 3 12336 3 1 1 1 2 1 1 1 1 1 1 1 1 1 1 1 192 178 32 31 30 29 13 12 11 10 9 8 7 6 5 4 3 4 4 3 1 1 3 7 3 2 1 1 1 1 -9999 -9999 -9999 -9999
 -9999 -9999 -9999 -9999 -9999 -9999 -9999 1 1 2 1 1 2 3 1 2 3 22 110 4 1 1 5 28 3 1 1 1348 5 4 3 2 1 1 1 1 4 47 5 1 4 1 7 3 1 5 1 1 1 1783 1 2 4 4 21 17 5 4 3 2 1 1 2 3 4 5 6 7 2 2 2 3 4 5 6 1 2 3 1 1 2 3 117 120 12327 4 2 1 1 1 1 1 1 1 2 3 2 1 1 1 1 1 7 4 145 133 132 123 83 43 42 41 40 39 38 31 13 2 1 2 3 3 2 1 1 3 3 2 1 1 -9999 -9999 -9999 -9999 -9999 -9999
 -9999 -9999 -9999 -9999 -9999 -9999 1 1 1 2 1 1 1 2 6 7 18 107 2 2 1 4 27 2 1 2 1319 23 6 5 4 3 1 1 2 3 6 40 4 1 2 3 3 2 2 2 1 2 1781 1 2 1 1 3 3 3 11 4 3 2 1 1 2 3 4 5 6 13 21 24 27 28 29 30 31 7 1 1 5 7 8 9 10 11 12194 1 1 1 2 4 1 1 1 2 4 6 5 3 1 19 17 7 3 3 3 11 3 8 39 39 17 4 3 2 1 6 17 10 2 1 1 2 2 1 1 1 1 1 1 1 -9999 -9999 -9999 -9999 -9999 -9999
 -9999 -9999 -9999 -9999 -9999 -9999 1 1 1 1 3 2 2 3 4 10 98 8 1 1 3 23 3 1 1 4 1312 16 5 4 3 2 1 1 2 5 36 3 3 1 2 2 1 1 1 1 2 3 1652 126 8 3 2 1 2 2 2 6 2 1 1 1 2 3 4 5 6 7 14 26 27 28 29 30 31 63 8 2 3 4 5 6 7 1 12192 1 1 1 8 1 1 1 2 4 11 29 23 22 21 1 5 3 6 2 2 2 7 2 7 38 21 12 10 6 5 4 5 16 7 3 2 1 1 1 1 1 1 1 1 -9999 -9999 -9999 -9999 -9999 -9999 -9999
 -9999 -9999 -9999 -9999 -9999 -9999 1 1 2 2 2 4 3 4 5 97 5 2 1 2 1 21 2 1 2 1 1310 5 5 4 3 2 1 1 2 28 7 2 2 1 1 1 2 3 4 1 1 2 1646 78 37 4 3 2 1 1 1 1 3 1 1 2 1 2 3 4 5 6 11 28 29 30 31 32 33 34 98 107 1 2 3 1 1 9 12181 1 1 2 10 3 1 2 3 5 54 8 7 6 5 4 2 2 2 5 1 1 1 6 1 6 37 20 1 3 2 1 3 4 15 3 2 1 1 1 1 -9999 -9999 -9999 -9999 -9999 -9999 -9999 -9999 -9999 -9999 -9999
 -9999 -9999 -9999 -9999 -9999 -9999 1 1 2 3 6 9 14 15 96 4 1 2 3 4 20 1 2 17 20 1295 14 8 4 3 2 1 1 2 3 24 6 1 1 2 3 1 2 3 4 9 1577 1583 5 57 77 36 28 6 5 4 3 2 1 1 1 2 5 6 7 8 9 10 27 4 5 6 7 8 9 10 11 12 120 121 122 126 2 3 12176 1 1 2 19 4 2 3 65 56 1 5 4 3 2 1 3 1 1 1 4 3 2 1 5 2 5 36 19 4 3 2 1 2 3 14 8 3 1 1 -9999 -9999 -9999 -9999 -9999 -9999 -9999 -9999 -9999 -9999 -9999 -9999
 -9999 -9999 -9999 -9999 -9999 -9999 1 1 2 3 1 2 62 67 13 3 1 2 7 11 4 1 14 2 3 1274 5 2 7 5 3 1 1 2 15 8 3 2 1 1 2 4 1 2 3 1566 2 3 4 56 68 8 7 21 9 4 3 2 1 1 2 4 5 6 13 15 16 26 3 11 35 284 285 286 287 288 289 290 291 292 293 294 487 492 11682 1 1 2 11568 11548 11545 73 4 2 1 6 5 4 3 2 1 2 1 1 16 15 14 8 5 2 1 4 35 14 5 4 3 2 1 2 5 4 1 1 -9999 -9999 -9999 -9999 -9999 -9999 -9999 -9999 -9999 -9999 -9999 -9999
 -9999 -9999 -9999 -9999 -9999 -9999 1 1 2 5 55 59 4 7 5 2 1 4 2 1 3 13 1 2 1 1269 1 1 1 1 1 1 1 2 10 7 2 1 1 2 3 6 11 12 1548 14 1 2 3 55 58 9 7 6 11 4 3 2 1 1 3 4 5 6 1 1 9 2 10 23 248 4 5 6 7 8 9 42 43 44 45 66 2 2 2 11678 1 11573 1 1 1 11469 1 1 7 5 4 3 2 1 1 1 2 17 3 2 1 5 2 4 1 3 6 28 8 3 2 1 1 1 2 2 2 1 -9999 -9999 -9999 -9999 -9999 -9999 -9999 -9999 -9999 -9999 -9999 -9999
 -9999 -9999 -9999 -9999 1 1 1 1 3 46 3 3 1 5 4 1 3 1 1 2 5 7 1 1 2 1260 6 5 4 3 2 1 1 1 8 5 1 1 1 2 3 4 5 1535 2 9 2 1 2 54 57 2 6 6 5 10 6 3 1 1 2 3 4 5 6 7 1 9 22 247 3 10 18 22 23 24 32 2 13 19 20 1 1 1 47 98 11577 2 1 1803 1847 9620 1 8 8 2 1 1 1 2 1 4 30 12 8 7 6 5 4 1 3 2 5 10 17 4 3 2 1 1 1 1 1 1 -9999 -9999 -9999 -9999 -9999 -9999 -9999 -9999 -9999 -9999 -9999 -9999
 -9999 -9999 -9999 -9999 1 1 2 3 39 3 2 2 1 3 3 2 1 2 3 4 6 2 3 4 5 1259 7 6 5 4 3 2 1 1 6 3 1 1 2 3 4 5 12 1517 1 6 2 1 1 53 48 8 1 5 5 4 3 2 1 1 2 3 4 5 6 7 8 21 246 2 9 7 3 5 6 7 1 10 5 7 16 17 1 46 47 3 1 1 1802 2 3 38 9618 9603 9594 3 2 2 3 1 6 40 9 8 7 6 5 4 4 3 2 1 4 3 6 16 4 3 2 1 1 1 1 1 1 -9999 -9999 -9999 -9999 -9999 -9999 -9999 -9999 -9999 -9999 -9999
 -9999 -9999 -9999 -9999 1 1 2 30 5 2 1 1 2 2 1 1 2 3 4 5 1 1 2 3 4 1242 22 21 20 15 6 5 2 1 4 2 1 2 3 4 5 6 1505 9 2 1 4 1 1 51 42 5 7 4 4 4 3 2 1 1 1 2 3 4 5 12 20 245 1 8 6 2 4 3 7 8 9 4 6 8 10 13 44 46 1 1 1 1801 1 1 1 35 2 6 2 9590 1 3 4 8 48 7 6 5 4 3 2 1 3 3 2 1 3 2 2 3 11 3 2 2 2 1 2 1 1 1 -9999 -9999 -9999 -9999 -9999 -9999 -9999 -9999 -9999 -9999
 -9999 -9999 -9999 -9999 1 1 2 25 2 2 1 1 1 1 1 1 2 3 4 5 6 7 8 9 1205 14 13 9 5 4 8 5 2 1 3 1 1 2 3 4 5 6 1504 6 2 1 1 2 15 35 33 8 4 2 3 3 3 2 1 1 2 3 4 5 6 7 8 236 7 5 1 3 2 3 1 2 3 5 7 9 2 2 11 43 2 1 3 1799 3 4 14 20 1 2 1 1 9588 4 71 58 9 8 7 6 5 4 3 2 1 2 2 1 2 1 1 1 1 7 6 3 1 2 3 2 1 1 -9999 -9999 -9999 -9999 -9999 -9999 -9999 -9999 -9999 -9999
 -9999 -9999 -9999 -9999 1 1 3 19 2 1 1 1 2 1 2 2 1 2 3 4 5 6 7 1 1195 2 1 3 3 4 3 2 4 1 2 1 4 5 6 7 8 9 1488 3 2 1 1 2 12 34 18 14 7 3 1 2 2 2 1 1 2 3 4 5 6 7 17 218 6 4 2 1 2 1 2 3 4 6 8 1 1 4 6 42 1 1 1590 205 2 2 7 18 1 1 2 59 67 9516 20 18 10 9 8 7 6 5 4 3 2 1 1 1 1 1 1 1 1 1 1 1 2 3 4 3 2 1 1 -9999 -9999 -9999 -9999 -9999 -9999 -9999 -9999 -9999
 -9999 -9999 -9999 -9999 1 1 10 6 2 1 1 2 3 6 2 3 3 4 5 6 7 1 2 10 1181 11 10 9 2 2 3 2 1 3 1 2 2 3 4 5 6 7 1478 2 2 1 1 2 9 33 5 12 13 6 2 1 1 1 1 1 2 3 4 5 6 16 215 2 5 3 1 1 1 2 3 4 5 7 1 2 3 5 41 11 1522 1589 5 199 1 1 6 13 4 1 56 7 5 9419 1 1 7 6 5 4 3 2 1 1 1 1 1 1 1 1 3 3 2 2 1 2 3 4 5 6 3 1 1 -9999 -9999 -9999 -9999 -9999 -9999 -9999 -9999 -9999
 -9999 -9999 -9999 -9999 1 1 8 4 1 1 1 1 2 3 10 13 17 18 19 20 21 29 1117 1137 32 15 10 5 8 1 1 2 1 2 1 1 1 2 3 4 5 6 1470 1 1 1 1 2 6 27 5 4 11 12 5 4 3 2 1 1 2 3 4 5 15 208 6 1 4 1 1 1 2 3 4 5 6 1 2 3 4 40 10 1510 63 3 4 197 1 1 4 12 3 55 6 1 3 11 9406 12 8 7 6 5 4 3 2 2 2 2 2 2 1 1 5 4 3 3 2 3 4 5 18 6 2 1 1 -9999 -9999 -9999 -9999 -9999 -9999 -9999 -9999 -9999
 -9999 -9999 -9999 -9999 1 3 4 2 1 1 1 2 1 2 1 2 3 4 5 6 7 1087 9 10 11 5 4 4 4 7 3 2 1 1 1 1 1 2 3 4 5 9 1457 3 2 1 1 2 3 8 18 4 3 10 11 4 3 2 1 1 2 3 4 9 197 10 4 1 2 1 1 1 1 2 3 4 5 6 7 37 39 9 1509 58 4 2 3 10 186 3 11 2 49 5 5 2 1 9 9373 20 3 2 1 1 1 1 3 3 3 3 3 1 2 2 6 5 4 4 3 4 5 24 4 3 2 1 1 -9999 -9999 -9999 -9999 -9999 -9999 -9999 -9999 -9999
 -9999 -9999 -9999 -9999 1 2 3 1 1 1 2 2 5 6 9 10 11 12 13 14 1079 7 1 9 5 5 4 3 3 3 3 1 1 1 1 2 2 1 1 2 3 88 9 1359 2 1 1 1 2 7 13 4 3 2 9 6 3 1 1 1 2 3 4 6 190 9 2 1 1 1 1 2 4 5 6 7 16 28 29 1 8 1508 1 56 3 1 2 9 185 2 10 1 48 4 4 1 5 3 9370 2 19 11 10 8 6 4 1 4 4 4 4 2 3 3 7 6 5 5 8 6 25 5 3 2 1 1 1 -9999 -9999 -9999 -9999 -9999 -9999 -9999 -9999 -9999
 -9999 -9999 -9999 -9999 1 1 2 1 1 2 2 5 6 7 69 70 71 72 73 1050 14 4 2 4 4 4 4 3 2 2 2 1 1 1 2 2 3 6 82 85 87 2 6 1343 13 12 10 8 1 6 8 4 3 2 1 8 2 1 1 2 3 4 5 18 171 4 4 1 1 2 2 4 5 6 7 8 11 2 3 7 1501 6 4 51 2 1 5 3 184 1 9 47 3 1 2 4 1 1 9029 340 1 7 6 5 4 3 1 5 5 5 5 3 4 186 182 173 158 42 33 26 6 7 3 2 1 1 1 -9999 -9999 -9999 -9999 -9999 -9999 -9999 -9999 -9999
 -9999 -9999 -9999 -9999 1 1 2 3 2 4 7 8 55 61 3 4 5 6 7 976 8 5 3 1 3 3 3 3 2 1 1 1 1 2 2 3 17 74 2 1 1 4 1 1282 60 34 28 1 7 5 3 4 3 2 1 3 4 1 1 3 4 5 17 161 9 2 1 3 1 2 5 6 7 8 9 10 1 1 3 1499 1 5 3 50 1 4 2 3 180 8 42 4 2 1 3 4 5 6 9017 5 339 336 332 9 8 7 6 6 6 206 200 196 191 4 3 1 8 105 101 20 13 5 4 3 2 1 1 1 -9999 -9999 -9999 -9999 -9999 -9999 -9999 -9999
 -9999 -9999 -9999 -9999 1 1 2 3 7 8 9 46 5 2 3 4 5 6 945 14 9 7 4 2 1 2 2 2 2 1 1 2 1 2 5 11 54 2 1 2 3 1 2 1279 19 6 5 27 8 6 4 2 3 2 1 2 3 1 4 9 10 11 1 159 6 2 1 2 1 2 3 4 5 6 7 1 1 1 1495 3 1 3 2 49 3 1 2 179 7 2 39 3 1 2 3 3 4 9011 5 2 2 2 3 322 16 15 14 7 213 6 5 4 3 2 1 2 5 2 3 80 73 3 2 1 2 1 1 1 1 1 -9999 -9999 -9999 -9999 -9999 -9999
 -9999 -9999 -9999 -9999 1 1 1 2 3 4 36 4 1 2 1 2 3 4 934 4 9 8 6 3 2 1 1 1 1 1 1 2 3 2 3 49 4 1 1 1 2 3 4 1278 12 6 5 4 18 7 5 3 1 2 1 1 2 2 4 2 3 4 5 153 3 2 1 1 2 3 4 5 6 7 8 16 19 1494 1 1 2 1 6 42 2 1 178 6 1 2 36 2 1 2 2 2 5 9006 6 4 1 1 1 2 305 234 225 218 4 3 2 1 1 1 1 1 1 4 1 2 6 69 6 5 2 2 1 1 1 1 1 1 -9999 -9999 -9999 -9999
 -9999 -9999 -9999 -9999 1 1 2 3 4 16 15 3 1 1 2 3 4 5 927 1 3 8 7 5 4 3 2 1 1 1 2 3 6 10 44 4 2 1 1 2 3 4 13 1229 31 11 5 4 3 17 6 4 2 1 1 1 1 3 1 1 2 3 146 4 2 2 1 1 1 2 3 1 1 2 4 6 1459 15 1 1 2 5 39 2 1 177 2 3 1 3 32 1 1 1 1 2 2 146 8846 5 3 2 1 1 4 66 8 6 5 4 3 2 2 2 2 1 2 1 3 1 2 3 62 54 5 2 2 2 1 1 1 1 -9999 -9999 -9999 -9999
 -9999 -9999 -9999 -9999 1 1 2 3 11 11 3 2 1 2 3 4 5 11 915 2 1 2 7 6 5 4 3 2 1 1 1 2 3 8 25 2 1 1 1 2 3 8 1 1227 30 1 10 4 3 2 16 5 3 2 1 1 2 1 1 1 2 3 139 1 2 1 1 1 1 1 2 4 2 1 1 1440 12 12 1 1 2 3 35 1 176 1 2 1 2 28 3 1 1 1 1 1 143 2 3 8842 4 3 2 1 1 2 65 7 6 5 4 3 3 11 8 6 3 2 1 2 1 2 2 5 48 13 10 7 5 3 1 1 -9999 -9999 -9999 -9999
 -9999 -9999 -9999 -9999 1 1 3 7 7 3 2 1 1 2 3 4 5 827 82 3 2 1 1 6 5 4 3 2 1 1 2 3 4 21 2 1 1 1 2 3 4 1 2 1226 28 16 15 9 3 2 1 15 4 3 1 1 2 3 5 2 3 4 132 2 1 1 1 1 2 4 5 8 15 16 1439 1 10 10 1 1 2 27 7 152 23 1 6 8 27 1 1 1 3 5 7 142 1 2 3 11 8827 5 4 3 2 1 1 64 26 25 24 23 19 7 6 5 4 3 2 1 1 1 1 4 8 26 16 4 3 2 1 1 1 -9999 -9999 -9999
 -9999 -9999 -9999 -9999 1 1 3 2 4 2 1 1 2 3 4 5 6 820 5 76 69 8 7 6 5 4 3 2 2 1 1 3 11 7 2 1 1 1 1 2 3 4 10 1223 11 7 4 14 8 2 1 9 5 2 1 1 2 3 4 10 11 23 106 2 1 1 1 2 2 1 2 1396 1414 1418 4 6 3 8 1 1 26 6 151 1 21 5 1 10 18 1 2 1 2 48 103 31 1 2 10 1 8821 3 2 1 1 1 1 37 23 22 21 20 19 9 8 7 6 5 4 3 2 1 1 2 3 4 9 11 2 1 1 1 1 -9999 -9999 -9999
 -9999 -9999 -9999 -9999 1 2 1 2 1 1 1 1 1 2 3 4 540 279 2 2 6 60 56 53 48 42 6 5 2 1 1 4 3 2 4 1 1 2 2 3 4 5 1 1211 3 2 2 3 13 7 1 6 2 2 1 1 3 4 5 9 11 99 5 1 1 1 2 4 3 1 1393 7 10 3 3 5 2 6 1 25 5 148 2 3 17 4 9 5 2 1 2 5 45 40 14 30 1 1 8 1 4 8811 3 2 2 2 1 1 13 12 11 10 1 9 8 7 6 5 4 3 2 1 1 1 2 3 3 5 8 4 2 1 1 1 1 -9999
 -9999 -9999 -9999 -9999 1 1 1 1 2 1 1 2 2 3 4 5 535 277 1 1 1 5 3 2 4 5 35 4 3 1 1 2 2 1 3 1 2 4 7 8 9 10 25 1183 2 1 1 1 2 12 6 4 1 1 1 1 1 2 3 1 6 92 3 1 1 2 4 11 15 1391 1 5 9 2 2 4 1 5 24 4 147 1 2 16 3 8 4 1 1 2 33 39 39 8 5 28 1 1 6 3 2 8541 264 10 7 4 2 205 204 187 186 184 8 7 6 5 4 3 2 1 1 2 1 1 1 2 2 3 1 3 2 1 1 1 -9999 -9999
 -9999 -9999 -9999 -9999 1 1 1 1 3 6 2 2 3 4 5 6 529 276 4 3 2 1 4 2 1 3 4 30 3 2 1 1 1 2 3 6 9 10 11 12 13 14 31 1143 8 7 6 5 2 1 11 5 3 2 1 1 2 3 4 5 88 3 1 1 1 2 3 4 1371 3 1 4 8 1 1 3 4 23 3 13 133 1 15 2 7 3 13 23 26 30 5 31 7 7 4 22 5 5 2 1 2 8535 3 253 235 215 214 8 7 16 1 1 183 179 127 25 5 4 3 2 3 2 4 2 1 1 1 2 2 1 1 1 -9999 -9999 -9999 -9999
 -9999 -9999 -9999 -9999 -9999 -9999 1 1 7 10 17 20 23 24 25 26 496 245 26 12 4 3 2 3 1 2 3 4 22 5 3 1 1 2 2 2 1 2 3 4 5 17 13 1133 9 3 2 1 2 1 3 7 4 2 1 1 2 3 4 84 3 1 1 1 1 2 3 9 1356 1 2 3 6 1 2 3 22 2 9 3 132 14 1 6 2 12 9 2 3 4 5 25 6 6 3 21 4 4 1 1 2 8530 2 2 17 19 18 17 16 6 14 5 4 3 51 101 19 9 8 7 3 5 1 1 1 1 1 1 1 -9999 -9999 -9999 -9999 -9999 -9999 -9999
 -9999 -9999 -9999 -9999 1 1 2 6 2 1 2 3 4 5 6 7 488 14 230 13 7 2 1 1 2 1 2 3 12 4 1 1 1 1 1 1 2 3 4 5 11 10 2 1132 5 4 3 2 1 1 2 5 1 1 1 1 2 3 4 75 1 1 1 1 2 4 5 1340 13 2 1 2 5 1 2 21 1 8 2 3 128 13 5 1 11 8 1 2 3 4 13 11 5 5 2 20 3 2 1 1 8480 10 39 1 1 16 10 2 1 15 5 8 2 3 2 50 100 9 8 7 6 2 2 2 2 1 1 1 1 -9999 -9999 -9999 -9999 -9999 -9999 -9999
 -9999 -9999 -9999 -9999 1 1 5 1 1 2 3 4 5 6 14 483 4 3 10 229 12 4 3 2 1 1 1 2 4 7 3 1 1 1 1 1 2 3 4 5 7 2 1 1131 6 5 4 3 2 1 1 3 1 1 1 2 1 2 69 4 1 1 1 2 4 5 1337 2 3 9 1 1 4 1 8 12 7 1 2 114 13 12 4 3 7 7 1 2 3 12 8 2 4 4 1 19 2 1 1 2 8477 8 1 38 8 3 5 7 6 3 14 4 5 1 2 1 49 99 91 13 12 9 6 3 2 2 2 1 1 -9999 -9999 -9999 -9999 -9999 -9999 -9999
 -9999 -9999 1 1 3 2 2 1 2 3 4 5 6 7 461 7 3 2 4 5 228 11 4 3 2 1 1 1 3 3 3 1 1 2 2 2 3 4 5 6 1 1 2 1124 12 4 3 2 1 1 1 1 1 1 2 2 3 12 54 2 1 1 2 2 3 1318 6 7 1 2 8 2 1 7 6 5 6 1 12 101 12 11 3 2 6 6 1 2 3 8 7 1 3 3 13 5 1 1 1 2 8468 6 7 29 2 2 2 4 2 2 2 13 3 4 3 1 2 46 7 77 6 5 4 3 3 3 3 1 1 -9999 -9999 -9999 -9999 -9999 -9999 -9999
 -9999 1 1 1 1 1 1 1 2 3 4 5 6 7 453 6 2 1 3 4 226 1 6 5 4 3 1 1 1 2 2 1 1 2 3 6 7 59 60 61 62 63 1088 20 1 7 6 5 4 2 1 1 1 2 2 5 8 52 1 1 1 1 2 5 6 1314 3 2 6 1 7 1 6 5 4 3 2 11 2 98 11 10 2 1 5 5 1 2 4 3 6 2 2 2 10 4 1 1 3 144 8323 5 6 27 1 1 1 1 1 1 1 1 12 2 1 2 1 31 14 6 70 68 15 14 10 6 2 1 1 1 -9999 -9999 -9999 -9999 -9999 -9999
 -9999 1 1 2 1 1 1 1 2 3 4 5 6 443 9 3 2 1 2 3 3 222 7 6 5 4 3 2 1 1 2 3 5 7 10 42 51 2 3 4 5 14 1010 19 18 17 12 8 5 3 1 1 2 2 5 6 47 4 1 1 1 2 2 3 4 1304 3 2 1 5 6 5 4 3 2 1 10 1 2 95 10 6 3 1 4 4 1 3 2 5 1 1 1 9 3 3 4 6 11 140 2 8320 4 5 26 25 17 11 10 9 8 7 4 11 8 6 1 30 10 3 5 1 52 19 3 2 1 1 1 1 -9999 -9999 -9999 -9999 -9999 -9999
 -9999 1 1 2 4 2 1 2 1 2 3 4 5 436 8 3 2 1 1 2 2 205 9 8 7 6 5 2 1 1 1 2 8 13 31 8 1 2 3 4 8 8 983 18 2 1 4 3 2 1 1 1 3 6 7 29 11 1 1 1 2 2 5 6 7 1282 10 2 1 4 5 4 3 2 1 3 6 1 7 87 9 4 1 2 3 3 2 1 4 1 2 3 8 2 2 2 3 4 125 2 1 1 8319 3 4 2 7 5 4 3 2 1 2 3 2 1 5 29 8 1 2 4 5 27 15 3 2 2 1 1 -9999 -9999 -9999 -9999 -9999 -9999
 1 1 1 2 3 5 4 1 3 4 5 6 7 423 2 2 2 1 1 1 1 198 5 4 3 2 1 2 1 1 2 5 4 17 4 3 1 1 2 3 1 6 982 15 6 5 2 3 2 1 1 2 3 15 21 7 2 1 1 1 2 3 4 5 6 1275 7 2 1 3 4 3 2 1 2 3 2 6 4 82 4 4 3 1 2 2 1 3 1 2 3 4 1 1 1 1 12 114 9 1 1 1 8317 2 2 1 1 6 5 4 3 2 1 1 2 1 4 28 5 2 1 3 4 5 21 11 6 3 1 1 1 1 -9999 -9999 -9999 -9999
 1 1 1 2 5 9 15 20 22 23 24 25 412 5 5 1 1 1 1 2 3 153 44 10 5 4 3 2 1 1 2 3 16 2 1 2 1 2 3 4 5 1 980 8 4 3 2 1 2 1 2 7 11 5 5 1 1 1 1 2 2 5 6 7 1213 6 55 6 1 2 3 2 1 1 2 1 5 3 3 74 4 3 3 2 1 1 2 2 3 4 5 6 7 8 9 10 19 82 7 1 1 5 8309 22 1 1 17 16 14 7 6 5 4 3 2 1 3 25 2 4 1 2 3 4 3 17 4 3 2 1 1 1 -9999 -9999 -9999 -9999
 -9999 1 1 1 2 5 6 7 8 9 10 11 386 2 4 4 3 1 1 2 3 146 14 19 4 3 2 1 1 1 2 4 11 1 1 1 1 2 3 4 5 1 978 3 2 1 2 1 1 1 4 3 4 4 1 1 1 1 2 2 3 4 5 1195 10 6 5 54 5 1 1 2 1 1 1 4 2 2 6 64 3 3 2 2 1 1 1 1 2 3 4 5 6 7 8 18 2 79 5 1 1 2 8256 30 21 20 2 1 1 6 5 4 3 2 1 1 2 16 8 1 3 1 2 3 2 3 13 4 3 2 1 1 -9999 -9999 -9999 -9999
 -9999 -9999 1 1 2 1 7 8 9 10 11 12 359 1 1 3 2 1 1 2 3 140 2 13 18 3 2 1 1 1 3 8 2 1 2 3 5 1 1 2 3 914 63 4 3 2 1 1 1 3 2 3 3 1 2 3 1 2 2 3 3 4 5 1184 2 1 5 4 53 3 2 1 1 1 2 1 1 5 6 56 1 2 2 1 1 1 1 2 3 4 5 6 7 8 9 1 69 9 2 2 1 2 8252 1 29 28 27 26 25 24 23 15 4 3 2 1 1 2 13 7 3 2 1 2 1 2 3 5 4 3 1 1 -9999 -9999 -9999 -9999
 -9999 -9999 1 1 3 5 4 6 8 9 10 11 347 8 4 3 1 1 2 3 4 135 1 2 10 14 8 3 1 1 4 3 1 3 4 5 6 12 14 15 901 4 36 22 3 2 1 1 1 1 2 2 3 4 5 15 19 21 24 3 7 8 1171 10 2 1 4 3 43 9 3 2 1 1 2 3 4 5 42 8 5 2 1 1 1 2 2 3 4 5 6 7 8 15 44 68 3 5 1 1 1 1 2 8248 56 55 54 53 51 49 47 7 10 4 3 2 1 1 8 4 3 2 1 1 1 1 1 1 1 1 1 1 -9999 -9999 -9999 -9999
 -9999 -9999 1 1 1 3 1 1 1 2 3 333 5 3 3 2 1 1 2 5 93 39 2 1 3 6 5 4 1 1 2 2 2 1 2 3 4 5 6 881 4 3 10 25 18 3 2 1 1 1 1 2 2 4 7 3 6 9 10 35 36 41 1121 5 4 1 3 2 3 39 5 2 1 1 2 3 4 6 35 5 2 2 1 1 1 1 3 1 2 3 4 5 6 28 20 3 2 4 1 1 1 1 8113 15 63 18 16 1 1 1 1 46 6 5 4 3 2 1 3 4 3 2 1 1 1 1 1 1 -9999 -9999 -9999 -9999 -9999 -9999 -9999 -9999
 -9999 -9999 1 1 2 1 1 1 2 3 4 324 1 1 2 1 1 1 2 1 87 38 1 1 2 2 3 4 2 1 1 1 1 2 3 4 5 6 863 11 3 2 4 5 24 14 6 4 2 1 1 1 1 2 2 2 2 1 2 3 4 1118 1 1 4 3 2 1 2 8 30 2 1 1 3 4 5 17 17 2 2 1 1 1 2 4 2 6 7 8 9 10 27 16 3 2 1 3 1 3 6 8112 1 13 43 1 1 14 13 12 11 10 45 5 4 3 2 1 2 2 1 2 1 1 -9999 -9999 -9999 -9999 -9999 -9999 -9999 -9999 -9999 -9999 -9999 -9999
 -9999 -9999 1 1 2 1 2 2 3 4 26 285 12 4 3 2 1 1 1 2 85 36 3 2 1 1 1 2 3 1 1 1 1 1 1 2 3 4 856 6 4 2 1 3 4 23 7 3 2 1 1 1 1 1 1 1 1 2 3 4 5 1114 3 2 1 3 2 1 1 7 8 21 1 1 2 4 7 9 14 2 1 1 1 1 2 1 5 6 7 8 9 16 13 2 2 1 2 2 222 224 8103 2 1 6 6 42 13 12 11 9 5 4 9 44 5 4 3 2 1 1 1 1 1 1 -9999 -9999 -9999 -9999 -9999 -9999 -9999 -9999 -9999 -9999 -9999 -9999
 -9999 1 1 1 2 5 2 5 6 21 55 226 3 7 3 2 1 1 2 3 79 15 17 5 4 3 2 1 2 1 2 2 2 2 2 3 4 5 842 4 5 3 1 2 3 4 18 3 2 1 1 2 2 1 1 1 1 1 2 3 4 1091 13 5 4 3 2 1 6 1 6 17 2 1 1 2 3 5 11 2 1 1 1 2 2 3 2 3 4 5 6 9 3 1 1 1 1 219 1 1 1 7876 20 19 5 5 28 22 18 1 3 2 3 8 38 3 2 1 1 1 1 1 1 -9999 -9999 -9999 -9999 -9999 -9999 -9999 -9999 -9999 -9999 -9999 -9999 -9999
 -9999 1 1 2 3 4 10 11 14 54 6 219 1 1 3 2 1 1 2 3 78 14 4 11 7 3 2 1 1 1 2 5 8 11 14 15 16 835 6 1 3 4 2 1 2 3 5 12 3 1 1 2 3 3 2 2 2 2 3 4 5 1085 1 6 5 4 2 1 5 1 4 10 6 1 1 2 2 2 9 1 1 1 2 2 3 3 4 5 6 7 8 1 1 1 1 1 218 2 3 4 7761 94 77 10 18 4 4 5 3 17 10 4 1 2 7 34 5 4 2 1 1 -9999 -9999 -9999 -9999 -9999 -9999 -9999 -9999 -9999 -9999 -9999 -9999 -9999 -9999 -9999
 -9999 1 1 2 1 1 1 2 53 4 1 2 216 6 5 4 1 1 3 5 74 9 4 3 3 3 1 1 1 1 1 2 3 4 5 6 7 818 4 3 2 2 3 1 1 2 4 7 1 1 1 3 6 10 14 17 20 23 64 68 75 1009 5 4 3 2 3 1 4 1 2 9 4 1 1 1 1 1 6 1 1 1 2 3 3 4 4 5 6 53 55 61 62 64 69 216 1 4 6 9 7756 10 6 66 9 17 3 3 4 2 6 5 3 1 2 4 28 7 2 1 1 1 1 -9999 -9999 -9999 -9999 -9999 -9999 -9999 -9999 -9999 -9999 -9999 -9999 -9999
 -9999 1 1 2 3 2 2 43 9 3 1 2 209 7 2 1 2 1 1 1 67 1 3 3 2 2 1 1 1 2 2 1 1 2 3 4 5 797 8 2 1 1 1 2 1 1 2 5 1 3 7 11 16 21 26 31 36 40 3 3 3 941 62 4 3 2 1 2 3 1 5 3 2 1 1 2 3 4 1 1 1 2 2 5 9 13 18 44 46 1 1 5 1 3 141 4 3 1 2 2 7741 3 9 5 65 8 16 2 2 3 1 5 4 2 1 3 2 18 4 2 1 1 1 -9999 -9999 -9999 -9999 -9999 -9999 -9999 -9999 -9999 -9999 -9999 -9999 -9999
 -9999 1 1 2 5 11 40 5 3 2 1 2 194 3 4 3 1 1 1 2 60 4 3 2 2 1 1 1 2 2 3 3 2 1 1 2 556 232 8 5 4 3 2 1 1 1 2 2 2 3 3 4 4 4 4 4 3 2 2 2 1 939 57 3 2 1 1 1 2 1 3 2 1 1 2 3 4 5 1 1 2 2 3 1 2 3 25 1 1 2 3 1 2 122 18 3 2 1 1 3 7727 10 2 8 4 64 7 15 1 1 2 1 4 3 1 2 1 4 13 6 3 1 1 -9999 -9999 -9999 -9999 -9999 -9999 -9999 -9999 -9999 -9999 -9999 -9999 -9999
 -9999 1 1 1 3 23 5 4 2 1 1 1 186 6 2 1 1 1 3 6 48 5 2 2 1 1 1 1 2 3 3 4 4 3 2 547 6 4 227 7 4 3 2 1 1 1 1 1 2 2 3 3 3 3 3 2 1 1 1 1 2 938 50 3 2 1 1 1 1 1 1 1 2 3 4 5 6 7 6 2 2 3 6 10 11 21 2 3 4 5 6 7 121 14 3 2 1 1 2 1 7725 7 2 1 7 3 63 6 14 8 7 6 5 3 2 1 1 2 5 1 2 1 1 -9999 -9999 -9999 -9999 -9999 -9999 -9999 -9999 -9999 -9999 -9999 -9999 -9999
 -9999 -9999 1 1 2 17 4 2 1 1 1 2 180 5 5 3 1 1 2 3 41 3 2 1 1 1 1 3 2 3 4 4 5 5 544 3 2 3 5 221 2 1 1 2 1 1 1 1 1 2 2 2 2 2 1 1 2 1 1 1 2 933 38 11 3 2 2 1 1 1 1 1 1 2 3 4 1 1 8 7 3 6 7 8 9 1 1 2 3 4 108 113 11 2 2 1 1 2 3 7723 1 2 4 1 5 1 2 62 5 5 4 3 2 4 2 1 1 4 1 1 1 1 1 -9999 -9999 -9999 -9999 -9999 -9999 -9999 -9999 -9999 -9999 -9999 -9999 -9999
 -9999 -9999 1 1 2 14 2 1 1 1 2 3 177 3 4 1 1 1 2 1 38 1 2 1 1 1 2 3 7 3 7 12 5 534 1 2 1 2 3 1 220 7 5 2 2 2 1 1 1 1 1 1 1 1 2 3 4 7 9 2 931 1 2 35 7 6 3 1 3 2 1 1 2 3 4 5 5 2 4 13 21 1 2 3 4 5 6 7 98 103 4 4 6 1 1 1 6 7 8 7719 2 1 1 3 2 2 1 8 53 4 3 2 1 1 3 1 2 1 1 -9999 -9999 -9999 -9999 -9999 -9999 -9999 -9999 -9999 -9999 -9999 -9999 -9999 -9999 -9999 -9999 -9999
 -9999 -9999 1 1 1 8 5 1 1 2 3 4 170 2 2 3 1 1 2 4 33 3 2 1 2 1 2 3 4 8 1 2 15 523 5 2 1 1 2 3 212 8 7 6 3 2 2 1 1 1 2 3 4 5 6 7 8 9 10 20 928 5 2 1 34 23 21 17 9 4 1 1 1 1 1 1 6 6 7 8 9 22 1 2 79 82 85 90 4 3 3 4 1 1 2 4 2 69 72 7636 6 5 4 3 2 1 1 7 23 29 3 2 1 2 1 2 1 1 1 -9999 -9999 -9999 -9999 -9999 -9999 -9999 -9999 -9999 -9999 -9999 -9999 -9999 -9999 -9999 -9999 -9999
 -9999 -9999 -9999 1 2 3 2 4 1 2 3 4 159 1 1 1 1 1 1 2 25 2 1 1 3 6 8 9 10 15 24 25 494 8 2 2 1 1 2 5 117 78 49 4 3 3 2 2 1 1 4 7 9 12 15 16 17 18 19 891 11 5 2 1 8 2 1 3 4 2 1 1 3 2 2 2 4 11 12 13 14 10 23 76 2 2 4 3 2 2 2 1 1 1 1 1 66 2 1 7624 4 3 2 1 2 1 1 5 4 18 25 7 6 3 2 1 1 1 -9999 -9999 -9999 -9999 -9999 -9999 -9999 -9999 -9999 -9999 -9999 -9999 -9999 -9999 -9999 -9999 -9999 -9999
 -9999 -9999 -9999 1 1 2 1 3 1 2 3 4 157 1 1 1 1 1 1 1 18 5 1 1 1 1 2 3 4 5 6 7 461 3 2 1 1 1 4 87 29 18 10 44 10 6 3 3 1 2 2 1 2 2 1 2 3 4 5 871 5 4 4 1 5 2 1 2 2 1 1 1 2 6 3 3 1 2 3 4 5 48 52 1 1 3 2 1 1 1 1 1 1 3 5 65 1 1 2 7621 5 4 3 2 1 1 1 3 3 13 4 17 3 2 1 1 1 1 -9999 -9999 -9999 -9999 -9999 -9999 -9999 -9999 -9999 -9999 -9999 -9999 -9999 -9999 -9999 -9999 -9999 -9999
 -9999 -9999 -9999 1 1 1 2 2 3 4 5 6 151 2 2 2 2 1 1 3 7 7 3 1 1 1 1 2 3 4 5 450 10 3 2 1 1 3 82 4 28 16 1 9 33 7 6 2 1 1 1 1 1 1 1 1 2 3 5 854 6 3 3 3 2 2 1 1 1 1 1 1 1 1 7 4 4 1 2 3 11 7 3 1 2 1 1 2 1 1 1 2 2 1 57 2 1 1 2 7615 1 3 2 1 1 1 1 1 2 5 7 3 13 10 5 3 1 1 -9999 -9999 -9999 -9999 -9999 -9999 -9999 -9999 -9999 -9999 -9999 -9999 -9999 -9999 -9999 -9999 -9999 -9999
 -9999 -9999 -9999 -9999 1 1 1 1 2 5 9 14 56 72 8 5 2 1 1 1 5 1 6 1 1 2 4 5 6 7 8 436 4 2 2 1 1 2 79 3 27 3 12 8 17 8 5 3 1 1 1 1 1 1 2 2 1 1 838 13 2 2 2 2 2 1 1 1 1 1 2 2 2 2 2 8 5 5 6 7 4 2 2 1 2 3 4 5 3 2 4 10 1 48 55 1 1 1 1 7605 6 2 1 2 3 1 1 1 1 4 3 3 2 2 4 2 1 1 -9999 -9999 -9999 -9999 -9999 -9999 -9999 -9999 -9999 -9999 -9999 -9999 -9999 -9999 -9999 -9999 -9999 -9999
 -9999 -9999 -9999 -9999 1 1 1 1 2 3 1 3 53 2 61 56 5 3 1 1 2 2 5 1 1 3 4 5 6 7 8 427 1 2 1 1 1 25 53 2 26 2 11 7 5 11 2 1 1 1 2 2 2 2 2 3 3 820 17 5 7 1 1 1 1 1 1 2 2 2 2 3 3 3 6 9 14 1 2 3 1 1 1 2 3 1 1 2 8 24 27 32 46 1 4 1 1 2 2 6846 757 4 3 4 3 2 2 1 1 1 2 2 2 1 1 1 1 1 1 -9999 -9999 -9999 -9999 -9999 -9999 -9999 -9999 -9999 -9999 -9999 -9999 -9999 -9999 -9999 -9999 -9999
 -9999 -9999 -9999 -9999 -9999 -9999 1 1 2 1 2 46 6 1 2 2 50 4 3 1 1 1 4 1 3 4 5 6 7 8 413 8 5 2 1 1 3 21 52 1 25 1 10 6 4 8 2 1 1 3 7 10 3 3 3 6 807 8 3 16 4 6 2 1 1 1 1 1 3 3 3 3 4 4 5 6 10 15 16 17 1 1 1 1 1 5 7 8 12 2 1 3 1 2 3 1 3 6840 6842 1 742 10 9 4 1 3 2 2 1 1 1 1 1 1 1 2 1 1 1 -9999 -9999 -9999 -9999 -9999 -9999 -9999 -9999 -9999 -9999 -9999 -9999 -9999 -9999 -9999 -9999 -9999
 -9999 -9999 -9999 -9999 -9999 -9999 1 1 1 2 3 45 3 2 1 1 4 41 5 2 1 1 2 3 6 7 8 9 10 11 393 4 3 2 1 1 2 18 50 1 24 7 2 5 3 2 5 1 1 2 2 3 14 4 4 5 792 3 1 2 15 3 3 1 1 2 2 3 1 4 4 4 4 5 6 7 14 11 12 13 18 2 3 2 1 1 2 3 1 1 1 1 1 2 1 2 6 6827 1 1 3 737 3 2 4 3 3 2 2 2 1 1 1 1 2 4 2 1 1 1 -9999 -9999 -9999 -9999 -9999 -9999 -9999 -9999 -9999 -9999 -9999 -9999 -9999 -9999 -9999 -9999
 -9999 -9999 -9999 -9999 -9999 -9999 -9999 1 1 2 3 37 1 2 1 1 2 29 6 2 1 1 2 2 3 10 11 12 13 389 3 2 3 2 1 1 1 16 48 1 23 6 1 4 2 1 3 1 1 1 1 2 3 18 23 787 1 3 2 1 5 9 2 1 1 3 6 6 2 5 1 5 10 15 16 17 18 33 34 35 49 68 74 5 1 1 1 1 2 1 2 1 1 1 2 3 6817 8 1 1 1 733 14 13 8 4 3 3 3 2 2 1 2 2 3 7 4 2 1 1 1 -9999 -9999 -9999 -9999 -9999 -9999 -9999 -9999 -9999 -9999 -9999 -9999 -9999 -9999 -9999
 -9999 -9999 -9999 -9999 -9999 -9999 -9999 1 1 2 6 30 2 1 1 1 2 9 17 5 2 1 1 2 6 4 7 8 9 375 2 1 1 2 1 1 2 13 46 1 22 4 1 2 1 1 1 1 1 1 1 1 2 3 746 17 7 3 2 1 4 7 1 1 2 3 4 11 20 6 1 2 3 1 2 3 4 770 790 794 799 801 807 887 1 2 2 1 1 3 4 2 1 1 2 6814 2 6 1 1 3 718 14 6 5 4 4 4 3 3 2 1 3 3 11 9 4 3 2 1 1 -9999 -9999 -9999 -9999 -9999 -9999 -9999 -9999 -9999 -9999 -9999 -9999 -9999 -9999 -9999
 -9999 -9999 -9999 -9999 -9999 -9999 -9999 1 1 3 2 22 3 2 1 1 2 6 14 2 2 1 1 5 3 2 1 2 3 359 4 3 2 1 1 2 5 7 43 2 21 2 1 1 2 1 1 1 1 2 2 2 3 730 12 5 4 3 2 1 3 5 1 1 1 2 3 4 5 36 43 45 46 50 51 52 765 19 3 4 1 2 3 3 892 901 904 906 1 2 13 1 1 4 6797 14 1 2 3 1 2 689 9 7 6 5 5 4 1 4 4 1 4 15 10 3 2 1 1 1 1 1 1 -9999 -9999 -9999 -9999 -9999 -9999 -9999 -9999 -9999 -9999 -9999 -9999 -9999
 -9999 -9999 -9999 -9999 -9999 -9999 -9999 1 1 1 2 16 3 2 1 1 1 4 4 9 1 1 4 2 1 2 3 4 5 355 4 3 2 1 1 2 1 5 42 1 12 8 1 1 2 5 2 3 2 1 3 3 4 726 6 5 4 3 2 1 2 3 1 1 1 1 2 3 10 2 4 5 6 7 8 712 13 5 2 3 1 2 2 1 1 4 2 4 920 926 940 1 1 6784 8 11 2 1 2 1 2 3 683 8 7 6 5 2 33 28 23 21 16 17 6 2 1 2 2 1 1 1 1 -9999 -9999 -9999 -9999 -9999 -9999 -9999 -9999 -9999 -9999 -9999 -9999 -9999
 -9999 -9999 -9999 -9999 -9999 -9999 -9999 1 1 1 1 10 4 3 2 1 1 2 3 3 5 2 1 1 1 1 2 3 4 341 11 8 4 2 1 1 4 34 6 1 11 6 1 1 2 4 10 13 4 4 1 4 713 3 5 5 4 3 2 1 1 2 1 1 2 4 5 6 1 1 1 2 3 4 703 8 4 4 1 2 1 1 1 2 3 1 1 9 2 2 1 941 6783 1 6 9 1 1 1 1 1 1 29 653 139 138 132 129 95 94 93 90 88 62 8 7 6 3 2 2 2 1 1 -9999 -9999 -9999 -9999 -9999 -9999 -9999 -9999 -9999 -9999 -9999 -9999 -9999
 -9999 -9999 -9999 -9999 -9999 -9999 -9999 -9999 1 1 1 1 7 5 3 1 1 2 1 1 3 1 1 1 1 1 1 2 325 4 3 2 3 1 1 2 4 29 5 4 6 3 2 1 1 2 3 4 18 5 6 1 708 8 2 4 4 3 2 1 1 1 1 3 5 22 23 24 1 1 1 2 3 689 9 7 3 2 1 1 2 3 4 5 6 7 8 1 1 1 2 5834 6 5 4 5 8 3 1 1 2 6 22 513 467 21 12 6 5 4 3 2 1 8 53 35 7 6 3 3 2 1 1 -9999 -9999 -9999 -9999 -9999 -9999 -9999 -9999 -9999 -9999 -9999 -9999 -9999
 -9999 -9999 -9999 -9999 -9999 -9999 -9999 -9999 -9999 1 1 1 1 1 1 1 1 1 1 2 1 1 1 1 2 2 4 5 322 4 3 2 1 2 1 3 4 24 4 3 5 1 1 1 1 1 2 3 4 23 35 685 8 5 7 1 3 3 2 1 1 3 7 12 16 4 6 7 32 2 2 3 44 641 8 3 3 2 1 1 1 2 3 4 5 6 7 8 9 10 11 5830 5 4 1 3 4 4 1 1 3 12 9 34 11 445 8 5 4 3 2 2 1 2 5 17 27 8 7 3 2 1 1 -9999 -9999 -9999 -9999 -9999 -9999 -9999 -9999 -9999 -9999 -9999 -9999 -9999
 -9999 -9999 -9999 -9999 -9999 -9999 -9999 -9999 -9999 -9999 -9999 -9999 1 1 1 1 1 1 -9999 2 1 1 2 4 6 3 4 5 300 7 3 2 1 1 2 3 17 6 3 2 4 1 1 1 1 1 1 1 2 6 641 6 2 7 4 6 3 2 2 1 1 2 4 3 3 1 1 2 3 36 39 40 603 37 4 3 2 2 1 1 2 3 4 5 6 19 49 50 51 52 53 5760 6 5 2 2 3 2 1 1 4 7 8 15 18 10 444 7 3 2 1 1 1 1 2 2 16 18 14 11 7 1 1 -9999 -9999 -9999 -9999 -9999 -9999 -9999 -9999 -9999 -9999 -9999 -9999 -9999
 -9999 -9999 -9999 -9999 -9999 -9999 -9999 -9999 -9999 -9999 -9999 -9999 -9999 -9999 -9999 -9999 -9999 -9999 -9999 2 1 1 3 5 6 13 14 296 1 2 3 2 1 1 2 11 5 5 2 1 3 2 4 3 1 2 2 2 3 607 22 5 5 1 6 3 2 2 1 1 1 3 2 2 1 1 1 2 3 12 14 602 28 6 2 3 2 1 1 1 2 3 4 5 12 29 19 20 21 22 5712 5753 2 1 4 1 1 2 1 1 2 6 7 14 3 14 9 443 3 2 1 1 1 1 1 1 2 13 3 2 1 4 1 -9999 -9999 -9999 -9999 -9999 -9999 -9999 -9999 -9999 -9999 -9999 -9999 -9999
 -9999 -9999 -9999 -9999 -9999 -9999 -9999 -9999 -9999 -9999 -9999 -9999 -9999 -9999 -9999 -9999 -9999 -9999 -9999 1 1 1 1 1 2 3 4 277 2 1 1 2 1 1 2 8 4 4 1 2 1 7 8 13 17 2 3 3 4 602 17 4 4 4 3 2 2 1 1 1 2 1 1 1 2 4 6 7 8 1 1 586 27 4 1 1 2 1 1 2 3 4 5 6 28 18 2 3 4 5 5684 35 3 2 1 3 2 1 1 1 2 3 6 13 2 13 8 436 6 5 4 2 2 1 3 2 1 8 4 2 1 3 1 -9999 -9999 -9999 -9999 -9999 -9999 -9999 -9999 -9999 -9999 -9999 -9999 -9999
 -9999 -9999 -9999 -9999 -9999 -9999 -9999 -9999 -9999 -9999 -9999 -9999 -9999 -9999 -9999 -9999 -9999 -9999 -9999 1 1 1 2 3 4 5 223 51 3 2 1 1 1 1 4 3 3 3 1 2 6 4 8 12 13 31 34 38 599 2 12 4 3 3 3 2 1 1 1 1 2 1 1 1 1 1 2 3 4 5 12 573 17 9 3 2 1 1 1 1 2 3 4 27 17 1 2 5 6 7 5676 34 7 6 5 4 3 2 1 1 2 2 3 12 1 12 7 8 427 7 6 5 2 4 2 1 1 3 4 3 1 2 1 -9999 -9999 -9999 -9999 -9999 -9999 -9999 -9999 -9999 -9999 -9999 -9999 -9999
 -9999 -9999 -9999 -9999 -9999 -9999 -9999 -9999 -9999 -9999 -9999 -9999 -9999 -9999 -9999 -9999 -9999 -9999 -9999 -9999 1 1 2 1 2 3 217 47 8 7 6 4 3 1 2 2 2 2 1 3 3 3 3 3 4 5 6 7 553 2 1 11 3 2 2 2 1 1 1 2 3 1 2 2 2 2 3 4 5 6 569 3 3 13 8 3 1 1 1 3 4 5 22 14 2 1 2 1 2 6 5669 12 14 6 5 4 3 2 1 1 1 2 2 9 5 6 6 7 401 18 2 1 5 4 1 1 1 1 2 3 2 1 1 -9999 -9999 -9999 -9999 -9999 -9999 -9999 -9999 -9999 -9999 -9999 -9999 -9999
 -9999 -9999 -9999 -9999 -9999 -9999 -9999 -9999 -9999 -9999 -9999 -9999 -9999 -9999 -9999 -9999 -9999 -9999 -9999 -9999 1 1 1 3 1 2 213 38 18 4 3 2 1 2 1 1 1 1 2 2 2 2 2 1 2 3 4 542 8 2 1 8 2 2 1 1 1 1 2 4 4 1 2 5 8 11 12 13 14 15 553 2 2 3 9 4 1 1 2 3 4 16 8 5 1 1 1 2 3 4 5664 4 7 7 6 5 4 3 2 1 1 1 2 6 4 5 5 6 3 397 15 14 8 3 2 2 2 1 1 1 2 1 1 -9999 -9999 -9999 -9999 -9999 -9999 -9999 -9999 -9999 -9999 -9999 -9999 -9999
 -9999 -9999 -9999 -9999 -9999 -9999 -9999 -9999 -9999 -9999 -9999 -9999 -9999 -9999 -9999 -9999 -9999 -9999 -9999 -9999 1 1 3 5 9 10 200 14 5 13 4 3 2 1 1 1 1 1 1 1 1 1 1 2 3 4 5 537 3 2 1 3 4 1 1 1 1 1 2 7 6 1 1 1 2 3 4 1 1 1 551 1 1 2 3 5 3 1 3 4 11 7 4 1 2 1 1 2 3 1 5662 2 1 6 5 4 3 2 1 1 1 1 1 4 3 4 4 5 2 246 150 6 5 4 3 3 5 3 1 1 1 1 1 -9999 -9999 -9999 -9999 -9999 -9999 -9999 -9999 -9999 -9999 -9999 -9999 -9999
 -9999 -9999 -9999 -9999 -9999 -9999 -9999 -9999 -9999 -9999 -9999 -9999 -9999 -9999 -9999 -9999 -9999 -9999 -9999 -9999 1 1 2 3 4 191 6 2 13 4 8 5 3 1 1 2 2 1 1 1 1 1 1 2 3 4 525 4 2 2 1 2 2 1 1 1 2 2 4 8 7 2 1 2 3 4 5 10 3 545 5 4 3 1 2 4 2 1 2 6 6 3 1 2 3 6 8 9 10 11 12 5649 1 7 6 5 4 3 2 2 1 1 1 2 2 3 3 4 1 245 12 131 35 34 33 29 23 17 5 3 1 1 1 -9999 -9999 -9999 -9999 -9999 -9999 -9999 -9999 -9999 -9999 -9999 -9999 -9999
 -9999 -9999 -9999 -9999 -9999 -9999 -9999 -9999 -9999 -9999 -9999 -9999 -9999 -9999 -9999 -9999 -9999 -9999 -9999 -9999 1 1 2 3 4 182 3 2 1 12 3 2 1 1 1 6 2 1 1 2 2 2 2 1 1 2 520 4 3 1 1 1 1 1 1 2 2 3 7 9 8 3 1 2 1 1 2 3 14 519 8 7 3 2 1 3 1 2 3 5 2 2 3 4 5 13 28 29 71 87 90 5526 122 101 9 8 7 6 5 2 2 1 1 1 1 2 2 3 3 241 5 6 95 13 4 3 2 5 11 7 3 1 1 -9999 -9999 -9999 -9999 -9999 -9999 -9999 -9999 -9999 -9999 -9999 -9999 -9999
 -9999 -9999 -9999 -9999 -9999 -9999 -9999 -9999 -9999 -9999 -9999 -9999 -9999 -9999 -9999 -9999 -9999 -9999 -9999 -9999 1 1 2 3 174 4 3 2 1 3 8 2 1 1 2 10 2 1 1 2 3 3 3 3 5 504 9 2 3 2 1 1 1 1 2 2 3 3 11 10 9 4 2 1 3 2 1 2 441 77 4 3 3 2 1 2 1 3 4 1 1 1 2 3 7 14 40 41 15 2 2 5433 4 9 91 86 79 10 9 8 5 3 1 1 1 1 2 2 3 237 4 3 2 81 8 2 1 1 4 3 3 1 1 -9999 -9999 -9999 -9999 -9999 -9999 -9999 -9999 -9999 -9999 -9999 -9999 -9999
 -9999 -9999 -9999 -9999 -9999 -9999 -9999 -9999 -9999 -9999 -9999 -9999 -9999 -9999 -9999 -9999 -9999 -9999 -9999 -9999 1 1 2 3 170 3 2 2 1 2 4 3 1 2 3 3 13 2 1 2 3 4 4 103 491 7 5 1 1 2 1 1 2 2 2 3 3 7 12 11 10 5 1 3 2 4 7 416 22 69 3 2 2 2 1 1 2 1 2 3 1 1 2 3 13 39 11 14 1 1 4 5428 3 5 3 4 6 68 15 5 4 3 2 1 1 1 1 2 2 234 3 2 1 75 5 5 4 3 2 3 2 1 1 -9999 -9999 -9999 -9999 -9999 -9999 -9999 -9999 -9999 -9999 -9999 -9999 -9999
 -9999 -9999 -9999 -9999 -9999 -9999 -9999 -9999 -9999 -9999 -9999 -9999 -9999 -9999 -9999 -9999 -9999 -9999 -9999 -9999 1 1 2 3 166 2 1 1 1 1 3 2 1 2 3 7 11 16 2 1 4 8 95 365 22 5 1 4 3 2 1 1 2 3 6 9 16 8 13 1 23 1 6 5 8 406 408 15 6 63 5 4 1 1 1 1 1 2 3 4 8 10 11 12 38 10 2 1 2 3 22 5405 2 2 2 2 3 5 52 9 8 7 6 4 2 1 1 1 1 231 1 2 1 3 71 4 3 2 1 1 2 1 1 -9999 -9999 -9999 -9999 -9999 -9999 -9999 -9999 -9999 -9999 -9999 -9999 -9999
 -9999 -9999 -9999 -9999 -9999 -9999 -9999 -9999 -9999 -9999 -9999 -9999 -9999 -9999 -9999 -9999 -9999 -9999 -9999 -9999 1 1 2 140 20 13 10 6 3 1 2 1 1 1 2 3 9 33 69 78 80 82 361 3 2 19 4 3 2 1 1 1 2 3 4 5 6 31 182 187 192 217 221 231 397 1 4 10 5 60 2 1 3 2 1 1 2 3 4 5 24 30 33 37 9 1 2 3 4 8 13 5403 1 1 1 1 1 2 4 51 6 5 4 3 2 1 1 2 3 227 3 2 1 2 4 66 5 4 3 2 1 1 1 -9999 -9999 -9999 -9999 -9999 -9999 -9999 -9999 -9999 -9999 -9999 -9999 -9999
 -9999 -9999 -9999 -9999 -9999 -9999 -9999 -9999 -9999 -9999 -9999 -9999 -9999 -9999 -9999 -9999 -9999 -9999 -9999 -9999 1 1 2 135 5 1 2 3 2 1 1 1 2 3 4 5 12 19 6 1 1 358 2 2 1 12 6 1 1 1 1 2 2 3 1 2 117 137 4 4 1 2 3 3 162 3 5 4 4 52 7 6 5 3 1 1 2 8 13 18 5 2 3 7 1 1 1 2 3 4 8 5392 10 9 8 7 6 4 1 3 44 35 12 3 2 1 1 3 6 217 2 1 1 1 3 18 42 2 1 1 1 1 1 -9999 -9999 -9999 -9999 -9999 -9999 -9999 -9999 -9999 -9999 -9999 -9999 -9999
 -9999 -9999 -9999 -9999 -9999 -9999 -9999 -9999 -9999 -9999 -9999 -9999 -9999 -9999 -9999 -9999 -9999 -9999 -9999 -9999 1 1 2 132 1 3 2 1 2 1 2 3 8 9 10 11 18 5 4 7 8 349 1 1 2 9 3 1 1 3 2 1 5 4 5 114 16 3 3 3 1 2 2 1 160 2 4 3 3 44 7 3 2 1 1 2 5 4 4 4 1 2 3 3 1 1 1 2 3 1 6 5358 33 16 13 6 1 1 3 2 2 6 22 8 2 1 1 2 6 205 3 2 1 1 1 3 14 39 4 2 2 1 1 -9999 -9999 -9999 -9999 -9999 -9999 -9999 -9999 -9999 -9999 -9999 -9999 -9999
 -9999 -9999 -9999 -9999 -9999 -9999 -9999 -9999 -9999 -9999 -9999 -9999 -9999 -9999 -9999 -9999 -9999 -9999 -9999 -9999 1 1 2 123 6 2 1 1 1 1 2 4 3 4 14 17 4 3 2 1 283 65 2 1 1 7 1 1 1 3 4 7 95 102 108 11 4 2 2 2 1 1 1 2 157 1 3 2 2 3 40 3 2 1 1 2 3 3 2 1 1 2 2 2 3 5 2 3 4 5 1 5356 16 2 5 1 4 3 2 1 1 5 6 15 5 2 1 1 4 201 3 2 1 1 1 2 3 10 34 5 2 1 1 -9999 -9999 -9999 -9999 -9999 -9999 -9999 -9999 -9999 -9999 -9999 -9999 -9999
 -9999 -9999 -9999 -9999 -9999 -9999 -9999 -9999 -9999 -9999 -9999 -9999 -9999 -9999 -9999 -9999 -9999 -9999 -9999 -9999 1 1 2 120 3 2 1 1 1 1 1 2 3 9 2 3 2 1 1 5 276 60 2 1 1 4 1 1 2 3 7 81 2 4 5 10 3 1 1 1 1 2 3 4 152 3 2 1 1 2 37 2 1 1 1 2 2 1 1 1 1 1 1 1 2 3 6 7 8 9 25 5330 6 9 1 4 3 2 2 1 1 3 5 4 10 2 1 1 2 188 12 3 2 2 1 1 2 3 6 28 3 1 1 -9999 -9999 -9999 -9999 -9999 -9999 -9999 -9999 -9999 -9999 -9999 -9999 -9999
 -9999 -9999 -9999 -9999 -9999 -9999 -9999 -9999 -9999 -9999 -9999 -9999 -9999 -9999 -9999 -9999 -9999 -9999 -9999 -9999 1 1 2 119 4 3 2 2 1 1 1 2 5 1 2 1 1 2 3 6 269 58 1 1 1 2 1 2 3 30 60 13 1 3 4 9 1 1 1 1 1 2 3 143 3 2 2 1 1 1 32 3 2 1 1 1 1 2 3 5 2 1 1 1 1 2 4 5 6 12 3 5321 8 5 8 4 3 2 1 1 2 2 2 3 5 4 1 1 2 4 181 8 7 4 2 1 1 2 2 3 24 6 1 1 -9999 -9999 -9999 -9999 -9999 -9999 -9999 -9999 -9999 -9999 -9999 -9999
 -9999 -9999 -9999 -9999 -9999 -9999 -9999 -9999 -9999 -9999 -9999 -9999 -9999 -9999 -9999 -9999 -9999 -9999 -9999 -9999 1 1 2 112 10 9 8 5 3 1 1 2 2 1 1 2 3 4 5 266 2 55 2 1 1 1 2 3 26 26 3 11 1 2 3 7 1 1 2 4 6 7 8 131 1 1 1 1 2 3 24 4 2 1 1 1 1 1 2 4 10 3 2 2 4 5 3 4 5 1 1 5319 1 7 4 3 2 1 1 1 1 1 1 2 2 2 3 1 3 4 15 161 6 5 4 3 2 1 1 2 6 11 5 7 1 -9999 -9999 -9999 -9999 -9999 -9999 -9999 -9999 -9999 -9999 -9999
 -9999 -9999 -9999 -9999 -9999 -9999 -9999 -9999 -9999 -9999 -9999 -9999 -9999 -9999 -9999 -9999 -9999 -9999 -9999 -9999 1 1 2 84 13 12 11 10 5 4 2 1 1 1 2 3 4 5 15 250 1 1 53 1 1 2 3 22 23 2 2 7 3 1 2 5 1 2 3 4 5 6 7 120 3 2 1 1 2 5 16 2 1 1 1 3 1 2 1 1 2 11 4 3 4 5 11 12 13 1 1 5318 2 1 6 3 2 1 2 1 1 1 1 1 1 1 2 2 3 6 8 3 151 4 3 2 1 1 1 1 4 10 4 6 1 -9999 -9999 -9999 -9999 -9999 -9999 -9999 -9999 -9999 -9999 -9999
 -9999 -9999 -9999 -9999 -9999 -9999 -9999 -9999 -9999 -9999 -9999 -9999 -9999 -9999 -9999 -9999 -9999 -9999 -9999 -9999 1 1 2 56 25 5 4 3 4 2 1 1 1 1 2 4 6 9 242 6 1 1 51 1 1 6 18 7 15 1 1 6 2 1 2 2 1 1 2 3 4 5 100 19 8 4 1 1 2 2 11 2 1 1 2 2 5 1 3 1 1 3 12 5 6 7 8 9 10 14 5310 4 3 2 1 5 4 3 2 2 2 2 1 1 1 1 1 2 5 4 3 2 7 139 3 2 1 1 1 3 2 7 3 5 1 -9999 -9999 -9999 -9999 -9999 -9999 -9999 -9999 -9999 -9999 -9999
 -9999 -9999 -9999 -9999 -9999 -9999 -9999 -9999 -9999 -9999 -9999 -9999 -9999 -9999 -9999 -9999 -9999 -9999 -9999 1 1 1 5 50 11 8 5 2 2 1 1 1 2 1 1 1 2 2 239 4 1 1 47 1 4 8 3 6 13 1 3 2 1 1 1 1 1 1 1 1 2 3 91 7 3 3 2 1 1 2 4 4 1 1 3 6 3 6 2 4 2 2 16 1 2 3 4 5 6 11 5285 9 8 7 6 5 4 3 3 1 3 6 2 2 1 1 1 1 3 3 2 1 6 133 2 1 2 1 1 1 2 4 2 4 5 1 -9999 -9999 -9999 -9999 -9999 -9999 -9999 -9999 -9999 -9999
 -9999 -9999 -9999 -9999 -9999 -9999 -9999 -9999 -9999 -9999 -9999 -9999 -9999 -9999 -9999 -9999 -9999 -9999 -9999 1 1 3 3 46 7 3 2 2 1 1 1 1 4 2 1 1 1 2 236 2 1 1 45 3 2 5 2 5 7 5 2 1 1 1 1 1 2 2 2 2 3 4 86 3 3 2 2 1 1 3 3 3 4 7 9 10 17 4 7 3 5 3 6 23 1 1 2 4 5 2334 5273 111 3 2 1 79 78 77 73 71 66 52 7 4 2 1 1 1 1 2 1 2 3 128 4 3 2 1 1 1 1 2 1 3 4 1 -9999 -9999 -9999 -9999 -9999 -9999 -9999 -9999 -9999 -9999
 -9999 -9999 -9999 -9999 -9999 -9999 -9999 -9999 -9999 -9999 -9999 -9999 -9999 -9999 -9999 -9999 -9999 -9999 -9999 1 1 2 21 24 3 3 2 1 1 1 1 3 2 5 9 1 1 1 234 1 1 4 39 2 1 4 1 4 6 4 1 1 2 4 6 8 10 13 18 19 63 76 6 3 2 2 1 1 2 2 2 1 2 1 1 1 1 18 5 8 4 6 1 1 24 2 1 2320 2321 1 2817 10 107 99 98 18 17 11 7 2 1 7 44 40 4 2 1 1 1 1 1 2 3 4 120 5 2 2 1 1 1 1 1 1 3 1 -9999 -9999 -9999 -9999 -9999 -9999 -9999 -9999 -9999 -9999
 -9999 -9999 -9999 -9999 -9999 -9999 -9999 -9999 -9999 -9999 -9999 -9999 -9999 -9999 -9999 -9999 -9999 -9999 -9999 1 1 10 10 20 3 2 2 1 1 1 2 1 4 3 4 11 1 1 233 1 2 6 30 2 1 3 1 2 5 3 1 2 3 4 20 25 29 34 41 43 3 9 3 2 2 1 1 1 1 1 2 3 4 5 1 2 2 2 19 6 9 5 7 2 4 2316 2319 1 2 2814 1 1 9 7 6 5 4 5 3 4 1 2 4 3 35 25 6 4 2 1 1 2 3 3 98 13 3 2 2 2 1 1 1 2 1 1 -9999 -9999 -9999 -9999 -9999 -9999 -9999 -9999 -9999 -9999
 -9999 -9999 -9999 -9999 -9999 -9999 -9999 -9999 -9999 -9999 -9999 -9999 -9999 -9999 -9999 -9999 -9999 -9999 -9999 1 5 4 9 16 3 2 1 1 1 2 2 4 5 1 1 6 12 2 229 1 5 2 2 25 1 2 1 2 2 2 4 6 9 15 4 3 4 4 2 1 2 4 4 2 1 1 1 1 1 1 1 2 3 1 6 2 5 1 3 20 27 2249 2257 2267 2281 4 2 1 2 2811 1 1 1 8 4 3 2 3 4 2 3 1 3 2 2 7 17 13 7 1 1 2 2 3 4 90 9 6 3 2 2 1 1 1 1 -9999 -9999 -9999 -9999 -9999 -9999 -9999 -9999 -9999 -9999 -9999
 -9999 -9999 -9999 -9999 -9999 -9999 -9999 -9999 -9999 -9999 -9999 -9999 -9999 -9999 -9999 -9999 -9999 -9999 1 3 4 3 8 13 2 2 1 1 1 3 8 13 8 1 1 3 10 227 1 1 2 1 1 22 2 1 1 1 1 3 1 2 5 3 2 3 1 2 1 1 1 2 2 1 1 1 3 2 1 1 1 1 1 4 2 11 6 1 2 4 2212 2 2 10 3 3 1 1 2 3 2804 2 5 4 3 2 1 1 2 3 1 2 2 1 1 2 4 3 5 5 1 1 2 3 4 2 83 14 6 3 2 1 2 2 1 -9999 -9999 -9999 -9999 -9999 -9999 -9999 -9999 -9999 -9999 -9999
 -9999 -9999 -9999 -9999 -9999 -9999 -9999 -9999 -9999 -9999 -9999 -9999 -9999 -9999 -9999 -9999 -9999 -9999 1 2 3 2 7 10 2 1 1 1 3 4 5 14 9 1 1 1 3 204 3 2 1 1 2 15 6 1 1 1 1 1 1 1 3 2 1 2 1 1 2 1 1 1 1 1 1 1 7 2 2 1 1 2 2 2 7 8 18 1 2190 2207 1 1 5 4 2 2 1 2 5 14 2800 16 8 7 3 2 1 1 1 1 2 1 1 1 1 1 2 1 2 4 4 1 2 3 1 6 32 30 7 6 3 1 3 3 1 -9999 -9999 -9999 -9999 -9999 -9999 -9999 -9999 -9999 -9999 -9999
 -9999 -9999 -9999 -9999 -9999 -9999 -9999 -9999 -9999 -9999 -9999 -9999 -9999 -9999 -9999 -9999 -9999 -9999 1 1 2 1 6 4 5 1 1 2 3 4 5 25 11 1 1 1 1 182 14 2 1 1 2 12 5 1 1 3 1 1 1 1 1 1 1 1 1 1 1 3 3 2 1 1 1 2 11 3 1 1 2 2 3 3 4 5 32 2185 1 6 9 1 3 3 1 1 1 2 8 4 1310 1455 2 1 6 5 4 2 1 1 1 1 1 2 1 2 1 1 1 3 3 1 2 4 5 9 22 6 23 11 6 5 1 1 -9999 -9999 -9999 -9999 -9999 -9999 -9999 -9999 -9999 -9999 -9999 -9999
 -9999 -9999 -9999 -9999 -9999 -9999 -9999 -9999 -9999 -9999 -9999 -9999 -9999 -9999 -9999 -9999 -9999 -9999 1 1 1 2 3 3 2 2 1 3 11 16 21 31 59 72 1 2 1 180 11 2 1 1 2 9 3 1 1 2 6 2 1 1 1 1 1 1 2 2 2 2 7 4 2 1 1 2 14 4 2 2 1 3 3 4 5 6 2130 22 1 5 4 4 2 2 1 2 3 7 3 1 1308 1415 39 38 37 4 3 2 2 2 2 1 2 4 3 1 1 1 1 2 2 1 3 4 8 16 5 5 8 3 4 2 1 1 -9999 -9999 -9999 -9999 -9999 -9999 -9999 -9999 -9999 -9999 -9999 -9999
 -9999 -9999 -9999 -9999 -9999 -9999 -9999 -9999 -9999 -9999 -9999 -9999 -9999 -9999 -9999 -9999 -9999 -9999 -9999 1 1 1 2 2 1 1 1 7 4 4 4 5 2 1 73 150 179 2 3 3 1 1 1 5 2 1 3 5 3 9 2 2 3 1 1 2 2 3 5 3 8 5 3 2 2 3 1 19 3 3 2 4 1 5 1927 1944 179 15 5 4 3 3 1 1 1 2 3 1 1 1307 2 4 1408 176 172 32 2 1 3 3 4 1 3 8 4 2 2 2 1 1 1 2 3 3 11 4 4 4 3 4 2 1 1 1 -9999 -9999 -9999 -9999 -9999 -9999 -9999 -9999 -9999 -9999 -9999 -9999
 -9999 -9999 -9999 -9999 -9999 -9999 -9999 -9999 -9999 -9999 -9999 -9999 -9999 -9999 -9999 -9999 -9999 -9999 -9999 -9999 1 1 1 1 2 4 6 3 3 3 3 1 1 11 73 5 15 8 1 2 1 1 3 4 1 1 2 3 9 22 3 3 4 2 1 2 3 3 12 4 1 15 4 3 3 4 1 22 1785 1796 1902 1913 1920 1921 7 9 178 14 4 3 2 1 1 2 3 4 5 6 1306 1 1 2 1228 3 3 171 29 28 27 20 15 13 9 16 11 10 7 4 2 1 1 2 2 3 7 3 3 3 2 1 2 1 1 -9999 -9999 -9999 -9999 -9999 -9999 -9999 -9999 -9999 -9999 -9999 -9999 -9999
 -9999 -9999 -9999 -9999 -9999 -9999 -9999 -9999 -9999 -9999 -9999 -9999 -9999 -9999 -9999 -9999 -9999 -9999 -9999 -9999 -9999 1 1 1 1 1 2 2 2 2 2 4 10 55 5 4 4 10 7 2 1 1 1 2 1 1 1 1 1 1 26 4 5 1 3 2 6 7 8 21 26 27 43 8 1 5 1742 1755 4 7 103 6 6 6 5 3 177 13 1 2 2 1 1 1 2 3 4 5 1299 2 1 1 1221 5 2 2 170 166 161 158 32 25 24 7 6 5 4 2 1 1 1 1 2 2 4 2 2 2 1 1 1 1 1 -9999 -9999 -9999 -9999 -9999 -9999 -9999 -9999 -9999 -9999 -9999 -9999 -9999
 -9999 -9999 -9999 -9999 -9999 -9999 -9999 -9999 -9999 -9999 -9999 -9999 -9999 -9999 -9999 -9999 -9999 -9999 -9999 -9999 -9999 -9999 1 1 1 1 1 1 1 1 1 4 1 54 4 3 3 7 2 4 1 1 2 3 3 2 2 2 2 2 28 5 1 6 2 6 263 268 270 273 274 275 276 320 329 1732 8 4 3 6 102 5 5 5 4 2 176 8 4 2 1 1 1 1 2 3 4 5 1285 1 1 1 2 1217 4 1 1 3 4 2 125 6 5 4 3 2 1 1 2 1 1 1 1 2 1 1 1 1 1 1 1 -9999 -9999 -9999 -9999 -9999 -9999 -9999 -9999 -9999 -9999 -9999 -9999 -9999 -9999 -9999
 -9999 -9999 -9999 -9999 -9999 -9999 -9999 -9999 -9999 -9999 -9999 -9999 -9999 -9999 -9999 -9999 -9999 -9999 -9999 -9999 -9999 -9999 -9999 -9999 1 1 1 1 1 1 2 1 2 51 3 2 2 4 2 1 3 1 5 6 4 4 3 3 3 6 37 219 224 235 243 254 4 1 2 1 2 3 4 1396 1402 4 3 3 2 5 101 4 4 4 3 1 175 5 2 1 1 1 1 2 1 1 1 1 1284 2 1 1 2 1206 8 3 2 1 2 3 1 124 31 3 2 1 1 3 2 3 1 1 1 2 1 1 1 1 1 -9999 -9999 -9999 -9999 -9999 -9999 -9999 -9999 -9999 -9999 -9999 -9999 -9999 -9999 -9999 -9999 -9999
 -9999 -9999 -9999 -9999 -9999 -9999 -9999 -9999 -9999 -9999 -9999 -9999 -9999 -9999 -9999 -9999 -9999 -9999 -9999 -9999 -9999 -9999 -9999 -9999 -9999 -9999 -9999 -9999 -9999 1 1 1 3 47 2 1 1 2 1 1 2 3 1 2 9 5 5 4 8 170 176 3 10 1 8 2 3 1 1 1 2 3 1391 2 3 3 2 2 1 4 100 3 3 3 2 1 173 2 2 1 1 1 2 2 5 8 1235 1236 1280 2 1 1 2 5 1198 7 3 2 1 1 2 18 74 27 3 2 4 3 10 6 4 1 1 3 -9999 -9999 -9999 -9999 -9999 -9999 -9999 -9999 -9999 -9999 -9999 -9999 -9999 -9999 -9999 -9999 -9999 -9999 -9999 -9999 -9999 -9999
 -9999 -9999 -9999 -9999 -9999 -9999 -9999 -9999 -9999 -9999 -9999 -9999 -9999 -9999 -9999 -9999 -9999 -9999 -9999 -9999 -9999 -9999 -9999 -9999 -9999 -9999 -9999 -9999 -9999 1 1 2 3 13 30 1 1 1 1 1 1 1 1 2 3 13 19 25 161 2 3 2 9 5 2 1 2 1 2 4 5 6 1381 1 2 2 1 1 3 93 6 2 2 2 1 160 11 1 1 1 1 2 2 3 4 1223 2 1 38 2 1 1 1 3 10 1187 3 2 1 1 1 8 9 73 23 22 17 13 2 1 1 1 2 1 -9999 -9999 -9999 -9999 -9999 -9999 -9999 -9999 -9999 -9999 -9999 -9999 -9999 -9999 -9999 -9999 -9999 -9999 -9999 -9999 -9999 -9999
 -9999 -9999 -9999 -9999 -9999 -9999 -9999 -9999 -9999 -9999 -9999 -9999 -9999 -9999 -9999 -9999 -9999 -9999 -9999 -9999 -9999 -9999 -9999 -9999 -9999 -9999 -9999 -9999 -9999 1 1 2 9 1 2 29 3 1 1 1 1 1 1 1 2 3 4 129 6 1 2 1 8 4 1 1 1 2 3 4 9 1365 4 11 4 1 1 2 3 89 5 1 1 1 1 158 10 2 1 1 1 3 6 9 1217 1 1 2 35 2 1 1 2 1 8 12 1174 6 5 3 1 3 4 8 72 35 4 3 2 1 1 1 1 1 -9999 -9999 -9999 -9999 -9999 -9999 -9999 -9999 -9999 -9999 -9999 -9999 -9999 -9999 -9999 -9999 -9999 -9999 -9999 -9999 -9999 -9999
 -9999 -9999 -9999 -9999 -9999 -9999 -9999 -9999 -9999 -9999 -9999 -9999 -9999 -9999 -9999 -9999 -9999 -9999 -9999 -9999 -9999 -9999 -9999 -9999 -9999 -9999 -9999 -9999 -9999 1 1 2 6 1 18 4 2 1 1 4 1 1 2 2 3 4 107 17 4 1 1 3 4 2 1 1 1 2 3 4 1348 7 3 2 4 3 1 2 83 5 3 1 1 2 3 154 7 2 1 1 2 1 2 1197 9 1 1 20 12 4 1 1 3 7 8 3 1167 5 4 2 1 2 3 4 3 36 30 2 1 2 2 1 1 1 -9999 -9999 -9999 -9999 -9999 -9999 -9999 -9999 -9999 -9999 -9999 -9999 -9999 -9999 -9999 -9999 -9999 -9999 -9999 -9999 -9999 -9999
 -9999 -9999 -9999 -9999 -9999 -9999 -9999 -9999 -9999 -9999 -9999 -9999 -9999 -9999 -9999 -9999 -9999 -9999 -9999 -9999 -9999 -9999 -9999 -9999 -9999 -9999 -9999 -9999 -9999 1 1 1 4 17 1 1 1 1 2 6 1 1 2 3 4 102 12 4 2 1 2 1 2 1 1 1 2 1 2 1339 8 6 2 1 3 2 1 4 78 4 1 1 1 2 3 150 3 1 1 1 2 5 6 1188 7 1 14 5 6 1 2 1 3 4 3 2 1161 2 1 1 1 1 2 3 2 4 31 27 6 3 2 2 1 1 -9999 -9999 -9999 -9999 -9999 -9999 -9999 -9999 -9999 -9999 -9999 -9999 -9999 -9999 -9999 -9999 -9999 -9999 -9999 -9999 -9999 -9999
 -9999 -9999 -9999 -9999 -9999 -9999 -9999 -9999 -9999 -9999 -9999 -9999 -9999 -9999 -9999 -9999 -9999 -9999 -9999 -9999 -9999 -9999 -9999 -9999 -9999 -9999 -9999 -9999 -9999 -9999 1 1 2 16 1 1 1 1 2 9 1 2 2 87 97 7 4 2 1 1 1 1 1 1 1 2 4 1 1331 5 7 3 2 1 2 1 3 2 75 2 1 1 2 3 148 1 1 1 1 2 4 5 1180 7 1 5 13 4 4 1 1 2 3 2 1 3 1158 5 4 3 2 1 1 2 1 3 2 28 20 6 3 2 1 1 -9999 -9999 -9999 -9999 -9999 -9999 -9999 -9999 -9999 -9999 -9999 -9999 -9999 -9999 -9999 -9999 -9999 -9999 -9999 -9999 -9999 -9999
 -9999 -9999 -9999 -9999 -9999 -9999 -9999 -9999 -9999 -9999 -9999 -9999 -9999 -9999 -9999 -9999 -9999 -9999 -9999 -9999 -9999 -9999 -9999 -9999 -9999 -9999 -9999 -9999 -9999 -9999 1 1 14 1 2 5 7 2 4 3 11 12 82 4 5 6 2 1 1 1 1 1 1 2 2 2 7 1325 4 4 3 3 2 1 1 2 1 64 9 1 1 1 2 3 144 2 1 1 1 3 4 9 1165 5 1 4 12 3 2 1 1 2 1 1 2 6 1149 14 3 2 1 1 1 1 1 1 1 2 25 13 5 2 1 1 -9999 -9999 -9999 -9999 -9999 -9999 -9999 -9999 -9999 -9999 -9999 -9999 -9999 -9999 -9999 -9999 -9999 -9999 -9999 -9999 -9999 -9999
 -9999 -9999 -9999 -9999 -9999 -9999 -9999 -9999 -9999 -9999 -9999 -9999 -9999 -9999 -9999 -9999 -9999 -9999 -9999 -9999 -9999 -9999 -9999 -9999 -9999 -9999 -9999 -9999 -9999 -9999 1 4 13 1 1 2 6 16 20 28 57 62 5 3 4 4 1 1 1 1 2 2 2 2 5 10 1312 5 4 3 3 2 2 1 1 1 2 61 7 1 1 2 3 4 138 3 1 1 2 3 4 1147 17 1 3 3 8 3 2 1 1 2 3 4 5 1 1127 10 8 3 2 2 1 1 1 1 1 1 4 19 7 3 1 1 -9999 -9999 -9999 -9999 -9999 -9999 -9999 -9999 -9999 -9999 -9999 -9999 -9999 -9999 -9999 -9999 -9999 -9999 -9999 -9999 -9999 -9999
 -9999 -9999 -9999 -9999 -9999 -9999 -9999 -9999 -9999 -9999 -9999 -9999 -9999 -9999 -9999 -9999 -9999 -9999 -9999 -9999 -9999 -9999 -9999 -9999 -9999 -9999 -9999 -9999 -9999 -9999 1 3 7 1 1 3 2 3 3 17 8 4 4 2 3 2 1 1 1 2 2 3 3 6 7 1284 17 7 3 3 2 2 1 1 1 2 3 57 5 1 1 2 3 4 124 2 1 1 3 4 1145 1 8 8 2 2 4 3 2 1 1 1 2 3 4 1124 1 1 1 4 3 2 2 2 2 1 1 1 2 4 14 3 1 1 -9999 -9999 -9999 -9999 -9999 -9999 -9999 -9999 -9999 -9999 -9999 -9999 -9999 -9999 -9999 -9999 -9999 -9999 -9999 -9999 -9999 -9999
 -9999 -9999 -9999 -9999 -9999 -9999 -9999 -9999 -9999 -9999 -9999 -9999 -9999 -9999 -9999 -9999 -9999 -9999 -9999 -9999 -9999 -9999 -9999 -9999 -9999 -9999 -9999 -9999 -9999 -9999 1 2 3 3 2 1 2 2 4 12 7 3 3 1 2 1 1 1 2 2 3 3 7 8 1273 3 6 3 3 2 2 1 1 1 1 2 53 3 3 1 1 2 3 119 3 1 1 1 2 3 1140 9 8 7 7 1 1 3 2 1 1 2 3 4 5 1119 16 15 14 13 12 9 6 3 2 2 1 1 1 2 4 9 1 1 -9999 -9999 -9999 -9999 -9999 -9999 -9999 -9999 -9999 -9999 -9999 -9999 -9999 -9999 -9999 -9999 -9999 -9999 -9999 -9999 -9999 -9999
 -9999 -9999 -9999 -9999 -9999 -9999 -9999 -9999 -9999 -9999 -9999 -9999 -9999 -9999 -9999 -9999 -9999 -9999 -9999 -9999 -9999 -9999 -9999 -9999 -9999 -9999 -9999 -9999 -9999 -9999 1 1 2 2 1 1 1 3 5 6 6 2 2 1 2 3 4 2 2 3 3 4 5 6 1258 2 2 3 2 2 1 1 1 2 4 9 41 2 2 1 2 3 4 111 1 1 1 2 3 4 1127 2 1 7 6 6 4 2 2 1 1 2 3 4 5 1092 48 47 46 45 14 13 12 11 8 5 3 2 1 1 2 6 2 1 -9999 -9999 -9999 -9999 -9999 -9999 -9999 -9999 -9999 -9999 -9999 -9999 -9999 -9999 -9999 -9999 -9999 -9999 -9999 -9999 -9999 -9999
 -9999 -9999 -9999 -9999 -9999 -9999 -9999 -9999 -9999 -9999 -9999 -9999 -9999 -9999 -9999 -9999 -9999 -9999 -9999 -9999 -9999 -9999 -9999 -9999 -9999 -9999 -9999 -9999 -9999 -9999 1 1 1 1 2 1 2 3 1 5 5 1 1 1 1 2 3 8 11 14 18 22 23 1249 8 7 1 1 2 1 1 1 2 3 4 39 1 1 1 1 2 3 4 103 3 1 1 2 3 1088 32 25 23 17 6 5 1 1 1 1 1 2 3 4 5 1031 7 6 5 4 30 25 24 20 14 3 2 1 1 1 2 3 1 1 -9999 -9999 -9999 -9999 -9999 -9999 -9999 -9999 -9999 -9999 -9999 -9999 -9999 -9999 -9999 -9999 -9999 -9999 -9999 -9999 -9999 -9999
 -9999 -9999 -9999 -9999 -9999 -9999 -9999 -9999 -9999 -9999 -9999 -9999 -9999 -9999 -9999 -9999 -9999 -9999 -9999 -9999 -9999 -9999 -9999 -9999 -9999 -9999 -9999 -9999 -9999 -9999 1 1 1 2 3 3 1 1 1 3 3 1 1 1 1 2 3 5 7 9 11 12 13 1225 14 7 6 4 1 1 1 2 3 4 34 3 1 1 1 1 1 2 98 3 1 1 1 1 2 1084 6 2 1 5 16 5 4 3 1 1 1 1 2 3 8 117 905 4 3 2 3 4 3 3 5 10 6 3 1 1 2 3 1 1 -9999 -9999 -9999 -9999 -9999 -9999 -9999 -9999 -9999 -9999 -9999 -9999 -9999 -9999 -9999 -9999 -9999 -9999 -9999 -9999 -9999 -9999
 -9999 -9999 -9999 -9999 -9999 -9999 -9999 -9999 -9999 -9999 -9999 -9999 -9999 -9999 -9999 -9999 -9999 -9999 -9999 -9999 -9999 -9999 -9999 -9999 -9999 -9999 -9999 -9999 -9999 -9999 -9999 1 1 2 3 10 1 1 1 1 2 1 2 4 2 1 1 1 1 1 1 2 3 1194 6 6 6 1 2 1 1 2 3 4 25 1 1 1 2 2 4 91 4 1 1 1 1 2 1 1081 2 3 1 2 2 15 4 2 1 1 2 2 3 4 8 108 900 4 3 2 1 2 1 2 2 4 3 2 1 1 2 3 -9999 -9999 -9999 -9999 -9999 -9999 -9999 -9999 -9999 -9999 -9999 -9999 -9999 -9999 -9999 -9999 -9999 -9999 -9999 -9999 -9999 -9999 -9999 -9999
 -9999 -9999 -9999 -9999 -9999 -9999 -9999 -9999 -9999 -9999 -9999 -9999 -9999 -9999 -9999 -9999 -9999 -9999 -9999 -9999 -9999 -9999 -9999 -9999 -9999 -9999 -9999 -9999 -9999 -9999 -9999 1 1 1 1 2 13 1 1 1 1 1 3 4 5 3 2 1 1 1 1 2 1180 3 4 5 5 5 2 1 1 2 5 21 2 1 1 1 2 5 82 4 2 1 1 2 4 4 1072 5 3 1 2 1 1 7 7 1 1 1 2 5 6 7 107 5 895 3 2 1 1 3 2 1 1 1 3 2 1 1 2 3 -9999 -9999 -9999 -9999 -9999 -9999 -9999 -9999 -9999 -9999 -9999 -9999 -9999 -9999 -9999 -9999 -9999 -9999 -9999 -9999 -9999 -9999 -9999 -9999
 -9999 -9999 -9999 -9999 -9999 -9999 -9999 -9999 -9999 -9999 -9999 -9999 -9999 -9999 -9999 -9999 -9999 -9999 -9999 -9999 -9999 -9999 -9999 -9999 -9999 -9999 -9999 -9999 -9999 -9999 -9999 -9999 -9999 1 1 2 19 2 2 1 1 1 1 1 5 6 6 1 2 2 2 3 1174 3 2 3 4 4 2 1 1 2 3 12 1 1 1 2 4 8 68 2 1 1 1 2 3 1060 7 5 1 2 1 1 1 5 5 1 1 1 3 4 9 106 4 2 875 9 8 7 6 2 1 1 1 1 1 2 1 1 2 3 -9999 -9999 -9999 -9999 -9999 -9999 -9999 -9999 -9999 -9999 -9999 -9999 -9999 -9999 -9999 -9999 -9999 -9999 -9999 -9999 -9999 -9999 -9999 -9999
 -9999 -9999 -9999 -9999 -9999 -9999 -9999 -9999 -9999 -9999 -9999 -9999 -9999 -9999 -9999 -9999 -9999 -9999 -9999 -9999 -9999 -9999 -9999 -9999 -9999 -9999 -9999 -9999 -9999 -9999 -9999 -9999 -9999 1 1 2 4 22 4 2 1 1 1 2 2 6 7 7 2 5 8 1159 11 3 2 1 2 3 3 1 1 2 1 10 1 2 2 2 3 2 63 2 1 1 1 2 3 1048 1 1 4 3 2 1 1 3 3 1 1 2 3 4 96 3 1 1 873 2 1 1 4 3 2 2 2 5 3 2 1 1 2 11 1 1 -9999 -9999 -9999 -9999 -9999 -9999 -9999 -9999 -9999 -9999 -9999 -9999 -9999 -9999 -9999 -9999 -9999 -9999 -9999 -9999 -9999 -9999
 -9999 -9999 -9999 -9999 -9999 -9999 -9999 -9999 -9999 -9999 -9999 -9999 -9999 -9999 -9999 -9999 -9999 -9999 -9999 -9999 -9999 -9999 -9999 -9999 -9999 -9999 -9999 -9999 -9999 -9999 -9999 -9999 -9999 1 1 1 1 5 27 3 2 1 2 2 3 6 13 119 128 129 130 1020 4 3 2 1 1 2 2 2 4 5 9 8 9 10 3 3 1 59 2 1 1 1 2 3 4 1036 7 6 5 4 3 2 1 1 2 1 1 2 3 95 2 1 2 3 870 8 7 5 1 16 15 12 9 3 2 1 1 1 1 8 1 1 -9999 -9999 -9999 -9999 -9999 -9999 -9999 -9999 -9999 -9999 -9999 -9999 -9999 -9999 -9999 -9999 -9999 -9999 -9999 -9999 -9999 -9999
 -9999 -9999 -9999 -9999 -9999 -9999 -9999 -9999 -9999 -9999 -9999 -9999 -9999 -9999 -9999 -9999 -9999 -9999 -9999 -9999 -9999 -9999 -9999 -9999 -9999 -9999 -9999 -9999 -9999 -9999 -9999 -9999 -9999 -9999 1 1 1 2 8 31 3 2 1 4 7 92 98 1 1 2 1013 3 3 3 2 1 1 1 1 1 2 3 7 21 22 23 34 41 57 1 1 1 1 1 2 3 992 43 23 22 13 3 2 1 1 1 1 2 4 6 91 1 5 6 7 11 516 331 3 2 23 6 5 4 3 2 1 1 1 1 1 7 1 1 -9999 -9999 -9999 -9999 -9999 -9999 -9999 -9999 -9999 -9999 -9999 -9999 -9999 -9999 -9999 -9999 -9999 -9999 -9999 -9999 -9999 -9999
 -9999 -9999 -9999 -9999 -9999 -9999 -9999 -9999 -9999 -9999 -9999 -9999 -9999 -9999 -9999 -9999 -9999 -9999 -9999 -9999 -9999 -9999 -9999 -9999 -9999 -9999 -9999 -9999 -9999 -9999 -9999 -9999 -9999 -9999 1 1 2 2 3 43 75 79 80 82 84 3 2 1 2 3 1007 2 2 2 2 1 1 2 3 4 5 6 20 5 6 7 8 14 1 1 1 1 2 2 2 3 988 19 3 2 8 9 3 2 1 1 2 3 4 9 75 4 1 2 3 500 13 2 327 27 3 2 1 5 4 3 2 1 3 1 1 4 1 1 -9999 -9999 -9999 -9999 -9999 -9999 -9999 -9999 -9999 -9999 -9999 -9999 -9999 -9999 -9999 -9999 -9999 -9999 -9999 -9999 -9999 -9999
 -9999 -9999 -9999 -9999 -9999 -9999 -9999 -9999 -9999 -9999 -9999 -9999 -9999 -9999 -9999 -9999 -9999 -9999 -9999 -9999 -9999 -9999 -9999 -9999 -9999 -9999 -9999 -9999 -9999 -9999 -9999 -9999 -9999 -9999 -9999 1 1 4 5 26 2 1 1 1 1 1 1 1 2 1002 2 1 1 1 1 1 2 3 4 5 6 19 4 1 2 3 4 5 1 1 2 2 6 3 4 5 979 15 3 2 1 7 5 3 1 1 2 3 4 70 4 3 1 2 3 496 3 9 1 299 14 13 12 6 5 4 3 1 5 2 1 1 1 1 -9999 -9999 -9999 -9999 -9999 -9999 -9999 -9999 -9999 -9999 -9999 -9999 -9999 -9999 -9999 -9999 -9999 -9999 -9999 -9999 -9999 -9999
 -9999 -9999 -9999 -9999 -9999 -9999 -9999 -9999 -9999 -9999 -9999 -9999 -9999 -9999 -9999 -9999 -9999 -9999 -9999 -9999 -9999 -9999 -9999 -9999 -9999 -9999 -9999 -9999 -9999 -9999 -9999 -9999 -9999 -9999 -9999 1 1 3 11 8 1 1 1 1 1 1 1 1 1 999 2 1 1 1 1 1 1 3 5 7 12 3 3 1 2 3 11 12 13 2 2 3 4 11 12 13 965 11 7 3 1 3 3 1 1 1 2 3 67 2 3 2 1 2 491 4 2 3 5 5 279 43 42 41 40 39 37 1 8 2 1 1 1 1 -9999 -9999 -9999 -9999 -9999 -9999 -9999 -9999 -9999 -9999 -9999 -9999 -9999 -9999 -9999 -9999 -9999 -9999 -9999 -9999 -9999 -9999
 -9999 -9999 -9999 -9999 -9999 -9999 -9999 -9999 -9999 -9999 -9999 -9999 -9999 -9999 -9999 -9999 -9999 -9999 -9999 -9999 -9999 -9999 -9999 -9999 -9999 -9999 -9999 -9999 -9999 -9999 -9999 -9999 -9999 -9999 -9999 1 1 2 5 4 3 1 1 2 2 2 4 6 8 995 3 2 2 1 2 1 1 1 1 4 2 2 1 5 6 7 1 1 1 14 17 20 167 169 170 174 790 3 2 3 2 2 1 1 1 1 2 59 4 1 2 1 1 2 486 3 1 2 4 4 229 6 2 1 1 1 1 35 15 4 2 2 1 1 -9999 -9999 -9999 -9999 -9999 -9999 -9999 -9999 -9999 -9999 -9999 -9999 -9999 -9999 -9999 -9999 -9999 -9999 -9999 -9999 -9999 -9999
 -9999 -9999 -9999 -9999 -9999 -9999 -9999 -9999 -9999 -9999 -9999 -9999 -9999 -9999 -9999 -9999 -9999 -9999 -9999 -9999 -9999 -9999 -9999 -9999 -9999 -9999 -9999 -9999 -9999 -9999 -9999 -9999 -9999 -9999 -9999 1 1 1 3 3 2 2 4 6 9 69 73 76 77 983 11 10 7 5 2 1 1 2 3 1 1 1 2 3 4 5 1 2 2 2 3 146 1 2 3 781 6 2 1 1 2 1 1 1 1 2 3 53 2 1 1 1 2 3 485 1 1 1 3 3 2 226 3 2 4 2 1 2 17 12 6 3 1 1 -9999 -9999 -9999 -9999 -9999 -9999 -9999 -9999 -9999 -9999 -9999 -9999 -9999 -9999 -9999 -9999 -9999 -9999 -9999 -9999 -9999 -9999
 -9999 -9999 -9999 -9999 -9999 -9999 -9999 -9999 -9999 -9999 -9999 -9999 -9999 -9999 -9999 -9999 -9999 -9999 -9999 -9999 -9999 -9999 -9999 -9999 -9999 -9999 -9999 -9999 -9999 -9999 -9999 -9999 -9999 -9999 -9999 1 1 2 2 1 1 1 2 3 57 3 2 2 4 7 887 4 3 2 1 1 2 1 1 1 1 2 3 4 5 6 12 2 3 6 140 2 1 1 2 778 1 4 3 2 1 1 1 1 2 4 46 4 2 1 1 4 5 6 478 3 2 1 2 2 1 4 221 8 3 2 1 1 2 2 5 3 1 1 -9999 -9999 -9999 -9999 -9999 -9999 -9999 -9999 -9999 -9999 -9999 -9999 -9999 -9999 -9999 -9999 -9999 -9999 -9999 -9999 -9999 -9999
 -9999 -9999 -9999 -9999 -9999 -9999 -9999 -9999 -9999 -9999 -9999 -9999 -9999 -9999 -9999 -9999 -9999 -9999 -9999 -9999 -9999 -9999 -9999 -9999 -9999 -9999 -9999 -9999 -9999 -9999 -9999 -9999 -9999 -9999 -9999 1 1 1 1 1 1 1 2 53 2 1 1 1 1 2 882 3 2 1 1 2 3 1 2 2 4 22 25 28 29 30 31 44 47 129 4 1 1 2 3 770 4 3 2 1 1 1 1 3 5 36 5 2 1 1 2 2 3 4 467 4 3 2 1 1 2 1 209 3 2 1 1 1 1 1 1 1 1 1 -9999 -9999 -9999 -9999 -9999 -9999 -9999 -9999 -9999 -9999 -9999 -9999 -9999 -9999 -9999 -9999 -9999 -9999 -9999 -9999 -9999 -9999
 -9999 -9999 -9999 -9999 -9999 -9999 -9999 -9999 -9999 -9999 -9999 -9999 -9999 -9999 -9999 -9999 -9999 -9999 -9999 -9999 -9999 -9999 -9999 -9999 -9999 -9999 -9999 -9999 -9999 -9999 -9999 -9999 -9999 -9999 1 1 1 2 1 2 2 2 50 1 1 1 1 2 3 4 874 4 3 2 1 1 3 7 9 15 17 2 2 2 3 4 5 13 79 2 2 1 1 2 3 715 54 4 3 2 2 1 1 3 24 6 2 2 1 1 1 1 2 3 448 14 2 1 1 1 1 4 200 4 3 2 2 2 1 1 1 1 1 1 -9999 -9999 -9999 -9999 -9999 -9999 -9999 -9999 -9999 -9999 -9999 -9999 -9999 -9999 -9999 -9999 -9999 -9999 -9999 -9999 -9999 -9999
 -9999 -9999 -9999 -9999 -9999 -9999 -9999 -9999 -9999 -9999 -9999 -9999 -9999 -9999 -9999 -9999 -9999 -9999 -9999 -9999 -9999 -9999 -9999 -9999 -9999 -9999 -9999 -9999 -9999 -9999 -9999 -9999 -9999 -9999 1 1 2 6 1 3 45 47 1 1 1 2 2 3 25 49 818 2 1 2 2 1 1 2 3 1 1 1 1 1 2 3 7 60 5 1 1 1 2 3 8 703 6 43 41 6 3 1 1 5 15 3 2 1 1 1 1 1 2 3 441 11 2 1 1 1 2 2 130 67 55 54 7 4 2 10 8 4 1 1 -9999 -9999 -9999 -9999 -9999 -9999 -9999 -9999 -9999 -9999 -9999 -9999 -9999 -9999 -9999 -9999 -9999 -9999 -9999 -9999 -9999 -9999
 -9999 -9999 -9999 -9999 -9999 -9999 -9999 -9999 -9999 -9999 -9999 -9999 -9999 -9999 -9999 -9999 -9999 -9999 -9999 -9999 -9999 -9999 -9999 -9999 -9999 -9999 -9999 -9999 -9999 -9999 -9999 -9999 -9999 1 1 1 1 1 7 37 1 1 1 2 2 4 7 21 23 3 810 4 3 3 2 1 1 1 2 1 1 1 1 1 2 3 48 11 3 1 1 2 3 4 699 3 3 2 1 34 3 2 1 3 12 2 2 1 1 2 4 6 7 8 432 4 4 2 1 1 1 125 4 6 5 3 44 27 23 10 8 2 1 1 -9999 -9999 -9999 -9999 -9999 -9999 -9999 -9999 -9999 -9999 -9999 -9999 -9999 -9999 -9999 -9999 -9999 -9999 -9999 -9999 -9999 -9999
 -9999 -9999 -9999 -9999 -9999 -9999 -9999 -9999 -9999 -9999 -9999 -9999 -9999 -9999 -9999 -9999 -9999 -9999 -9999 -9999 -9999 -9999 -9999 -9999 -9999 -9999 -9999 -9999 -9999 -9999 -9999 1 1 1 1 2 5 28 29 2 3 4 6 8 11 12 13 22 2 2 381 426 12 8 5 3 1 1 2 6 2 1 24 26 27 47 8 2 1 1 1 2 3 4 694 1 1 2 1 28 2 1 1 2 7 4 1 1 2 5 8 9 10 11 420 3 2 1 1 2 124 1 2 4 1 1 2 16 3 2 1 7 1 1 -9999 -9999 -9999 -9999 -9999 -9999 -9999 -9999 -9999 -9999 -9999 -9999 -9999 -9999 -9999 -9999 -9999 -9999 -9999 -9999 -9999 -9999
 -9999 -9999 -9999 -9999 -9999 -9999 -9999 -9999 -9999 -9999 -9999 -9999 -9999 -9999 -9999 -9999 -9999 -9999 -9999 -9999 -9999 -9999 -9999 -9999 -9999 -9999 -9999 -9999 -9999 -9999 -9999 1 1 1 2 9 19 2 1 2 4 6 7 8 16 20 21 1 1 378 2 4 409 3 2 1 1 1 2 5 15 21 1 3 5 14 6 1 1 1 2 3 4 5 688 3 2 1 1 25 2 1 1 1 3 3 3 1 2 2 2 3 4 5 419 2 1 1 1 2 120 2 1 1 3 2 1 12 3 2 1 3 3 1 -9999 -9999 -9999 -9999 -9999 -9999 -9999 -9999 -9999 -9999 -9999 -9999 -9999 -9999 -9999 -9999 -9999 -9999 -9999 -9999 -9999 -9999
 -9999 -9999 -9999 -9999 -9999 -9999 -9999 -9999 -9999 -9999 -9999 -9999 -9999 -9999 -9999 -9999 -9999 -9999 -9999 -9999 -9999 -9999 -9999 -9999 -9999 -9999 -9999 -9999 -9999 -9999 -9999 1 1 3 6 7 2 1 1 1 1 1 2 7 3 2 3 4 377 1 1 2 401 4 3 2 1 1 1 1 3 3 1 1 3 10 4 1 1 1 2 3 4 5 679 4 3 2 1 1 23 4 2 1 2 2 2 1 1 1 4 5 6 7 404 3 2 1 1 3 112 93 13 3 2 1 1 8 3 2 1 2 2 1 -9999 -9999 -9999 -9999 -9999 -9999 -9999 -9999 -9999 -9999 -9999 -9999 -9999 -9999 -9999 -9999 -9999 -9999 -9999 -9999 -9999 -9999
 -9999 -9999 -9999 -9999 -9999 -9999 -9999 -9999 -9999 -9999 -9999 -9999 -9999 -9999 -9999 -9999 -9999 -9999 -9999 -9999 -9999 -9999 -9999 -9999 -9999 -9999 -9999 -9999 -9999 -9999 -9999 1 1 2 4 2 1 1 1 1 1 2 4 2 1 1 2 370 2 1 1 2 1 397 1 2 2 1 1 1 1 2 1 2 8 1 3 1 2 2 3 4 5 6 668 9 5 2 1 1 17 4 3 2 1 1 1 1 2 3 1 2 3 4 388 8 7 1 1 7 6 5 79 9 3 2 1 2 5 2 1 1 1 16 -9999 -9999 -9999 -9999 -9999 -9999 -9999 -9999 -9999 -9999 -9999 -9999 -9999 -9999 -9999 -9999 -9999 -9999 -9999 -9999 -9999 -9999
 -9999 -9999 -9999 -9999 -9999 -9999 -9999 -9999 -9999 -9999 -9999 -9999 -9999 -9999 -9999 -9999 -9999 -9999 -9999 -9999 -9999 -9999 -9999 -9999 -9999 -9999 -9999 -9999 -9999 -9999 -9999 1 1 2 1 1 1 1 2 2 2 1 1 1 1 1 2 362 3 1 1 1 2 389 6 3 2 3 1 1 1 1 2 3 4 2 1 2 3 6 7 8 9 656 2 1 3 2 1 1 7 4 2 1 1 1 1 2 9 46 1 1 2 3 382 2 1 5 3 2 4 1 4 78 5 4 2 1 3 1 1 2 15 1 -9999 -9999 -9999 -9999 -9999 -9999 -9999 -9999 -9999 -9999 -9999 -9999 -9999 -9999 -9999 -9999 -9999 -9999 -9999 -9999 -9999 -9999
 -9999 -9999 -9999 -9999 -9999 -9999 -9999 -9999 -9999 -9999 -9999 -9999 -9999 -9999 -9999 -9999 -9999 -9999 -9999 -9999 -9999 -9999 -9999 -9999 -9999 -9999 -9999 -9999 -9999 -9999 -9999 1 1 1 1 1 1 2 2 3 5 1 1 1 2 4 358 2 1 1 1 1 2 17 367 10 7 3 2 1 1 1 2 3 1 10 12 13 17 21 22 23 24 615 7 2 1 2 1 2 3 1 1 1 1 1 4 6 36 1 48 50 51 351 30 6 5 4 2 1 2 1 3 75 2 1 1 1 1 1 1 1 11 1 1 -9999 -9999 -9999 -9999 -9999 -9999 -9999 -9999 -9999 -9999 -9999 -9999 -9999 -9999 -9999 -9999 -9999 -9999 -9999 -9999 -9999
 -9999 -9999 -9999 -9999 -9999 -9999 -9999 -9999 -9999 -9999 -9999 -9999 -9999 -9999 -9999 -9999 -9999 -9999 -9999 -9999 -9999 -9999 -9999 -9999 -9999 -9999 -9999 -9999 -9999 -9999 -9999 1 1 2 3 2 1 2 3 3 9 2 1 2 2 295 57 1 1 1 1 2 3 13 120 236 4 3 2 1 2 1 1 5 9 1 2 3 3 7 13 14 15 594 5 4 3 2 1 1 1 1 2 2 1 1 1 35 1 2 3 4 5 294 23 2 1 4 3 1 1 2 2 69 3 2 1 1 2 1 7 9 1 1 -9999 -9999 -9999 -9999 -9999 -9999 -9999 -9999 -9999 -9999 -9999 -9999 -9999 -9999 -9999 -9999 -9999 -9999 -9999 -9999 -9999 -9999
 -9999 -9999 -9999 -9999 -9999 -9999 -9999 -9999 -9999 -9999 -9999 -9999 -9999 -9999 -9999 -9999 -9999 -9999 -9999 -9999 -9999 -9999 -9999 -9999 -9999 -9999 -9999 -9999 -9999 -9999 -9999 1 1 2 6 1 3 2 3 4 13 1 4 287 292 46 9 1 1 3 7 11 12 41 78 17 214 210 7 5 2 1 1 2 3 1 1 2 6 5 21 27 28 564 1 4 3 2 1 1 1 1 8 3 1 32 34 1 3 5 8 12 15 278 20 4 3 2 3 2 1 1 2 63 3 2 1 1 2 5 1 1 1 1 -9999 -9999 -9999 -9999 -9999 -9999 -9999 -9999 -9999 -9999 -9999 -9999 -9999 -9999 -9999 -9999 -9999 -9999 -9999 -9999 -9999 -9999
 -9999 -9999 -9999 -9999 -9999 -9999 -9999 -9999 -9999 -9999 -9999 -9999 -9999 -9999 -9999 -9999 -9999 -9999 -9999 -9999 -9999 -9999 -9999 -9999 -9999 -9999 -9999 -9999 -9999 -9999 -9999 1 1 2 6 13 15 4 3 4 272 277 280 4 37 8 7 1 1 2 2 6 19 21 77 12 4 3 202 199 5 1 1 1 2 1 3 5 4 20 5 3 5 8 555 3 2 1 2 1 2 17 5 3 1 31 1 1 1 2 3 2 1 276 7 8 5 2 1 2 1 1 1 58 3 2 1 1 1 1 1 1 -9999 -9999 -9999 -9999 -9999 -9999 -9999 -9999 -9999 -9999 -9999 -9999 -9999 -9999 -9999 -9999 -9999 -9999 -9999 -9999 -9999 -9999 -9999 -9999
 -9999 -9999 -9999 -9999 -9999 -9999 -9999 -9999 -9999 -9999 -9999 -9999 -9999 -9999 -9999 -9999 -9999 -9999 -9999 -9999 -9999 -9999 -9999 -9999 -9999 -9999 -9999 -9999 -9999 -9999 -9999 1 2 1 1 2 1 17 25 250 1 2 2 3 36 7 3 3 1 1 5 9 3 20 76 4 7 3 2 2 193 2 1 1 1 1 1 3 19 4 2 1 1 2 549 2 1 1 26 22 19 1 2 1 1 1 29 1 1 2 1 1 2 273 5 1 2 2 1 1 1 2 3 49 5 4 3 1 1 -9999 -9999 -9999 -9999 -9999 -9999 -9999 -9999 -9999 -9999 -9999 -9999 -9999 -9999 -9999 -9999 -9999 -9999 -9999 -9999 -9999 -9999 -9999 -9999 -9999 -9999 -9999
 -9999 -9999 -9999 -9999 -9999 -9999 -9999 -9999 -9999 -9999 -9999 -9999 -9999 -9999 -9999 -9999 -9999 -9999 -9999 -9999 -9999 -9999 -9999 -9999 -9999 -9999 -9999 -9999 -9999 -9999 -9999 1 3 1 1 1 3 4 219 5 2 1 1 2 35 6 2 2 1 4 8 2 3 16 66 9 3 6 2 1 1 192 5 3 1 1 2 18 3 1 1 2 3 4 547 1 1 28 17 14 6 2 1 1 1 19 8 1 1 2 3 4 5 267 3 4 2 1 1 1 2 3 4 41 3 2 1 1 1 -9999 -9999 -9999 -9999 -9999 -9999 -9999 -9999 -9999 -9999 -9999 -9999 -9999 -9999 -9999 -9999 -9999 -9999 -9999 -9999 -9999 -9999 -9999 -9999 -9999 -9999 -9999
 -9999 -9999 -9999 -9999 -9999 -9999 -9999 -9999 -9999 -9999 -9999 -9999 -9999 -9999 -9999 -9999 -9999 -9999 -9999 -9999 -9999 -9999 -9999 -9999 -9999 -9999 -9999 -9999 -9999 -9999 -9999 1 1 4 2 2 4 28 175 11 2 1 1 2 32 5 1 1 2 7 1 2 9 6 63 2 8 2 5 1 1 184 2 1 1 1 17 2 1 3 4 5 15 17 18 524 49 19 1 2 7 3 1 1 6 17 6 1 1 1 1 1 2 261 2 2 1 1 1 1 2 3 1 40 1 1 1 1 -9999 -9999 -9999 -9999 -9999 -9999 -9999 -9999 -9999 -9999 -9999 -9999 -9999 -9999 -9999 -9999 -9999 -9999 -9999 -9999 -9999 -9999 -9999 -9999 -9999 -9999 -9999 -9999
 -9999 -9999 -9999 -9999 -9999 -9999 -9999 -9999 -9999 -9999 -9999 -9999 -9999 -9999 -9999 -9999 -9999 -9999 -9999 -9999 -9999 -9999 -9999 -9999 -9999 -9999 -9999 -9999 -9999 -9999 -9999 1 1 2 9 19 21 2 4 170 10 1 1 2 29 3 1 1 2 4 1 3 5 5 62 1 2 5 1 4 4 177 3 1 1 6 9 1 1 2 5 9 1 1 4 126 348 7 3 2 1 6 1 4 2 8 3 1 1 1 3 5 255 2 1 1 1 1 2 1 1 3 7 28 2 1 1 -9999 -9999 -9999 -9999 -9999 -9999 -9999 -9999 -9999 -9999 -9999 -9999 -9999 -9999 -9999 -9999 -9999 -9999 -9999 -9999 -9999 -9999 -9999 -9999 -9999 -9999 -9999 -9999 -9999
 -9999 -9999 -9999 -9999 -9999 -9999 -9999 -9999 -9999 -9999 -9999 -9999 -9999 -9999 -9999 -9999 -9999 -9999 -9999 -9999 -9999 -9999 -9999 -9999 -9999 -9999 -9999 -9999 -9999 -9999 -9999 1 1 2 7 2 1 1 3 164 5 9 1 15 10 3 2 1 1 2 2 4 2 2 59 2 1 2 2 3 3 172 1 1 1 3 8 1 1 2 3 1 1 2 121 12 327 1 3 2 1 2 3 3 1 7 1 1 1 2 3 4 244 1 1 1 1 4 2 1 1 1 3 26 1 1 -9999 -9999 -9999 -9999 -9999 -9999 -9999 -9999 -9999 -9999 -9999 -9999 -9999 -9999 -9999 -9999 -9999 -9999 -9999 -9999 -9999 -9999 -9999 -9999 -9999 -9999 -9999 -9999 -9999 -9999
 -9999 -9999 -9999 -9999 -9999 -9999 -9999 -9999 -9999 -9999 -9999 -9999 -9999 -9999 -9999 -9999 -9999 -9999 -9999 -9999 -9999 -9999 -9999 -9999 -9999 -9999 -9999 -9999 -9999 -9999 -9999 -9999 -9999 1 5 1 1 2 160 3 4 8 10 4 3 6 2 1 1 1 3 1 1 4 53 1 1 1 1 2 2 171 2 1 1 1 5 1 1 2 1 2 4 120 3 8 321 5 4 2 1 1 2 1 1 6 3 1 1 2 3 4 242 1 2 2 5 3 2 1 1 1 2 19 1 1 -9999 -9999 -9999 -9999 -9999 -9999 -9999 -9999 -9999 -9999 -9999 -9999 -9999 -9999 -9999 -9999 -9999 -9999 -9999 -9999 -9999 -9999 -9999 -9999 -9999 -9999 -9999 -9999 -9999 -9999
 -9999 -9999 -9999 -9999 -9999 -9999 -9999 -9999 -9999 -9999 -9999 -9999 -9999 -9999 -9999 -9999 -9999 -9999 -9999 -9999 -9999 -9999 -9999 -9999 -9999 -9999 -9999 -9999 -9999 -9999 -9999 -9999 -9999 1 3 1 1 148 11 2 3 7 9 3 2 3 2 1 1 2 1 2 3 1 1 50 1 1 1 1 141 168 18 1 1 1 1 2 1 2 3 4 8 107 2 7 320 2 1 1 1 1 1 2 5 2 1 4 2 2 3 4 27 210 102 13 7 3 5 3 1 1 2 13 3 1 -9999 -9999 -9999 -9999 -9999 -9999 -9999 -9999 -9999 -9999 -9999 -9999 -9999 -9999 -9999 -9999 -9999 -9999 -9999 -9999 -9999 -9999 -9999 -9999 -9999 -9999 -9999 -9999 -9999 -9999
 -9999 -9999 -9999 -9999 -9999 -9999 -9999 -9999 -9999 -9999 -9999 -9999 -9999 -9999 -9999 -9999 -9999 -9999 -9999 -9999 -9999 -9999 -9999 -9999 -9999 -9999 -9999 -9999 -9999 -9999 -9999 -9999 -9999 1 1 1 1 146 10 1 2 6 8 2 1 2 1 1 2 3 24 29 32 36 39 47 1 2 120 140 1 2 5 16 6 5 2 1 1 1 2 3 103 3 1 6 315 2 1 1 1 1 1 1 2 1 1 3 8 11 12 22 98 3 6 84 54 41 20 16 5 1 9 3 2 1 -9999 -9999 -9999 -9999 -9999 -9999 -9999 -9999 -9999 -9999 -9999 -9999 -9999 -9999 -9999 -9999 -9999 -9999 -9999 -9999 -9999 -9999 -9999 -9999 -9999 -9999 -9999 -9999 -9999 -9999
 -9999 -9999 -9999 -9999 -9999 -9999 -9999 -9999 -9999 -9999 -9999 -9999 -9999 -9999 -9999 -9999 -9999 -9999 -9999 -9999 -9999 -9999 -9999 -9999 -9999 -9999 -9999 -9999 -9999 -9999 -9999 -9999 -9999 1 1 2 132 13 5 4 1 5 5 2 1 1 1 2 3 20 4 2 3 2 2 3 2 111 6 4 15 1 3 1 8 2 2 1 1 1 2 3 99 2 1 4 7 307 4 2 1 3 2 3 2 1 1 2 3 4 9 94 3 2 5 12 17 12 15 3 10 4 8 2 1 1 -9999 -9999 -9999 -9999 -9999 -9999 -9999 -9999 -9999 -9999 -9999 -9999 -9999 -9999 -9999 -9999 -9999 -9999 -9999 -9999 -9999 -9999 -9999 -9999 -9999 -9999 -9999 -9999 -9999 -9999
 -9999 -9999 -9999 -9999 -9999 -9999 -9999 -9999 -9999 -9999 -9999 -9999 -9999 -9999 -9999 -9999 -9999 -9999 -9999 -9999 -9999 -9999 -9999 -9999 -9999 -9999 -9999 -9999 -9999 -9999 -9999 1 1 2 1 2 127 4 8 4 3 4 2 2 1 1 2 3 16 3 1 2 1 1 1 1 1 110 5 2 1 14 1 1 3 2 1 1 1 3 4 95 3 1 1 2 6 1 301 2 4 9 6 2 1 1 1 2 3 4 86 7 2 1 4 11 8 8 11 14 2 9 3 7 1 1 -9999 -9999 -9999 -9999 -9999 -9999 -9999 -9999 -9999 -9999 -9999 -9999 -9999 -9999 -9999 -9999 -9999 -9999 -9999 -9999 -9999 -9999 -9999 -9999 -9999 -9999 -9999 -9999 -9999 -9999
 -9999 -9999 -9999 -9999 -9999 -9999 -9999 -9999 -9999 -9999 -9999 -9999 -9999 -9999 -9999 -9999 -9999 -9999 -9999 -9999 -9999 -9999 -9999 -9999 -9999 -9999 -9999 -9999 -9999 -9999 -9999 1 1 2 5 112 13 1 3 7 3 2 3 1 1 1 2 6 12 2 1 1 2 3 4 5 32 35 42 4 1 2 11 5 2 2 1 1 4 7 8 90 2 1 1 2 3 1 298 5 10 5 4 3 1 1 2 3 4 5 80 4 2 1 3 10 1 6 7 10 13 1 8 2 6 1 -9999 -9999 -9999 -9999 -9999 -9999 -9999 -9999 -9999 -9999 -9999 -9999 -9999 -9999 -9999 -9999 -9999 -9999 -9999 -9999 -9999 -9999 -9999 -9999 -9999 -9999 -9999 -9999 -9999 -9999
 -9999 -9999 -9999 -9999 -9999 -9999 -9999 -9999 -9999 -9999 -9999 -9999 -9999 -9999 -9999 -9999 -9999 -9999 -9999 -9999 -9999 -9999 -9999 -9999 -9999 -9999 -9999 -9999 -9999 -9999 -9999 1 1 2 2 104 9 3 2 3 3 2 1 2 1 1 3 2 3 1 1 1 1 2 23 26 27 3 4 41 3 1 3 2 2 1 1 2 2 2 3 75 6 1 1 2 2 5 6 285 10 4 3 2 1 1 3 6 10 46 21 12 3 1 2 4 5 5 6 9 11 1 7 1 5 1 -9999 -9999 -9999 -9999 -9999 -9999 -9999 -9999 -9999 -9999 -9999 -9999 -9999 -9999 -9999 -9999 -9999 -9999 -9999 -9999 -9999 -9999 -9999 -9999 -9999 -9999 -9999 -9999 -9999 -9999
 -9999 -9999 -9999 -9999 -9999 -9999 -9999 -9999 -9999 -9999 -9999 -9999 -9999 -9999 -9999 -9999 -9999 -9999 -9999 -9999 -9999 -9999 -9999 -9999 -9999 -9999 -9999 -9999 -9999 -9999 -9999 4 1 1 2 101 6 2 2 1 2 2 1 1 1 1 1 2 2 3 4 6 8 20 2 2 24 2 3 9 31 2 1 2 1 1 1 1 1 1 3 68 3 1 1 1 2 2 5 264 6 5 4 2 1 1 2 3 5 30 2 18 11 2 1 3 4 4 5 8 8 2 5 1 4 1 -9999 -9999 -9999 -9999 -9999 -9999 -9999 -9999 -9999 -9999 -9999 -9999 -9999 -9999 -9999 -9999 -9999 -9999 -9999 -9999 -9999 -9999 -9999 -9999 -9999 -9999 -9999 -9999 -9999 -9999
 -9999 -9999 -9999 -9999 -9999 -9999 -9999 -9999 -9999 -9999 -9999 -9999 -9999 -9999 -9999 -9999 -9999 -9999 -9999 -9999 -9999 -9999 -9999 -9999 -9999 -9999 -9999 -9999 -9999 -9999 -9999 1 3 1 1 100 3 2 1 1 1 1 1 1 3 1 1 1 2 4 7 10 11 1 1 21 2 1 2 8 23 7 3 2 1 1 1 1 1 1 5 62 1 1 1 1 1 2 87 159 6 5 1 1 1 1 2 4 15 9 5 1 17 10 1 2 3 3 4 7 4 3 1 4 3 1 -9999 -9999 -9999 -9999 -9999 -9999 -9999 -9999 -9999 -9999 -9999 -9999 -9999 -9999 -9999 -9999 -9999 -9999 -9999 -9999 -9999 -9999 -9999 -9999 -9999 -9999 -9999 -9999 -9999 -9999
 -9999 -9999 -9999 -9999 -9999 -9999 -9999 -9999 -9999 -9999 -9999 -9999 -9999 -9999 -9999 -9999 -9999 -9999 -9999 -9999 -9999 -9999 -9999 -9999 -9999 -9999 -9999 -9999 -9999 -9999 1 2 1 1 1 98 2 2 1 1 1 1 1 2 5 2 1 1 1 2 2 3 4 5 18 2 1 1 4 3 8 14 3 1 1 2 4 2 2 4 55 5 1 1 2 2 1 86 1 155 2 1 3 2 1 1 3 3 11 6 2 4 10 6 9 1 2 2 3 4 2 3 2 3 2 1 1 -9999 -9999 -9999 -9999 -9999 -9999 -9999 -9999 -9999 -9999 -9999 -9999 -9999 -9999 -9999 -9999 -9999 -9999 -9999 -9999 -9999 -9999 -9999 -9999 -9999 -9999 -9999 -9999 -9999
 -9999 -9999 -9999 -9999 -9999 -9999 -9999 -9999 -9999 -9999 -9999 -9999 -9999 -9999 -9999 -9999 -9999 -9999 -9999 -9999 -9999 -9999 -9999 -9999 -9999 -9999 -9999 -9999 -9999 1 1 1 1 1 1 94 1 1 1 1 2 3 2 1 3 9 1 1 1 1 2 2 4 7 5 2 1 1 2 2 7 10 3 1 1 1 2 7 10 15 39 4 1 3 4 13 85 1 3 146 5 4 3 2 1 2 2 2 8 5 1 3 1 8 5 8 1 1 2 3 1 2 1 1 1 1 1 -9999 -9999 -9999 -9999 -9999 -9999 -9999 -9999 -9999 -9999 -9999 -9999 -9999 -9999 -9999 -9999 -9999 -9999 -9999 -9999 -9999 -9999 -9999 -9999 -9999 -9999 -9999 -9999 -9999
 -9999 -9999 -9999 -9999 -9999 -9999 -9999 -9999 -9999 -9999 -9999 -9999 -9999 -9999 -9999 -9999 -9999 -9999 -9999 -9999 -9999 -9999 -9999 -9999 -9999 -9999 -9999 -9999 -9999 1 1 1 1 2 2 91 2 1 1 1 3 6 3 2 4 10 2 2 1 1 1 1 1 1 1 1 1 1 1 1 5 6 3 2 1 1 2 3 4 9 29 3 1 2 6 68 1 1 37 98 10 4 3 2 1 1 1 1 1 6 4 1 1 7 4 3 4 1 1 1 1 1 1 1 1 1 1 -9999 -9999 -9999 -9999 -9999 -9999 -9999 -9999 -9999 -9999 -9999 -9999 -9999 -9999 -9999 -9999 -9999 -9999 -9999 -9999 -9999 -9999 -9999 -9999 -9999 -9999 -9999 -9999 -9999
 -9999 -9999 -9999 -9999 -9999 -9999 -9999 -9999 -9999 -9999 -9999 -9999 -9999 -9999 -9999 -9999 -9999 -9999 -9999 -9999 -9999 -9999 -9999 -9999 -9999 -9999 -9999 -9999 1 1 1 4 2 5 84 1 1 1 1 2 1 4 41 31 26 21 6 2 1 1 1 1 1 1 1 1 1 1 1 1 3 3 2 2 1 1 2 5 8 22 6 2 1 3 4 61 2 2 34 4 93 5 3 1 1 1 1 1 1 4 1 3 4 2 3 2 2 1 1 1 1 1 1 -9999 -9999 -9999 -9999 -9999 -9999 -9999 -9999 -9999 -9999 -9999 -9999 -9999 -9999 -9999 -9999 -9999 -9999 -9999 -9999 -9999 -9999 -9999 -9999 -9999 -9999 -9999 -9999 -9999 -9999 -9999 -9999 -9999
 -9999 -9999 -9999 -9999 -9999 -9999 -9999 -9999 -9999 -9999 -9999 -9999 -9999 -9999 -9999 -9999 -9999 -9999 -9999 -9999 -9999 -9999 -9999 -9999 -9999 -9999 -9999 -9999 -9999 1 1 2 7 8 3 67 1 2 2 3 51 45 2 2 1 1 1 1 1 -9999 -9999 -9999 -9999 -9999 -9999 -9999 -9999 -9999 1 1 1 1 1 1 1 1 2 2 14 7 5 1 2 3 3 57 1 1 33 3 90 2 1 1 1 3 6 3 1 1 2 2 3 1 2 1 1 1 -9999 -9999 -9999 -9999 -9999 -9999 -9999 -9999 -9999 -9999 -9999 -9999 -9999 -9999 -9999 -9999 -9999 -9999 -9999 -9999 -9999 -9999 -9999 -9999 -9999 -9999 -9999 -9999 -9999 -9999 -9999 -9999 -9999 -9999 -9999 -9999 -9999 -9999
 -9999 -9999 -9999 -9999 -9999 -9999 -9999 -9999 -9999 -9999 -9999 -9999 -9999 -9999 -9999 -9999 -9999 -9999 -9999 -9999 -9999 -9999 -9999 -9999 -9999 -9999 -9999 -9999 -9999 1 1 1 1 1 1 1 65 63 57 53 1 1 1 1 1 1 1 1 1 -9999 -9999 -9999 -9999 -9999 -9999 -9999 -9999 -9999 1 1 1 1 1 1 2 1 1 13 4 2 4 1 2 2 2 53 1 1 31 2 87 2 1 1 1 23 12 6 3 1 1 1 1 1 1 1 1 1 -9999 -9999 -9999 -9999 -9999 -9999 -9999 -9999 -9999 -9999 -9999 -9999 -9999 -9999 -9999 -9999 -9999 -9999 -9999 -9999 -9999 -9999 -9999 -9999 -9999 -9999 -9999 -9999 -9999 -9999 -9999 -9999 -9999 -9999 -9999 -9999 -9999 -9999
 -9999 -9999 -9999 -9999 -9999 -9999 -9999 -9999 -9999 -9999 -9999 -9999 -9999 -9999 -9999 -9999 -9999 -9999 -9999 -9999 -9999 -9999 -9999 -9999 -9999 -9999 -9999 -9999 -9999 -9999 -9999 -9999 -9999 1 1 1 1 1 1 1 1 1 1 1 -9999 -9999 -9999 -9999 -9999 -9999 -9999 -9999 -9999 -9999 -9999 -9999 -9999 -9999 -9999 -9999 -9999 1 1 2 6 9 12 3 1 2 1 1 1 1 2 4 46 1 27 2 1 86 1 3 28 4 3 2 2 1 1 1 1 1 1 1 -9999 -9999 -9999 -9999 -9999 -9999 -9999 -9999 -9999 -9999 -9999 -9999 -9999 -9999 -9999 -9999 -9999 -9999 -9999 -9999 -9999 -9999 -9999 -9999 -9999 -9999 -9999 -9999 -9999 -9999 -9999 -9999 -9999 -9999 -9999 -9999 -9999 -9999 -9999 -9999
 -9999 -9999 -9999 -9999 -9999 -9999 -9999 -9999 -9999 -9999 -9999 -9999 -9999 -9999 -9999 -9999 -9999 -9999 -9999 -9999 -9999 -9999 -9999 -9999 -9999 -9999 -9999 -9999 -9999 -9999 -9999 -9999 -9999 -9999 -9999 1 1 1 1 -9999 -9999 -9999 -9999 -9999 -9999 -9999 -9999 -9999 -9999 -9999 -9999 -9999 -9999 -9999 -9999 -9999 -9999 -9999 -9999 -9999 -9999 -9999 1 1 1 1 2 2 1 1 2 1 1 1 1 2 45 3 18 5 1 2 83 46 6 2 3 2 1 1 1 -9999 -9999 -9999 -9999 -9999 -9999 -9999 -9999 -9999 -9999 -9999 -9999 -9999 -9999 -9999 -9999 -9999 -9999 -9999 -9999 -9999 -9999 -9999 -9999 -9999 -9999 -9999 -9999 -9999 -9999 -9999 -9999 -9999 -9999 -9999 -9999 -9999 -9999 -9999 -9999 -9999 -9999 -9999 -9999 -9999
 -9999 -9999 -9999 -9999 -9999 -9999 -9999 -9999 -9999 -9999 -9999 -9999 -9999 -9999 -9999 -9999 -9999 -9999 -9999 -9999 -9999 -9999 -9999 -9999 -9999 -9999 -9999 -9999 -9999 -9999 -9999 -9999 -9999 -9999 -9999 -9999 -9999 -9999 -9999 -9999 -9999 -9999 -9999 -9999 -9999 -9999 -9999 -9999 -9999 -9999 -9999 -9999 -9999 -9999 -9999 -9999 -9999 -9999 -9999 -9999 -9999 -9999 -9999 -9999 1 1 1 1 2 3 4 5 1 1 1 44 2 11 6 4 1 2 34 6 2 3 1 2 1 1 1 -9999 -9999 -9999 -9999 -9999 -9999 -9999 -9999 -9999 -9999 -9999 -9999 -9999 -9999 -9999 -9999 -9999 -9999 -9999 -9999 -9999 -9999 -9999 -9999 -9999 -9999 -9999 -9999 -9999 -9999 -9999 -9999 -9999 -9999 -9999 -9999 -9999 -9999 -9999 -9999 -9999 -9999 -9999 -9999 -9999
 -9999 -9999 -9999 -9999 -9999 -9999 -9999 -9999 -9999 -9999 -9999 -9999 -9999 -9999 -9999 -9999 -9999 -9999 -9999 -9999 -9999 -9999 -9999 -9999 -9999 -9999 -9999 -9999 -9999 -9999 -9999 -9999 -9999 -9999 -9999 -9999 -9999 -9999 -9999 -9999 -9999 -9999 -9999 -9999 -9999 -9999 -9999 -9999 -9999 -9999 -9999 -9999 -9999 -9999 -9999 -9999 -9999 -9999 -9999 -9999 -9999 -9999 -9999 -9999 -9999 1 1 1 1 3 4 19 21 27 43 1 6 4 5 3 1 28 5 2 3 1 2 1 1 1 -9999 -9999 -9999 -9999 -9999 -9999 -9999 -9999 -9999 -9999 -9999 -9999 -9999 -9999 -9999 -9999 -9999 -9999 -9999 -9999 -9999 -9999 -9999 -9999 -9999 -9999 -9999 -9999 -9999 -9999 -9999 -9999 -9999 -9999 -9999 -9999 -9999 -9999 -9999 -9999 -9999 -9999 -9999 -9999 -9999 -9999
 -9999 -9999 -9999 -9999 -9999 -9999 -9999 -9999 -9999 -9999 -9999 -9999 -9999 -9999 -9999 -9999 -9999 -9999 -9999 -9999 -9999 -9999 -9999 -9999 -9999 -9999 -9999 -9999 -9999 -9999 -9999 -9999 -9999 -9999 -9999 -9999 -9999 -9999 -9999 -9999 -9999 -9999 -9999 -9999 -9999 -9999 -9999 -9999 -9999 -9999 -9999 -9999 -9999 -9999 -9999 -9999 -9999 -9999 -9999 -9999 -9999 -9999 -9999 -9999 -9999 -9999 1 1 1 1 2 5 4 13 2 1 4 3 4 2 16 11 2 2 1 2 1 1 1 -9999 -9999 -9999 -9999 -9999 -9999 -9999 -9999 -9999 -9999 -9999 -9999 -9999 -9999 -9999 -9999 -9999 -9999 -9999 -9999 -9999 -9999 -9999 -9999 -9999 -9999 -9999 -9999 -9999 -9999 -9999 -9999 -9999 -9999 -9999 -9999 -9999 -9999 -9999 -9999 -9999 -9999 -9999 -9999 -9999 -9999 -9999
 -9999 -9999 -9999 -9999 -9999 -9999 -9999 -9999 -9999 -9999 -9999 -9999 -9999 -9999 -9999 -9999 -9999 -9999 -9999 -9999 -9999 -9999 -9999 -9999 -9999 -9999 -9999 -9999 -9999 -9999 -9999 -9999 -9999 -9999 -9999 -9999 -9999 -9999 -9999 -9999 -9999 -9999 -9999 -9999 -9999 -9999 -9999 -9999 -9999 -9999 -9999 -9999 -9999 -9999 -9999 -9999 -9999 -9999 -9999 -9999 -9999 -9999 -9999 -9999 -9999 -9999 -9999 1 1 1 1 1 3 3 9 1 3 2 3 1 15 8 2 1 1 1 1 1 -9999 -9999 -9999 -9999 -9999 -9999 -9999 -9999 -9999 -9999 -9999 -9999 -9999 -9999 -9999 -9999 -9999 -9999 -9999 -9999 -9999 -9999 -9999 -9999 -9999 -9999 -9999 -9999 -9999 -9999 -9999 -9999 -9999 -9999 -9999 -9999 -9999 -9999 -9999 -9999 -9999 -9999 -9999 -9999 -9999 -9999 -9999 -9999
 -9999 -9999 -9999 -9999 -9999 -9999 -9999 -9999 -9999 -9999 -9999 -9999 -9999 -9999 -9999 -9999 -9999 -9999 -9999 -9999 -9999 -9999 -9999 -9999 -9999 -9999 -9999 -9999 -9999 -9999 -9999 -9999 -9999 -9999 -9999 -9999 -9999 -9999 -9999 -9999 -9999 -9999 -9999 -9999 -9999 -9999 -9999 -9999 -9999 -9999 -9999 -9999 -9999 -9999 -9999 -9999 -9999 -9999 -9999 -9999 -9999 -9999 -9999 -9999 -9999 -9999 -9999 -9999 -9999 1 1 1 2 2 3 5 2 1 2 12 2 3 4 1 1 1 1 -9999 -9999 -9999 -9999 -9999 -9999 -9999 -9999 -9999 -9999 -9999 -9999 -9999 -9999 -9999 -9999 -9999 -9999 -9999 -9999 -9999 -9999 -9999 -9999 -9999 -9999 -9999 -9999 -9999 -9999 -9999 -9999 -9999 -9999 -9999 -9999 -9999 -9999 -9999 -9999 -9999 -9999 -9999 -9999 -9999 -9999 -9999 -9999 -9999
 -9999 -9999 -9999 -9999 -9999 -9999 -9999 -9999 -9999 -9999 -9999 -9999 -9999 -9999 -9999 -9999 -9999 -9999 -9999 -9999 -9999 -9999 -9999 -9999 -9999 -9999 -9999 -9999 -9999 -9999 -9999 -9999 -9999 -9999 -9999 -9999 -9999 -9999 -9999 -9999 -9999 -9999 -9999 -9999 -9999 -9999 -9999 -9999 -9999 -9999 -9999 -9999 -9999 -9999 -9999 -9999 -9999 -9999 -9999 -9999 -9999 -9999 -9999 -9999 -9999 -9999 -9999 -9999 -9999 -9999 -9999 1 1 1 2 4 1 1 2 9 1 2 2 1 1 -9999 -9999 -9999 -9999 -9999 -9999 -9999 -9999 -9999 -9999 -9999 -9999 -9999 -9999 -9999 -9999 -9999 -9999 -9999 -9999 -9999 -9999 -9999 -9999 -9999 -9999 -9999 -9999 -9999 -9999 -9999 -9999 -9999 -9999 -9999 -9999 -9999 -9999 -9999 -9999 -9999 -9999 -9999 -9999 -9999 -9999 -9999 -9999 -9999 -9999 -9999
 -9999 -9999 -9999 -9999 -9999 -9999 -9999 -9999 -9999 -9999 -9999 -9999 -9999 -9999 -9999 -9999 -9999 -9999 -9999 -9999 -9999 -9999 -9999 -9999 -9999 -9999 -9999 -9999 -9999 -9999 -9999 -9999 -9999 -9999 -9999 -9999 -9999 -9999 -9999 -9999 -9999 -9999 -9999 -9999 -9999 -9999 -9999 -9999 -9999 -9999 -9999 -9999 -9999 -9999 -9999 -9999 -9999 -9999 -9999 -9999 -9999 -9999 -9999 -9999 -9999 -9999 -9999 -9999 -9999 -9999 -9999 1 1 1 1 2 1 1 2 4 2 1 1 1 1 -9999 -9999 -9999 -9999 -9999 -9999 -9999 -9999 -9999 -9999 -9999 -9999 -9999 -9999 -9999 -9999 -9999 -9999 -9999 -9999 -9999 -9999 -9999 -9999 -9999 -9999 -9999 -9999 -9999 -9999 -9999 -9999 -9999 -9999 -9999 -9999 -9999 -9999 -9999 -9999 -9999 -9999 -9999 -9999 -9999 -9999 -9999 -9999 -9999 -9999 -9999
 -9999 -9999 -9999 -9999 -9999 -9999 -9999 -9999 -9999 -9999 -9999 -9999 -9999 -9999 -9999 -9999 -9999 -9999 -9999 -9999 -9999 -9999 -9999 -9999 -9999 -9999 -9999 -9999 -9999 -9999 -9999 -9999 -9999 -9999 -9999 -9999 -9999 -9999 -9999 -9999 -9999 -9999 -9999 -9999 -9999 -9999 -9999 -9999 -9999 -9999 -9999 -9999 -9999 -9999 -9999 -9999 -9999 -9999 -9999 -9999 -9999 -9999 -9999 -9999 -9999 -9999 -9999 -9999 -9999 -9999 -9999 -9999 -9999 1 1 1 1 1 1 1 1 1 1 1 1 -9999 -9999 -9999 -9999 -9999 -9999 -9999 -9999 -9999 -9999 -9999 -9999 -9999 -9999 -9999 -9999 -9999 -9999 -9999 -9999 -9999 -9999 -9999 -9999 -9999 -9999 -9999 -9999 -9999 -9999 -9999 -9999 -9999 -9999 -9999 -9999 -9999 -9999 -9999 -9999 -9999 -9999 -9999 -9999 -9999 -9999 -9999 -9999 -9999 -9999 -9999
 -9999 -9999 -9999 -9999 -9999 -9999 -9999 -9999 -9999 -9999 -9999 -9999 -9999 -9999 -9999 -9999 -9999 -9999 -9999 -9999 -9999 -9999 -9999 -9999 -9999 -9999 -9999 -9999 -9999 -9999 -9999 -9999 -9999 -9999 -9999 -9999 -9999 -9999 -9999 -9999 -9999 -9999 -9999 -9999 -9999 -9999 -9999 -9999 -9999 -9999 -9999 -9999 -9999 -9999 -9999 -9999 -9999 -9999 -9999 -9999 -9999 -9999 -9999 -9999 -9999 -9999 -9999 -9999 -9999 -9999 -9999 -9999 -9999 -9999 -9999 1 1 1 1 1 1 1 -9999 -9999 -9999 -9999 -9999 -9999 -9999 -9999 -9999 -9999 -9999 -9999 -9999 -9999 -9999 -9999 -9999 -9999 -9999 -9999 -9999 -9999 -9999 -9999 -9999 -9999 -9999 -9999 -9999 -9999 -9999 -9999 -9999 -9999 -9999 -9999 -9999 -9999 -9999 -9999 -9999 -9999 -9999 -9999 -9999 -9999 -9999 -9999 -9999 -9999 -9999 -9999 -9999 -9999
 -9999 -9999 -9999 -9999 -9999 -9999 -9999 -9999 -9999 -9999 -9999 -9999 -9999 -9999 -9999 -9999 -9999 -9999 -9999 -9999 -9999 -9999 -9999 -9999 -9999 -9999 -9999 -9999 -9999 -9999 -9999 -9999 -9999 -9999 -9999 -9999 -9999 -9999 -9999 -9999 -9999 -9999 -9999 -9999 -9999 -9999 -9999 -9999 -9999 -9999 -9999 -9999 -9999 -9999 -9999 -9999 -9999 -9999 -9999 -9999 -9999 -9999 -9999 -9999 -9999 -9999 -9999 -9999 -9999 -9999 -9999 -9999 -9999 -9999 -9999 -9999 -9999 -9999 -9999 -9999 -9999 -9999 -9999 -9999 -9999 -9999 -9999 -9999 -9999 -9999 -9999 -9999 -9999 -9999 -9999 -9999 -9999 -9999 -9999 -9999 -9999 -9999 -9999 -9999 -9999 -9999 -9999 -9999 -9999 -9999 -9999 -9999 -9999 -9999 -9999 -9999 -9999 -9999 -9999 -9999 -9999 -9999 -9999 -9999 -9999 -9999 -9999 -9999 -9999 -9999 -9999 -9999 -9999 -9999 -9999 -9999
