ncols        136
nrows        276
xllcorner    5645400.000000000000
yllcorner    6136700.000000000000
cellsize     100.000000000000
NODATA_value  -9999
 -9999 -9999 -9999 -9999 -9999 -9999 -9999 -9999 -9999 -9999 -9999 -9999 -9999 -9999 -9999 -9999 -9999 -9999 -9999 -9999 -9999 -9999 -9999 -9999 -9999 -9999 -9999 -9999 -9999 -9999 -9999 -9999 -9999 -9999 -9999 -9999 -9999 -9999 -9999 -9999 -9999 -9999 -9999 -9999 -9999 -9999 -9999 -9999 -9999 -9999 -9999 -9999 -9999 -9999 -9999 -9999 -9999 -9999 -9999 -9999 -9999 -9999 -9999 -9999 -9999 -9999 -9999 -9999 -9999 -9999 -9999 -9999 -9999 -9999 -9999 -9999 -9999 -9999 -9999 -9999 -9999 -9999 -9999 -9999 -9999 -9999 -9999 -9999 -9999 -9999 -9999 -9999 -9999 -9999 -9999 -9999 -9999 -9999 -9999 -9999 -9999 -9999 -9999 -9999 -9999 -9999 -9999 -9999 -9999 -9999 -9999 -9999 -9999 -9999 -9999 -9999 -9999 -9999 -9999 -9999 -9999 -9999 -9999 -9999 -9999 -9999 -9999 -9999 -9999 -9999 -9999 -9999 -9999 -9999 -9999 -9999
 -9999 -9999 -9999 -9999 -9999 -9999 -9999 -9999 -9999 -9999 -9999 -9999 -9999 -9999 -9999 -9999 -9999 -9999 -9999 -9999 -9999 -9999 -9999 -9999 -9999 -9999 -9999 -9999 -9999 -9999 -9999 -9999 -9999 -9999 -9999 -9999 -9999 -9999 -9999 -9999 -9999 -9999 -9999 -9999 -9999 -9999 -9999 -9999 -9999 -9999 -9999 -9999 -9999 -9999 -9999 -9999 -9999 -9999 -9999 -9999 -9999 -9999 -9999 -9999 -9999 -9999 -9999 -9999 -9999 -9999 -9999 -9999 -9999 -9999 -9999 -9999 -9999 -9999 -9999 -9999 -9999 -9999 -9999 -9999 -9999 -9999 -9999 3.2017619609832763672 2.7597980499267578125 2.0992753505706787109 -9999 -9999 -9999 -9999 -9999 -9999 -9999 -9999 -9999 -9999 -9999 -9999 -9999 -9999 -9999 -9999 -9999 -9999 -9999 -9999 -9999 -9999 -9999 -9999 -9999 -9999 -9999 -9999 -9999 -9999 -9999 -9999 -9999 -9999 -9999 -9999 -9999 -9999 -9999 -9999 -9999 -9999 -9999 -9999 -9999 -9999
 -9999 -9999 -9999 -9999 -9999 -9999 -9999 -9999 -9999 -9999 -9999 -9999 -9999 -9999 -9999 -9999 -9999 -9999 -9999 -9999 -9999 -9999 -9999 -9999 -9999 -9999 -9999 -9999 -9999 -9999 -9999 -9999 -9999 -9999 -9999 -9999 -9999 -9999 -9999 -9999 -9999 -9999 -9999 -9999 -9999 -9999 -9999 -9999 -9999 -9999 -9999 -9999 -9999 -9999 -9999 -9999 -9999 -9999 -9999 -9999 -9999 -9999 -9999 -9999 -9999 -9999 -9999 -9999 -9999 -9999 -9999 -9999 -9999 -9999 -9999 -9999 -9999 -9999 -9999 -9999 -9999 -9999 -9999 -9999 -9999 -9999 -9999 3.270633697509765625 2.5439374446868896484 1.1000044345855712891 2.0731482505798339844 -9999 -9999 -9999 -9999 -9999 -9999 -9999 -9999 -9999 -9999 -9999 -9999 -9999 -9999 -9999 -9999 -9999 -9999 -9999 -9999 -9999 -9999 -9999 -9999 -9999 -9999 -9999 -9999 -9999 -9999 -9999 -9999 -9999 -9999 -9999 -9999 -9999 -9999 -9999 -9999 -9999 -9999 -9999 -9999 -9999
 -9999 -9999 -9999 -9999 -9999 -9999 -9999 -9999 -9999 -9999 -9999 -9999 -9999 -9999 -9999 -9999 -9999 -9999 -9999 -9999 -9999 -9999 -9999 -9999 -9999 -9999 -9999 -9999 -9999 -9999 -9999 -9999 -9999 -9999 -9999 -9999 -9999 -9999 -9999 -9999 -9999 -9999 -9999 -9999 -9999 -9999 -9999 -9999 -9999 -9999 -9999 -9999 -9999 -9999 -9999 -9999 -9999 -9999 -9999 -9999 -9999 -9999 -9999 -9999 -9999 -9999 -9999 -9999 -9999 -9999 -9999 -9999 -9999 -9999 -9999 -9999 -9999 -9999 -9999 -9999 -9999 -9999 -9999 -9999 -9999 3.8679451942443847656 3.6876974105834960938 3.1099424362182617188 0.96404683589935302734 1.0547080039978027344 2.2191321849822998047 2.3283007144927978516 2.5544960498809814453 -9999 -9999 -9999 -9999 -9999 -9999 -9999 -9999 -9999 -9999 -9999 -9999 -9999 -9999 -9999 -9999 -9999 -9999 -9999 -9999 -9999 -9999 -9999 -9999 -9999 -9999 -9999 -9999 -9999 -9999 -9999 -9999 -9999 -9999 -9999 -9999 -9999 -9999 -9999 -9999 -9999 -9999 -9999
 -9999 -9999 -9999 -9999 -9999 -9999 -9999 -9999 -9999 -9999 -9999 -9999 -9999 -9999 -9999 -9999 -9999 -9999 -9999 -9999 -9999 -9999 -9999 -9999 -9999 -9999 -9999 -9999 -9999 -9999 -9999 -9999 -9999 -9999 -9999 -9999 -9999 -9999 -9999 -9999 -9999 -9999 -9999 -9999 -9999 -9999 -9999 -9999 -9999 -9999 -9999 -9999 -9999 -9999 -9999 -9999 -9999 -9999 -9999 -9999 -9999 -9999 -9999 -9999 -9999 -9999 -9999 -9999 -9999 -9999 -9999 -9999 -9999 -9999 -9999 -9999 -9999 -9999 -9999 -9999 -9999 -9999 -9999 -9999 -9999 3.7222492694854736328 3.2718760967254638672 0.84574896097183227539 0.90122574567794799805 2.5327253341674804688 2.5619628429412841797 2.5559656620025634766 2.6507761478424072266 -9999 -9999 -9999 -9999 -9999 -9999 -9999 -9999 -9999 -9999 -9999 -9999 -9999 -9999 -9999 -9999 -9999 -9999 -9999 -9999 -9999 -9999 -9999 -9999 -9999 -9999 -9999 -9999 -9999 -9999 -9999 -9999 -9999 -9999 -9999 -9999 -9999 -9999 -9999 -9999 -9999 -9999 -9999
 -9999 -9999 -9999 -9999 -9999 -9999 -9999 -9999 -9999 -9999 -9999 -9999 -9999 -9999 -9999 -9999 -9999 -9999 -9999 -9999 -9999 -9999 -9999 -9999 -9999 -9999 -9999 -9999 -9999 -9999 -9999 -9999 -9999 -9999 -9999 -9999 -9999 -9999 -9999 -9999 -9999 -9999 -9999 -9999 -9999 -9999 -9999 -9999 -9999 -9999 -9999 -9999 -9999 -9999 -9999 -9999 -9999 -9999 -9999 -9999 -9999 -9999 -9999 -9999 -9999 -9999 -9999 -9999 -9999 -9999 -9999 -9999 -9999 -9999 -9999 -9999 -9999 -9999 -9999 -9999 -9999 -9999 -9999 3.9214398860931396484 3.7725870609283447266 3.2688701152801513672 2.5883810520172119141 0.77722716331481933594 3.0244846343994140625 3.4944026470184326172 3.28754425048828125 2.9940798282623291016 2.8348689079284667969 2.8010432720184326172 2.8655216693878173828 2.9806637763977050781 -9999 -9999 -9999 -9999 -9999 -9999 -9999 -9999 -9999 -9999 -9999 -9999 -9999 -9999 -9999 -9999 -9999 -9999 -9999 -9999 -9999 -9999 -9999 -9999 -9999 -9999 -9999 -9999 -9999 -9999 -9999 -9999 -9999 -9999 -9999 -9999 -9999 -9999 -9999 -9999
 -9999 -9999 -9999 -9999 -9999 -9999 -9999 -9999 -9999 -9999 -9999 -9999 -9999 -9999 -9999 -9999 -9999 -9999 -9999 -9999 -9999 -9999 -9999 -9999 -9999 -9999 -9999 -9999 -9999 -9999 -9999 -9999 -9999 -9999 -9999 -9999 -9999 -9999 -9999 -9999 -9999 -9999 -9999 -9999 -9999 -9999 -9999 -9999 -9999 -9999 -9999 -9999 -9999 -9999 -9999 -9999 -9999 -9999 -9999 -9999 -9999 -9999 -9999 -9999 -9999 -9999 -9999 -9999 -9999 -9999 -9999 -9999 -9999 -9999 -9999 -9999 -9999 -9999 -9999 -9999 -9999 -9999 3.8848164081573486328 3.83274078369140625 3.3843169212341308594 2.6121582984924316406 0.67045986652374267578 2.7429556846618652344 3.6018369197845458984 3.9207112789154052734 3.5151374340057373047 3.0433640480041503906 2.8935759067535400391 2.8111176490783691406 2.7501311302185058594 2.8638753890991210938 2.9878053665161132813 -9999 -9999 -9999 -9999 -9999 -9999 -9999 -9999 -9999 -9999 -9999 -9999 -9999 -9999 -9999 -9999 -9999 -9999 -9999 -9999 -9999 -9999 -9999 -9999 -9999 -9999 -9999 -9999 -9999 -9999 -9999 -9999 -9999 -9999 -9999 -9999 -9999 -9999 -9999
 -9999 -9999 -9999 -9999 -9999 -9999 -9999 -9999 -9999 -9999 -9999 -9999 -9999 -9999 -9999 -9999 -9999 -9999 -9999 -9999 -9999 -9999 -9999 -9999 -9999 -9999 -9999 -9999 -9999 -9999 -9999 -9999 -9999 -9999 -9999 -9999 -9999 -9999 -9999 -9999 -9999 -9999 -9999 -9999 -9999 -9999 -9999 -9999 -9999 -9999 -9999 -9999 -9999 -9999 -9999 -9999 -9999 -9999 -9999 -9999 -9999 -9999 -9999 -9999 -9999 -9999 -9999 -9999 -9999 -9999 -9999 -9999 -9999 -9999 -9999 -9999 -9999 -9999 -9999 -9999 -9999 3.8829326629638671875 3.7199370861053466797 3.2952790260314941406 2.6545872688293457031 0.52996271848678588867 2.6100220680236816406 3.4952175617218017578 4.2546772956848144531 3.97611236572265625 3.4508867263793945313 3.0533711910247802734 2.8927695751190185547 2.8084492683410644531 2.6548871994018554688 2.7435605525970458984 2.8893902301788330078 2.9910604953765869141 -9999 -9999 -9999 -9999 -9999 -9999 -9999 -9999 -9999 -9999 -9999 -9999 -9999 -9999 -9999 -9999 -9999 -9999 -9999 -9999 -9999 -9999 -9999 -9999 -9999 -9999 -9999 -9999 -9999 -9999 -9999 -9999 -9999 -9999 -9999 -9999 -9999 -9999
 -9999 -9999 -9999 -9999 -9999 -9999 -9999 -9999 -9999 -9999 -9999 -9999 -9999 -9999 -9999 -9999 -9999 -9999 -9999 -9999 -9999 -9999 -9999 -9999 -9999 -9999 -9999 -9999 -9999 -9999 -9999 -9999 -9999 -9999 -9999 -9999 -9999 -9999 -9999 -9999 -9999 -9999 -9999 -9999 -9999 -9999 -9999 -9999 -9999 -9999 -9999 -9999 -9999 -9999 -9999 -9999 -9999 -9999 -9999 -9999 -9999 -9999 -9999 -9999 -9999 -9999 -9999 -9999 -9999 -9999 -9999 -9999 -9999 -9999 -9999 -9999 -9999 -9999 -9999 -9999 3.650608062744140625 3.5840554237365722656 3.1153213977813720703 2.5556097030639648438 0.40631443262100219727 2.5792264938354492188 3.1282477378845214844 4.0168561935424804688 4.4403772354125976563 3.8262856006622314453 3.29734039306640625 3.0232164859771728516 2.8615064620971679688 2.7331175804138183594 2.6748378276824951172 2.7248511314392089844 2.8030307292938232422 2.8906438350677490234 2.9823243618011474609 -9999 -9999 -9999 -9999 -9999 -9999 -9999 -9999 -9999 -9999 -9999 -9999 -9999 -9999 -9999 -9999 -9999 -9999 -9999 -9999 -9999 -9999 -9999 -9999 -9999 -9999 -9999 -9999 -9999 -9999 -9999 -9999 -9999 -9999 -9999 -9999 -9999
 -9999 -9999 -9999 -9999 -9999 -9999 -9999 -9999 -9999 -9999 -9999 -9999 -9999 -9999 -9999 -9999 -9999 -9999 -9999 -9999 -9999 -9999 -9999 -9999 -9999 -9999 -9999 -9999 -9999 -9999 -9999 -9999 -9999 -9999 -9999 -9999 -9999 -9999 -9999 -9999 -9999 -9999 -9999 -9999 -9999 -9999 -9999 -9999 -9999 -9999 -9999 -9999 -9999 -9999 -9999 -9999 -9999 -9999 -9999 -9999 -9999 -9999 -9999 -9999 -9999 -9999 -9999 -9999 -9999 -9999 -9999 -9999 -9999 -9999 -9999 -9999 -9999 -9999 -9999 3.2794644832611083984 3.2323250770568847656 2.9659914970397949219 2.4522216320037841797 0.2908306121826171875 2.6757338047027587891 3.1977987289428710938 3.5348098278045654297 3.9093506336212158203 3.9149460792541503906 3.3356716632843017578 2.9991521835327148438 2.8466219902038574219 2.7735040187835693359 2.6360385417938232422 2.6095747947692871094 2.6392564773559570313 2.6679270267486572266 2.6868760585784912109 2.7895166873931884766 2.9305145740509033203 2.9979190826416015625 -9999 -9999 -9999 -9999 -9999 -9999 -9999 -9999 -9999 -9999 -9999 -9999 -9999 -9999 -9999 -9999 -9999 -9999 -9999 -9999 -9999 -9999 -9999 -9999 -9999 -9999 -9999 -9999 -9999 -9999 -9999 -9999 -9999 -9999 -9999
 -9999 -9999 -9999 -9999 -9999 -9999 -9999 -9999 -9999 -9999 -9999 -9999 -9999 -9999 -9999 -9999 -9999 -9999 -9999 -9999 -9999 -9999 -9999 -9999 -9999 -9999 -9999 -9999 -9999 -9999 -9999 -9999 -9999 -9999 -9999 -9999 -9999 -9999 -9999 -9999 -9999 -9999 -9999 -9999 -9999 -9999 -9999 -9999 -9999 -9999 -9999 -9999 -9999 -9999 -9999 -9999 -9999 -9999 -9999 -9999 -9999 -9999 -9999 -9999 -9999 -9999 -9999 -9999 -9999 -9999 -9999 -9999 -9999 -9999 -9999 -9999 -9999 -9999 3.16048431396484375 2.9543569087982177734 2.6851639747619628906 2.3910391330718994141 1.3157249689102172852 2.7702541351318359375 3.2835903167724609375 3.7349987030029296875 3.7950098514556884766 3.5764739513397216797 3.3036682605743408203 3.006977081298828125 2.8898358345031738281 2.7349765300750732422 2.6235537528991699219 2.4962487220764160156 2.506988525390625 2.4793491363525390625 2.3482167720794677734 2.3357706069946289063 2.4787657260894775391 2.6958181858062744141 2.8126308917999267578 2.81235504150390625 -9999 -9999 -9999 -9999 -9999 -9999 -9999 -9999 -9999 -9999 -9999 -9999 -9999 -9999 -9999 -9999 -9999 -9999 -9999 -9999 -9999 -9999 -9999 -9999 -9999 -9999 -9999 -9999 -9999 -9999 -9999 -9999 -9999 -9999
 -9999 -9999 -9999 -9999 -9999 -9999 -9999 -9999 -9999 -9999 -9999 -9999 -9999 -9999 -9999 -9999 -9999 -9999 -9999 -9999 -9999 -9999 -9999 -9999 -9999 -9999 -9999 -9999 -9999 -9999 -9999 -9999 -9999 -9999 -9999 -9999 -9999 -9999 -9999 -9999 -9999 -9999 -9999 -9999 -9999 -9999 -9999 -9999 -9999 -9999 -9999 -9999 -9999 -9999 -9999 -9999 -9999 -9999 -9999 -9999 -9999 -9999 -9999 -9999 -9999 -9999 -9999 -9999 -9999 -9999 -9999 -9999 -9999 -9999 -9999 -9999 3.5079069137573242188 3.3397257328033447266 3.0046741962432861328 2.5241527557373046875 2.2737729549407958984 1.3389934301376342773 3.0684926509857177734 3.6451680660247802734 3.5578720569610595703 3.4085829257965087891 3.4274039268493652344 3.4623661041259765625 3.2177648544311523438 2.9336287975311279297 2.8129129409790039063 2.5338039398193359375 2.2791697978973388672 2.1907660961151123047 2.2433402538299560547 2.2604784965515136719 2.2009971141815185547 2.1591367721557617188 2.3148312568664550781 2.5607786178588867188 2.6968588829040527344 2.6903917789459228516 2.7240734100341796875 -9999 -9999 -9999 -9999 -9999 -9999 -9999 -9999 -9999 -9999 -9999 -9999 -9999 -9999 -9999 -9999 -9999 -9999 -9999 -9999 -9999 -9999 -9999 -9999 -9999 -9999 -9999 -9999 -9999 -9999 -9999 -9999 -9999
 -9999 -9999 -9999 -9999 -9999 -9999 -9999 -9999 -9999 -9999 -9999 -9999 -9999 -9999 -9999 -9999 -9999 -9999 -9999 -9999 -9999 -9999 -9999 -9999 -9999 -9999 -9999 -9999 -9999 -9999 -9999 -9999 -9999 -9999 -9999 -9999 -9999 -9999 -9999 -9999 -9999 -9999 -9999 -9999 -9999 -9999 -9999 -9999 -9999 -9999 -9999 -9999 -9999 -9999 -9999 -9999 -9999 -9999 -9999 -9999 -9999 -9999 -9999 -9999 -9999 -9999 -9999 -9999 -9999 -9999 -9999 -9999 -9999 -9999 -9999 3.8147218227386474609 3.5172531604766845703 3.1561236381530761719 2.6533198356628417969 2.2565011978149414063 1.361156463623046875 3.0121273994445800781 3.7480061054229736328 4.0448236465454101563 3.5765433311462402344 3.1010982990264892578 3.0938634872436523438 3.3418729305267333984 3.2334604263305664063 2.9256482124328613281 2.7158720493316650391 2.3549668788909912109 2.0790381431579589844 2.0513703823089599609 2.1952352523803710938 2.3098185062408447266 2.3344645500183105469 2.1177985668182373047 2.2014756202697753906 2.6120693683624267578 2.8727583885192871094 2.7101087570190429688 2.5506370067596435547 2.3743083477020263672 1.8359780311584472656 -9999 -9999 -9999 -9999 -9999 -9999 -9999 -9999 -9999 -9999 -9999 -9999 -9999 -9999 -9999 -9999 -9999 -9999 -9999 -9999 -9999 -9999 -9999 -9999 -9999 -9999 -9999 -9999 -9999 -9999 -9999
 -9999 -9999 -9999 -9999 -9999 -9999 -9999 -9999 -9999 -9999 -9999 -9999 -9999 -9999 -9999 -9999 -9999 -9999 -9999 -9999 -9999 -9999 -9999 -9999 -9999 -9999 -9999 -9999 -9999 -9999 -9999 -9999 -9999 -9999 -9999 -9999 -9999 -9999 -9999 -9999 -9999 -9999 -9999 -9999 -9999 -9999 -9999 -9999 -9999 -9999 -9999 -9999 -9999 -9999 -9999 -9999 -9999 -9999 -9999 -9999 -9999 -9999 -9999 -9999 -9999 -9999 -9999 -9999 -9999 -9999 -9999 -9999 -9999 -9999 -9999 3.8408520221710205078 3.4369726181030273438 2.8747797012329101563 2.4795088768005371094 1.4507534503936767578 1.4078522920608520508 3.4308683872222900391 3.8518123626708984375 3.9009957313537597656 3.4823830127716064453 3.0597858428955078125 3.0225508213043212891 3.2085187435150146484 3.1435072422027587891 2.8873729705810546875 2.6655128002166748047 2.3591039180755615234 2.1558575630187988281 2.1875817775726318359 2.3606386184692382813 2.4699161052703857422 2.4728984832763671875 2.2818288803100585938 2.4026219844818115234 2.7690231800079345703 3.0046010017395019531 2.7430737018585205078 2.3597807884216308594 2.2375891208648681641 2.0847585201263427734 -9999 -9999 -9999 -9999 -9999 -9999 -9999 -9999 -9999 -9999 -9999 -9999 -9999 -9999 -9999 -9999 -9999 -9999 -9999 -9999 -9999 -9999 -9999 -9999 -9999 -9999 -9999 -9999 -9999 -9999 -9999
 -9999 -9999 -9999 -9999 -9999 -9999 -9999 -9999 -9999 -9999 -9999 -9999 -9999 -9999 -9999 -9999 -9999 -9999 -9999 -9999 -9999 -9999 -9999 -9999 -9999 -9999 -9999 -9999 -9999 -9999 -9999 -9999 -9999 -9999 -9999 -9999 -9999 -9999 -9999 -9999 -9999 -9999 -9999 -9999 -9999 -9999 -9999 -9999 -9999 -9999 -9999 -9999 -9999 -9999 -9999 -9999 -9999 -9999 -9999 -9999 -9999 -9999 -9999 -9999 -9999 -9999 -9999 -9999 -9999 -9999 -9999 -9999 -9999 5.783565521240234375 4.419651031494140625 3.7726867198944091797 3.3362019062042236328 2.8784954547882080078 1.7727189064025878906 1.638171076774597168 3.6271619796752929688 3.7175807952880859375 3.5094037055969238281 3.4147748947143554688 3.413372039794921875 3.1377284526824951172 3.0232605934143066406 3.0370028018951416016 2.9371786117553710938 2.7927832603454589844 2.6486570835113525391 2.5509283542633056641 2.4913380146026611328 2.5830101966857910156 2.7237222194671630859 2.7299222946166992188 2.6252903938293457031 2.6799399852752685547 2.9626133441925048828 3.0335409641265869141 3.0155565738677978516 2.7541818618774414063 2.3587749004364013672 1.2473311424255371094 2.2631461620330810547 -9999 -9999 -9999 -9999 -9999 -9999 -9999 -9999 -9999 -9999 -9999 -9999 -9999 -9999 -9999 -9999 -9999 -9999 -9999 -9999 -9999 -9999 -9999 -9999 -9999 -9999 -9999 -9999 -9999 -9999 -9999
 -9999 -9999 -9999 -9999 -9999 -9999 -9999 -9999 -9999 -9999 -9999 -9999 -9999 -9999 -9999 -9999 -9999 -9999 -9999 -9999 -9999 -9999 -9999 -9999 -9999 -9999 -9999 -9999 -9999 -9999 -9999 -9999 -9999 -9999 -9999 -9999 -9999 -9999 -9999 -9999 -9999 -9999 -9999 -9999 -9999 -9999 -9999 -9999 -9999 -9999 -9999 -9999 -9999 -9999 -9999 -9999 -9999 -9999 -9999 -9999 -9999 -9999 -9999 -9999 -9999 -9999 -9999 -9999 -9999 -9999 -9999 -9999 6.4873056411743164063 5.2164058685302734375 4.0798773765563964844 3.4617750644683837891 3.0586085319519042969 1.8070901632308959961 1.7926840782165527344 3.8611505031585693359 4.22027587890625 3.7331151962280273438 3.1349904537200927734 3.1905536651611328125 3.5616900920867919922 3.2105093002319335938 3.0162901878356933594 3.0117335319519042969 2.8107485771179199219 2.7038965225219726563 2.70262908935546875 2.7852005958557128906 2.7696709632873535156 2.7865738868713378906 2.8644189834594726563 2.8158962726593017578 2.6457777023315429688 2.7795748710632324219 3.1413965225219726563 3.0560626983642578125 2.7561192512512207031 2.4855024814605712891 1.2473311424255371094 2.4366242885589599609 2.4707167148590087891 -9999 -9999 -9999 -9999 -9999 -9999 -9999 -9999 -9999 -9999 -9999 -9999 -9999 -9999 -9999 -9999 -9999 -9999 -9999 -9999 -9999 -9999 -9999 -9999 -9999 -9999 -9999 -9999 -9999 -9999 -9999
 -9999 -9999 -9999 -9999 -9999 -9999 -9999 -9999 -9999 -9999 -9999 -9999 -9999 -9999 -9999 -9999 -9999 -9999 -9999 -9999 -9999 -9999 -9999 -9999 -9999 -9999 -9999 -9999 -9999 -9999 -9999 -9999 -9999 -9999 -9999 -9999 -9999 -9999 -9999 -9999 -9999 -9999 -9999 -9999 -9999 -9999 -9999 -9999 -9999 -9999 -9999 -9999 -9999 -9999 -9999 -9999 -9999 -9999 -9999 -9999 -9999 -9999 -9999 -9999 -9999 -9999 -9999 -9999 -9999 -9999 -9999 5.7402734756469726563 5.1471562385559082031 4.2506494522094726563 3.5277361869812011719 3.0664858818054199219 1.8393672704696655273 1.8231714963912963867 3.3846781253814697266 4.2838001251220703125 4.557781219482421875 3.8368971347808837891 3.0804059505462646484 2.9966552257537841797 3.1394817829132080078 3.0173652172088623047 2.958492279052734375 2.9220929145812988281 2.7008075714111328125 2.6250853538513183594 2.7329287528991699219 2.8931500911712646484 2.8875939846038818359 2.8119390010833740234 2.761913299560546875 2.7024445533752441406 2.5997138023376464844 2.7760069370269775391 3.1983554363250732422 2.939453125 2.4707875251770019531 1.2473311424255371094 2.5112144947052001953 2.6261031627655029297 2.6539769172668457031 -9999 -9999 -9999 -9999 -9999 -9999 -9999 -9999 -9999 -9999 -9999 -9999 -9999 -9999 -9999 -9999 -9999 -9999 -9999 -9999 -9999 -9999 -9999 -9999 -9999 -9999 -9999 -9999 -9999 -9999 -9999
 -9999 -9999 -9999 -9999 -9999 -9999 -9999 -9999 -9999 -9999 -9999 -9999 -9999 -9999 -9999 -9999 -9999 -9999 -9999 -9999 -9999 -9999 -9999 -9999 -9999 -9999 -9999 -9999 -9999 -9999 -9999 -9999 -9999 -9999 -9999 -9999 -9999 -9999 -9999 -9999 -9999 -9999 -9999 -9999 -9999 -9999 -9999 -9999 -9999 -9999 -9999 -9999 -9999 -9999 -9999 -9999 -9999 -9999 -9999 -9999 -9999 -9999 -9999 -9999 -9999 -9999 -9999 -9999 -9999 -9999 -9999 4.3424353599548339844 3.9455356597900390625 3.5208327770233154297 3.0939109325408935547 2.86428070068359375 1.8595976829528808594 3.14058685302734375 3.8535559177398681641 4.4947681427001953125 4.5537204742431640625 4.013080596923828125 3.2056341171264648438 2.8759160041809082031 2.8103663921356201172 2.8117845058441162109 2.7854440212249755859 2.7022740840911865234 2.6817698478698730469 2.7392716407775878906 2.8413817882537841797 2.9127783775329589844 2.8991384506225585938 2.7739322185516357422 2.6228764057159423828 2.5502493381500244141 2.5152730941772460938 2.6590828895568847656 2.8473529815673828125 2.5472609996795654297 1.2473311424255371094 2.3779251575469970703 2.6186509132385253906 2.7243812084197998047 2.7510750293731689453 -9999 -9999 -9999 -9999 -9999 -9999 -9999 -9999 -9999 -9999 -9999 -9999 -9999 -9999 -9999 -9999 -9999 -9999 -9999 -9999 -9999 -9999 -9999 -9999 -9999 -9999 -9999 -9999 -9999 -9999 -9999
 -9999 -9999 -9999 -9999 -9999 -9999 -9999 -9999 -9999 -9999 -9999 -9999 -9999 -9999 -9999 -9999 -9999 -9999 -9999 -9999 -9999 -9999 -9999 -9999 -9999 -9999 -9999 -9999 -9999 -9999 -9999 -9999 -9999 -9999 -9999 -9999 -9999 -9999 -9999 -9999 -9999 -9999 -9999 -9999 -9999 -9999 -9999 -9999 -9999 -9999 -9999 -9999 -9999 -9999 -9999 -9999 -9999 -9999 -9999 -9999 -9999 -9999 -9999 -9999 -9999 -9999 -9999 -9999 -9999 -9999 3.9020633697509765625 3.9108750820159912109 3.6339409351348876953 3.3470845222473144531 3.0718924999237060547 1.9363362789154052734 3.0103459358215332031 3.5197787284851074219 4.4059939384460449219 4.6360001564025878906 4.3283076286315917969 3.9279572963714599609 3.2263989448547363281 2.7698431015014648438 2.6839361190795898438 2.6879119873046875 2.6290988922119140625 2.5227220058441162109 2.6239297389984130859 2.7954075336456298828 2.8917052745819091797 2.8810391426086425781 2.8039553165435791016 2.6786100864410400391 2.5512070655822753906 2.5161292552947998047 2.5093355178833007813 2.4556152820587158203 2.3970441818237304688 1.2473311424255371094 2.3337728977203369141 2.5196928977966308594 2.7109251022338867188 2.7736558914184570313 2.7845013141632080078 -9999 -9999 -9999 -9999 -9999 -9999 -9999 -9999 -9999 -9999 -9999 -9999 -9999 -9999 -9999 -9999 -9999 -9999 -9999 -9999 -9999 -9999 -9999 -9999 -9999 -9999 -9999 -9999 -9999 -9999 -9999
 -9999 -9999 -9999 -9999 -9999 -9999 -9999 -9999 -9999 -9999 -9999 -9999 -9999 -9999 -9999 -9999 -9999 -9999 -9999 -9999 -9999 -9999 -9999 -9999 -9999 -9999 -9999 -9999 -9999 -9999 -9999 -9999 -9999 -9999 -9999 -9999 -9999 -9999 -9999 -9999 -9999 -9999 -9999 -9999 -9999 -9999 -9999 -9999 -9999 -9999 -9999 -9999 -9999 -9999 -9999 -9999 -9999 -9999 -9999 -9999 -9999 -9999 -9999 -9999 -9999 -9999 -9999 -9999 -9999 3.5860855579376220703 3.8571898937225341797 3.9445002079010009766 3.7079203128814697266 3.5485982894897460938 2.0803978443145751953 3.3215649127960205078 3.3473582267761230469 3.7738344669342041016 4.3805403709411621094 4.3643646240234375 4.0344452857971191406 3.7353308200836181641 3.2053787708282470703 2.6911790370941162109 2.6141269207000732422 2.6485967636108398438 2.5689129829406738281 2.3910353183746337891 2.460803985595703125 2.6671135425567626953 2.7387545108795166016 2.7214643955230712891 2.6409361362457275391 2.5350110530853271484 2.4140810966491699219 2.40346527099609375 2.4324231147766113281 2.3137431144714355469 1.2473311424255371094 2.3238265514373779297 2.4698531627655029297 2.6192319393157958984 2.7556390762329101563 -9999 -9999 -9999 -9999 -9999 -9999 -9999 -9999 -9999 -9999 -9999 -9999 -9999 -9999 -9999 -9999 -9999 -9999 -9999 -9999 -9999 -9999 -9999 -9999 -9999 -9999 -9999 -9999 -9999 -9999 -9999 -9999 -9999
 -9999 -9999 -9999 -9999 -9999 -9999 -9999 -9999 -9999 -9999 -9999 -9999 -9999 -9999 -9999 -9999 -9999 -9999 -9999 -9999 -9999 -9999 -9999 -9999 -9999 -9999 -9999 -9999 -9999 -9999 -9999 -9999 -9999 -9999 -9999 -9999 -9999 -9999 -9999 -9999 -9999 -9999 -9999 -9999 -9999 -9999 -9999 -9999 -9999 -9999 -9999 -9999 -9999 -9999 -9999 -9999 -9999 -9999 -9999 -9999 -9999 -9999 -9999 -9999 -9999 -9999 -9999 3.7123968601226806641 3.5964422225952148438 3.4983754158020019531 3.6629865169525146484 3.7589142322540283203 3.6785073280334472656 2.0987043380737304688 3.7664442062377929688 3.7389504909515380859 3.6471350193023681641 3.7784683704376220703 4.0614209175109863281 4.00550079345703125 3.6477365493774414063 3.4177651405334472656 3.1199719905853271484 2.695217132568359375 2.5636599063873291016 2.5814599990844726563 2.53467559814453125 2.4064409732818603516 2.4097385406494140625 2.5226466655731201172 2.6158614158630371094 2.6664671897888183594 2.6229772567749023438 2.4822998046875 2.3771789073944091797 2.3390042781829833984 2.2963402271270751953 1.2473311424255371094 2.3204758167266845703 2.4551825523376464844 2.5571947097778320313 2.659786224365234375 2.7604405879974365234 -9999 -9999 -9999 -9999 -9999 -9999 -9999 -9999 -9999 -9999 -9999 -9999 -9999 -9999 -9999 -9999 -9999 -9999 -9999 -9999 -9999 -9999 -9999 -9999 -9999 -9999 -9999 -9999 -9999 -9999 -9999 -9999 -9999
 -9999 -9999 -9999 -9999 -9999 -9999 -9999 -9999 -9999 -9999 -9999 -9999 -9999 -9999 -9999 -9999 -9999 -9999 -9999 -9999 -9999 -9999 -9999 -9999 -9999 -9999 -9999 -9999 -9999 -9999 -9999 -9999 -9999 -9999 -9999 -9999 -9999 -9999 -9999 -9999 -9999 -9999 -9999 -9999 -9999 -9999 -9999 -9999 -9999 -9999 -9999 -9999 -9999 -9999 -9999 -9999 -9999 -9999 -9999 -9999 -9999 -9999 -9999 -9999 -9999 -9999 -9999 3.7383313179016113281 3.5810561180114746094 3.4457106590270996094 3.5822601318359375 3.6583530902862548828 2.1105699539184570313 3.6880674362182617188 3.8508832454681396484 3.8934855461120605469 3.6935906410217285156 3.6815409660339355469 3.8828718662261962891 3.7481434345245361328 3.1013302803039550781 2.8253688812255859375 2.6607053279876708984 2.4957911968231201172 2.4345035552978515625 2.4523155689239501953 2.4647772312164306641 2.4193332195281982422 2.3219280242919921875 2.3961384296417236328 2.5500199794769287109 2.7348508834838867188 2.8187701702117919922 2.5217502117156982422 2.3868401050567626953 2.3342368602752685547 1.2473311424255371094 2.3221256732940673828 2.4539585113525390625 2.5461125373840332031 2.6316735744476318359 2.7349162101745605469 2.7987110614776611328 -9999 -9999 -9999 -9999 -9999 -9999 -9999 -9999 -9999 -9999 -9999 -9999 -9999 -9999 -9999 -9999 -9999 -9999 -9999 -9999 -9999 -9999 -9999 -9999 -9999 -9999 -9999 -9999 -9999 -9999 -9999 -9999 -9999
 -9999 -9999 -9999 -9999 -9999 -9999 -9999 -9999 -9999 -9999 -9999 -9999 -9999 -9999 -9999 -9999 -9999 -9999 -9999 -9999 -9999 -9999 -9999 -9999 -9999 -9999 -9999 -9999 -9999 -9999 -9999 -9999 -9999 -9999 -9999 -9999 -9999 -9999 -9999 -9999 -9999 -9999 -9999 -9999 -9999 -9999 -9999 -9999 -9999 -9999 -9999 -9999 -9999 -9999 -9999 -9999 -9999 -9999 -9999 -9999 -9999 -9999 -9999 -9999 -9999 -9999 -9999 3.6311116218566894531 3.4920089244842529297 3.3452191352844238281 3.4896402359008789063 2.1257948875427246094 3.6423547267913818359 3.62934112548828125 3.7993922233581542969 3.8790233135223388672 3.7061874866485595703 3.6355168819427490234 3.6678497791290283203 3.4471771717071533203 2.8109445571899414063 2.5795276165008544922 2.4730749130249023438 2.405284881591796875 2.3555953502655029297 2.3498194217681884766 2.431873321533203125 2.5115077495574951172 2.2976665496826171875 2.2888619899749755859 2.4378006458282470703 2.6613717079162597656 2.8031024932861328125 2.4852850437164306641 2.3365066051483154297 1.2473311424255371094 2.3327381610870361328 2.4593818187713623047 2.5565853118896484375 2.6277556419372558594 2.7148337364196777344 2.7900333404541015625 2.8415207862854003906 -9999 -9999 -9999 -9999 -9999 -9999 -9999 -9999 -9999 -9999 -9999 -9999 -9999 -9999 -9999 -9999 -9999 -9999 -9999 -9999 -9999 -9999 -9999 -9999 -9999 -9999 -9999 -9999 -9999 -9999 -9999 -9999 -9999
 -9999 -9999 -9999 -9999 -9999 -9999 -9999 -9999 -9999 -9999 -9999 -9999 -9999 -9999 -9999 -9999 -9999 -9999 -9999 -9999 -9999 -9999 -9999 -9999 -9999 -9999 -9999 -9999 -9999 -9999 -9999 -9999 -9999 -9999 -9999 -9999 -9999 -9999 -9999 -9999 -9999 -9999 -9999 -9999 -9999 -9999 -9999 -9999 -9999 -9999 -9999 -9999 -9999 -9999 -9999 -9999 -9999 -9999 -9999 -9999 -9999 -9999 -9999 -9999 3.3463776111602783203 3.3162353038787841797 3.3160607814788818359 3.3174848556518554688 3.2353665828704833984 3.1535792350769042969 2.1440236568450927734 2.1369006633758544922 3.7358200550079345703 3.5469701290130615234 3.6922080516815185547 3.8349928855895996094 3.79285430908203125 3.6165795326232910156 3.218929290771484375 2.9083108901977539063 2.6957323551177978516 2.6569221019744873047 2.5560166835784912109 2.4545142650604248047 2.3242943286895751953 2.2549812793731689453 2.4191825389862060547 2.6756637096405029297 2.3325383663177490234 2.1470613479614257813 2.1981329917907714844 2.3644537925720214844 2.4611670970916748047 2.2902984619140625 1.2473311424255371094 2.3315298557281494141 2.4609568119049072266 2.5682733058929443359 2.6554553508758544922 2.7193651199340820313 2.7684185504913330078 2.8008735179901123047 -9999 -9999 -9999 -9999 -9999 -9999 -9999 -9999 -9999 -9999 -9999 -9999 -9999 -9999 -9999 -9999 -9999 -9999 -9999 -9999 -9999 -9999 -9999 -9999 -9999 -9999 -9999 -9999 -9999 -9999 -9999 -9999 -9999 -9999
 -9999 -9999 -9999 -9999 -9999 -9999 -9999 -9999 -9999 -9999 -9999 -9999 -9999 -9999 -9999 -9999 -9999 -9999 -9999 -9999 -9999 -9999 -9999 -9999 -9999 -9999 -9999 -9999 -9999 -9999 -9999 -9999 -9999 -9999 -9999 -9999 -9999 -9999 -9999 -9999 -9999 -9999 -9999 -9999 -9999 -9999 -9999 -9999 -9999 -9999 -9999 -9999 -9999 -9999 -9999 -9999 -9999 -9999 -9999 -9999 -9999 -9999 3.8388638496398925781 3.5945365428924560547 3.3562400341033935547 3.2558629512786865234 3.165706634521484375 3.0178916454315185547 2.9771268367767333984 2.1538527011871337891 2.1497926712036132813 4.0111088752746582031 4.0176634788513183594 3.7149989604949951172 3.7806401252746582031 3.92620849609375 3.9021718502044677734 3.6890559196472167969 3.1603403091430664063 2.8441054821014404297 2.9255807399749755859 2.9931499958038330078 2.7642846107482910156 2.5656237602233886719 2.4107251167297363281 2.3385171890258789063 2.4234585762023925781 2.5575437545776367188 2.3394198417663574219 2.1672220230102539063 2.1034007072448730469 2.1758806705474853516 2.1553950309753417969 1.1337046623229980469 2.2841310501098632813 2.4576523303985595703 2.5685765743255615234 2.6602590084075927734 2.7311763763427734375 2.7692973613739013672 -9999 -9999 -9999 -9999 -9999 -9999 -9999 -9999 -9999 -9999 -9999 -9999 -9999 -9999 -9999 -9999 -9999 -9999 -9999 -9999 -9999 -9999 -9999 -9999 -9999 -9999 -9999 -9999 -9999 -9999 -9999 -9999 -9999 -9999 -9999 -9999
 -9999 -9999 -9999 -9999 -9999 -9999 -9999 -9999 -9999 -9999 -9999 -9999 -9999 -9999 -9999 -9999 -9999 -9999 -9999 -9999 -9999 -9999 -9999 -9999 -9999 -9999 -9999 -9999 -9999 -9999 -9999 -9999 -9999 -9999 -9999 -9999 -9999 -9999 -9999 -9999 -9999 -9999 -9999 -9999 -9999 -9999 -9999 -9999 -9999 -9999 -9999 -9999 -9999 -9999 -9999 4.298259735107421875 4.2905225753784179688 -9999 -9999 -9999 -9999 -9999 4.0267305374145507813 3.7498974800109863281 3.4491889476776123047 3.2391009330749511719 3.0527498722076416016 2.8933603763580322266 1.9101216793060302734 1.1615378856658935547 3.5535101890563964844 3.9500038623809814453 4.1358652114868164063 3.9818246364593505859 3.9079413414001464844 3.9332022666931152344 3.9316625595092773438 3.8854134082794189453 3.6494867801666259766 3.2184593677520751953 3.0937960147857666016 3.1831953525543212891 3.0076842308044433594 2.7212975025177001953 2.5440158843994140625 2.4283015727996826172 2.4256036281585693359 2.4742429256439208984 2.39501190185546875 2.2807743549346923828 2.1659090518951416016 2.1715412139892578125 1.1826317310333251953 2.2696490287780761719 2.4437129497528076172 2.5675261020660400391 2.660282135009765625 2.7315342426300048828 2.7703218460083007813 -9999 -9999 -9999 -9999 -9999 -9999 -9999 -9999 -9999 -9999 -9999 -9999 -9999 -9999 -9999 -9999 -9999 -9999 -9999 -9999 -9999 -9999 -9999 -9999 -9999 -9999 -9999 -9999 -9999 -9999 -9999 -9999 -9999 -9999 -9999 -9999 -9999
 -9999 -9999 -9999 -9999 -9999 -9999 -9999 -9999 -9999 -9999 -9999 -9999 -9999 -9999 -9999 -9999 -9999 -9999 -9999 -9999 -9999 -9999 -9999 -9999 -9999 -9999 -9999 -9999 -9999 -9999 -9999 -9999 -9999 -9999 -9999 -9999 -9999 -9999 -9999 -9999 -9999 -9999 -9999 -9999 -9999 -9999 -9999 -9999 -9999 -9999 -9999 -9999 -9999 -9999 4.3925147056579589844 4.2692804336547851563 4.2601494789123535156 4.2821331024169921875 -9999 -9999 -9999 4.1421780586242675781 4.1050486564636230469 3.95946502685546875 3.7165153026580810547 3.4003396034240722656 3.0908732414245605469 2.0112631320953369141 3.0180861949920654297 3.0473959445953369141 3.2279300689697265625 3.6737782955169677734 4.0695433616638183594 4.0677695274353027344 3.7938563823699951172 3.6530551910400390625 3.67218017578125 3.8873784542083740234 4.169193267822265625 3.6790285110473632813 3.2483835220336914063 3.2243902683258056641 3.0902538299560546875 2.9389193058013916016 2.6694185733795166016 2.4272572994232177734 2.3978490829467773438 2.4815716743469238281 2.4633939266204833984 2.3624663352966308594 2.2228453159332275391 1.1901333332061767578 2.300632476806640625 2.45503997802734375 2.5678369998931884766 2.6603777408599853516 2.7315466403961181641 2.7703218460083007813 -9999 -9999 -9999 -9999 -9999 -9999 -9999 -9999 -9999 -9999 -9999 -9999 -9999 -9999 -9999 -9999 -9999 -9999 -9999 -9999 -9999 -9999 -9999 -9999 -9999 -9999 -9999 -9999 -9999 -9999 -9999 -9999 -9999 -9999 -9999 -9999 -9999 -9999
 -9999 -9999 -9999 -9999 -9999 -9999 -9999 -9999 -9999 -9999 -9999 -9999 -9999 -9999 -9999 -9999 -9999 -9999 -9999 -9999 -9999 -9999 -9999 -9999 -9999 -9999 -9999 -9999 -9999 -9999 -9999 -9999 -9999 -9999 -9999 -9999 -9999 -9999 -9999 -9999 -9999 -9999 -9999 -9999 -9999 -9999 -9999 -9999 -9999 -9999 -9999 -9999 -9999 4.4651188850402832031 4.3674955368041992188 4.2241005897521972656 4.227146148681640625 4.2573351860046386719 4.2613539695739746094 4.2496123313903808594 4.1964263916015625 4.120670318603515625 4.0820751190185546875 4.036968231201171875 3.8541443347930908203 3.5542132854461669922 2.2994341850280761719 3.2251534461975097656 3.1865744590759277344 3.0908963680267333984 3.1135768890380859375 3.4184782505035400391 3.7665512561798095703 3.7968454360961914063 3.5365185737609863281 3.4375035762786865234 3.4511842727661132813 3.6936371326446533203 4.1652264595031738281 3.9501729011535644531 3.5112557411193847656 3.3238663673400878906 3.1126120090484619141 3.1155016422271728516 2.8829634189605712891 2.5977215766906738281 2.6011526584625244141 2.7519612312316894531 2.6004061698913574219 2.3693187236785888672 1.2473311424255371094 2.2446727752685546875 2.4253227710723876953 2.5681006908416748047 2.6651821136474609375 2.7338848114013671875 2.7705528736114501953 -9999 -9999 -9999 -9999 -9999 -9999 -9999 -9999 -9999 -9999 -9999 -9999 -9999 -9999 -9999 -9999 -9999 -9999 -9999 -9999 -9999 -9999 -9999 -9999 -9999 -9999 -9999 -9999 -9999 -9999 -9999 -9999 -9999 -9999 -9999 -9999 -9999 -9999 -9999
 -9999 -9999 -9999 -9999 -9999 -9999 -9999 -9999 -9999 -9999 -9999 -9999 -9999 -9999 -9999 -9999 -9999 -9999 -9999 -9999 -9999 -9999 -9999 -9999 -9999 -9999 -9999 -9999 -9999 -9999 -9999 -9999 -9999 -9999 -9999 -9999 -9999 -9999 -9999 -9999 -9999 -9999 -9999 -9999 -9999 -9999 -9999 -9999 -9999 -9999 -9999 -9999 4.5067133903503417969 4.4309930801391601563 4.3155050277709960938 4.1952471733093261719 4.1736063957214355469 4.2098793983459472656 4.2096362113952636719 4.1840810775756835938 4.1380562782287597656 4.1144404411315917969 4.0933461189270019531 4.0498018264770507813 2.8642990589141845703 2.6123318672180175781 3.4101994037628173828 3.3616464138031005859 3.3351294994354248047 3.2523448467254638672 3.2265086174011230469 3.3476955890655517578 3.5111441612243652344 3.5752213001251220703 3.5491917133331298828 3.5184655189514160156 3.4842312335968017578 3.5789055824279785156 3.7860608100891113281 3.6653044223785400391 3.4794116020202636719 3.4361739158630371094 3.2538115978240966797 3.2213733196258544922 3.3737244606018066406 3.1613392829895019531 3.1108222007751464844 3.1453583240509033203 2.6847183704376220703 1.3604874610900878906 2.3969814777374267578 2.4483633041381835938 2.5567305088043212891 2.6634457111358642578 2.7418653964996337891 2.7774257659912109375 -9999 -9999 -9999 -9999 -9999 -9999 -9999 -9999 -9999 -9999 -9999 -9999 -9999 -9999 -9999 -9999 -9999 -9999 -9999 -9999 -9999 -9999 -9999 -9999 -9999 -9999 -9999 -9999 -9999 -9999 -9999 -9999 -9999 -9999 -9999 -9999 -9999 -9999 -9999 -9999
 -9999 -9999 -9999 -9999 -9999 -9999 -9999 -9999 -9999 -9999 -9999 -9999 -9999 -9999 -9999 -9999 -9999 -9999 -9999 -9999 -9999 -9999 -9999 -9999 -9999 -9999 -9999 -9999 -9999 -9999 -9999 -9999 -9999 -9999 -9999 -9999 -9999 -9999 -9999 -9999 -9999 -9999 4.8272190093994140625 4.8243360519409179688 4.835506439208984375 4.8641972541809082031 -9999 -9999 -9999 -9999 -9999 4.54119873046875 4.5014042854309082031 4.422515869140625 4.3143324851989746094 4.1989321708679199219 4.0965771675109863281 4.1130118370056152344 4.1913723945617675781 4.2060151100158691406 4.1790094375610351563 4.1841082572937011719 4.2123188972473144531 2.8954257965087890625 2.8776147365570068359 3.7591044902801513672 3.5610589981079101563 3.5015218257904052734 3.4709684848785400391 3.4057064056396484375 3.4156744480133056641 3.3853349685668945313 3.3855891227722167969 3.4403617382049560547 3.5239171981811523438 3.5675642490386962891 3.5464444160461425781 3.5066175460815429688 3.3939874172210693359 3.2168779373168945313 3.1871969699859619141 3.4358601570129394531 3.5817272663116455078 3.6014273166656494141 4.0536527633666992188 3.9962143898010253906 3.5368473529815673828 2.9493706226348876953 1.4798111915588378906 2.4320287704467773438 2.4864652156829833984 2.5507645606994628906 2.6534624099731445313 2.7347750663757324219 -9999 -9999 -9999 -9999 -9999 -9999 -9999 -9999 -9999 -9999 -9999 -9999 -9999 -9999 -9999 -9999 -9999 -9999 -9999 -9999 -9999 -9999 -9999 -9999 -9999 -9999 -9999 -9999 -9999 -9999 -9999 -9999 -9999 -9999 -9999 -9999 -9999 -9999 -9999 -9999 -9999 -9999
 -9999 -9999 -9999 -9999 -9999 -9999 -9999 -9999 -9999 -9999 -9999 -9999 -9999 -9999 -9999 -9999 -9999 -9999 -9999 -9999 -9999 -9999 -9999 -9999 -9999 -9999 -9999 -9999 -9999 -9999 -9999 -9999 -9999 -9999 -9999 -9999 -9999 -9999 -9999 -9999 4.8478479385375976563 4.7430787086486816406 4.6837925910949707031 4.6835799217224121094 4.7142424583435058594 4.7905383110046386719 4.8775157928466796875 -9999 -9999 4.6408591270446777344 4.6044077873229980469 4.5394673347473144531 4.5117154121398925781 4.4856691360473632813 4.394618988037109375 4.2504415512084960938 4.060581207275390625 4.009716033935546875 4.1741633415222167969 4.2418799400329589844 4.1997141838073730469 4.1477904319763183594 2.9289100170135498047 2.9148087501525878906 3.9150345325469970703 3.8439669609069824219 3.6993143558502197266 3.6097307205200195313 3.5778925418853759766 3.5505571365356445313 3.570339202880859375 3.4882991313934326172 3.3254978656768798828 3.2867665290832519531 3.37494659423828125 3.5725674629211425781 3.6185991764068603516 3.4996981620788574219 3.1976373195648193359 2.995235443115234375 2.9886605739593505859 3.1722571849822998047 3.4528396129608154297 3.8965995311737060547 4.2868070602416992188 3.9148554801940917969 3.1480603218078613281 1.6282608509063720703 2.4270451068878173828 2.4326038360595703125 2.5080742835998535156 2.5907375812530517578 2.7090578079223632813 -9999 -9999 -9999 -9999 -9999 -9999 -9999 -9999 -9999 -9999 -9999 -9999 -9999 -9999 -9999 -9999 -9999 -9999 -9999 -9999 -9999 -9999 -9999 -9999 -9999 -9999 -9999 -9999 -9999 -9999 -9999 -9999 -9999 -9999 -9999 -9999 -9999 -9999 -9999 -9999 -9999 -9999 -9999
 -9999 -9999 -9999 -9999 -9999 -9999 -9999 -9999 -9999 -9999 -9999 -9999 -9999 -9999 -9999 -9999 -9999 -9999 -9999 -9999 -9999 -9999 -9999 -9999 -9999 -9999 -9999 -9999 -9999 -9999 -9999 -9999 -9999 -9999 -9999 -9999 -9999 -9999 -9999 -9999 4.7365097999572753906 4.5640120506286621094 4.5320420265197753906 4.6098237037658691406 4.7302002906799316406 4.8402261734008789063 4.9982028007507324219 -9999 -9999 4.6173052787780761719 4.5748920440673828125 4.5053524971008300781 4.4891619682312011719 4.5102777481079101563 4.426044464111328125 4.2548356056213378906 4.0545701980590820313 4.0063347816467285156 4.1763262748718261719 4.2507014274597167969 4.209247589111328125 2.9702272415161132813 4.1218748092651367188 4.0453228950500488281 3.8867819309234619141 3.8657953739166259766 3.7836394309997558594 3.68447113037109375 3.649566650390625 3.6342172622680664063 3.6176173686981201172 3.5327496528625488281 3.3717443943023681641 3.2836849689483642578 3.3050639629364013672 3.4642710685729980469 3.4953844547271728516 3.3792977333068847656 3.1081449985504150391 2.9631969928741455078 2.9724900722503662109 3.0758483409881591797 3.3132004737854003906 3.7894461154937744141 3.8795952796936035156 3.2457849979400634766 0.71323716640472412109 2.5421967506408691406 2.5017521381378173828 2.6295285224914550781 2.7446048259735107422 2.7234613895416259766 2.7538578510284423828 -9999 -9999 -9999 -9999 -9999 -9999 -9999 -9999 -9999 -9999 -9999 -9999 -9999 -9999 -9999 -9999 -9999 -9999 -9999 -9999 -9999 -9999 -9999 -9999 -9999 -9999 -9999 -9999 -9999 -9999 -9999 -9999 -9999 -9999 -9999 -9999 -9999 -9999 -9999 -9999 -9999 -9999 -9999
 -9999 -9999 -9999 -9999 -9999 -9999 -9999 -9999 -9999 -9999 -9999 -9999 -9999 -9999 -9999 -9999 -9999 -9999 -9999 -9999 -9999 -9999 -9999 -9999 -9999 -9999 -9999 -9999 -9999 -9999 -9999 -9999 -9999 -9999 -9999 -9999 -9999 -9999 4.6871323585510253906 4.6972484588623046875 4.6577548980712890625 4.5228161811828613281 4.4676938056945800781 4.5920348167419433594 4.8907361030578613281 5.0929512977600097656 5.2620463371276855469 5.1687440872192382813 4.7937364578247070313 4.5679655075073242188 4.478710174560546875 4.3970084190368652344 4.3670916557312011719 4.4314298629760742188 4.3752145767211914063 4.1857919692993164063 4.0357646942138671875 4.0570688247680664063 4.1423435211181640625 4.1810550689697265625 2.995700836181640625 4.1692814826965332031 4.1140360832214355469 4.0001592636108398438 3.9365708827972412109 3.931621551513671875 3.9230046272277832031 3.8389403820037841797 3.7928791046142578125 3.7532675266265869141 3.6677107810974121094 3.5823361873626708984 3.5364947319030761719 3.4343295097351074219 3.2882864475250244141 3.1930963993072509766 3.1314725875854492188 3.0725541114807128906 2.9869246482849121094 2.9927470684051513672 3.0502295494079589844 3.1486086845397949219 3.2527141571044921875 3.3151369094848632813 3.1531658172607421875 0.83349740505218505859 2.6879601478576660156 2.7369818687438964844 2.9048047065734863281 3.1348354816436767578 3.2246522903442382813 -9999 -9999 -9999 -9999 -9999 -9999 -9999 -9999 -9999 -9999 -9999 -9999 -9999 -9999 -9999 -9999 -9999 -9999 -9999 -9999 -9999 -9999 -9999 -9999 -9999 -9999 -9999 -9999 -9999 -9999 -9999 -9999 -9999 -9999 -9999 -9999 -9999 -9999 -9999 -9999 -9999 -9999 -9999 -9999 -9999
 -9999 -9999 -9999 -9999 -9999 -9999 -9999 -9999 -9999 -9999 -9999 -9999 -9999 -9999 -9999 -9999 -9999 -9999 -9999 -9999 -9999 -9999 -9999 -9999 -9999 -9999 -9999 -9999 -9999 -9999 -9999 -9999 -9999 -9999 -9999 -9999 -9999 4.6381850242614746094 4.6254553794860839844 4.6208481788635253906 4.5993895530700683594 4.5588240623474121094 4.5217976570129394531 4.5591168403625488281 4.8031687736511230469 5.0687165260314941406 5.2022013664245605469 5.0933160781860351563 4.8644075393676757813 4.5354552268981933594 4.3615832328796386719 4.2973003387451171875 4.2424726486206054688 4.2716431617736816406 4.2334074974060058594 4.1001157760620117188 4.0158033370971679688 4.0273418426513671875 4.0074563026428222656 3.0188341140747070313 4.1077098846435546875 4.1912755966186523438 4.1687684059143066406 4.0882740020751953125 4.0746660232543945313 4.0454540252685546875 4.040958404541015625 4.0220417976379394531 3.9730963706970214844 3.8718595504760742188 3.7845964431762695313 3.677734375 3.618701934814453125 3.5382428169250488281 3.3511991500854492188 3.1743857860565185547 3.0601260662078857422 2.9974248409271240234 2.9506812095642089844 3.0185606479644775391 3.1195795536041259766 3.2184863090515136719 3.1825816631317138672 2.9737672805786132813 1.8150229454040527344 2.7477099895477294922 2.7536175251007080078 2.9240515232086181641 3.2226808071136474609 3.4349613189697265625 -9999 -9999 -9999 -9999 -9999 -9999 -9999 -9999 -9999 -9999 -9999 -9999 -9999 -9999 -9999 -9999 -9999 -9999 -9999 -9999 -9999 -9999 -9999 -9999 -9999 -9999 -9999 -9999 -9999 -9999 -9999 -9999 -9999 -9999 -9999 -9999 -9999 -9999 -9999 -9999 -9999 -9999 -9999 -9999 -9999 -9999
 -9999 -9999 -9999 -9999 -9999 -9999 -9999 -9999 -9999 -9999 -9999 -9999 -9999 -9999 -9999 -9999 -9999 -9999 -9999 -9999 -9999 -9999 -9999 -9999 -9999 -9999 -9999 -9999 -9999 -9999 -9999 -9999 -9999 -9999 -9999 -9999 4.6199092864990234375 4.55704498291015625 4.5068507194519042969 4.4824695587158203125 4.4996094703674316406 4.4989566802978515625 4.4611001014709472656 4.4517908096313476563 4.5831623077392578125 4.7606267929077148438 4.8429841995239257813 4.8350162506103515625 4.8178997039794921875 4.5556859970092773438 4.3915371894836425781 4.31646728515625 4.2429251670837402344 4.1452612876892089844 4.052944183349609375 4.064456939697265625 4.10393524169921875 4.0629281997680664063 4.0330262184143066406 3.059955596923828125 4.1416645050048828125 4.1706485748291015625 4.1235361099243164063 4.0569329261779785156 4.0137014389038085938 4.0385804176330566406 4.0918192863464355469 4.1397943496704101563 4.0850663185119628906 3.9081237316131591797 3.7817423343658447266 3.6410956382751464844 3.5982644557952880859 3.5479283332824707031 3.4935159683227539063 3.4123356342315673828 3.2401666641235351563 3.1314656734466552734 3.0481538772583007813 3.0947766304016113281 3.2102668285369873047 3.1817853450775146484 3.0213019847869873047 1.7979905605316162109 2.8208234310150146484 2.7994089126586914063 2.837688446044921875 3.0270328521728515625 3.3085513114929199219 -9999 -9999 -9999 -9999 -9999 -9999 -9999 -9999 -9999 -9999 -9999 -9999 -9999 -9999 -9999 -9999 -9999 -9999 -9999 -9999 -9999 -9999 -9999 -9999 -9999 -9999 -9999 -9999 -9999 -9999 -9999 -9999 -9999 -9999 -9999 -9999 -9999 -9999 -9999 -9999 -9999 -9999 -9999 -9999 -9999 -9999 -9999
 -9999 -9999 -9999 -9999 -9999 -9999 -9999 -9999 -9999 -9999 -9999 -9999 -9999 -9999 -9999 -9999 -9999 -9999 -9999 -9999 -9999 -9999 -9999 -9999 -9999 -9999 -9999 -9999 -9999 -9999 -9999 -9999 -9999 -9999 -9999 4.5957384109497070313 4.5501332283020019531 4.4757256507873535156 4.4332489967346191406 4.4117283821105957031 4.4531207084655761719 4.4604506492614746094 4.4197459220886230469 4.4163608551025390625 4.469936370849609375 4.5078139305114746094 4.5620889663696289063 4.6396355628967285156 4.6486186981201171875 4.5270361900329589844 4.4339900016784667969 4.3444576263427734375 4.2729573249816894531 4.1060352325439453125 3.9671328067779541016 4.0517306327819824219 4.1747469902038574219 4.1719646453857421875 3.1305203437805175781 3.1322231292724609375 4.1542220115661621094 4.0812091827392578125 3.9323508739471435547 3.8295876979827880859 3.7698843479156494141 3.9527318477630615234 4.115200042724609375 4.1470937728881835938 4.0994210243225097656 3.945995330810546875 3.7565639019012451172 3.6098787784576416016 3.5769011974334716797 3.5585508346557617188 3.6069109439849853516 3.6026110649108886719 3.4984669685363769531 3.3911273479461669922 3.2134530544281005859 3.1331052780151367188 3.1428856849670410156 2.9571626186370849609 1.7821142673492431641 2.8892259597778320313 2.8992073535919189453 2.8795657157897949219 2.9126899242401123047 3.0537242889404296875 -9999 -9999 -9999 -9999 -9999 -9999 -9999 -9999 -9999 -9999 -9999 -9999 -9999 -9999 -9999 -9999 -9999 -9999 -9999 -9999 -9999 -9999 -9999 -9999 -9999 -9999 -9999 -9999 -9999 -9999 -9999 -9999 -9999 -9999 -9999 -9999 -9999 -9999 -9999 -9999 -9999 -9999 -9999 -9999 -9999 -9999 -9999 -9999
 -9999 -9999 -9999 -9999 -9999 -9999 -9999 -9999 -9999 -9999 -9999 -9999 -9999 -9999 -9999 -9999 -9999 -9999 -9999 -9999 -9999 -9999 -9999 -9999 -9999 -9999 -9999 4.5540022850036621094 -9999 4.5521569252014160156 4.5505933761596679688 4.5476660728454589844 4.5519366264343261719 4.5721879005432128906 4.5704503059387207031 4.5068912506103515625 4.4389557838439941406 4.3615236282348632813 4.368740081787109375 4.3704819679260253906 4.4044098854064941406 4.4115114212036132813 4.3810882568359375 4.3689146041870117188 4.3794884681701660156 4.3861460685729980469 4.4321880340576171875 4.5369563102722167969 4.5147643089294433594 4.4051766395568847656 4.3623895645141601563 4.3632493019104003906 4.3223948478698730469 4.1448488235473632813 4.0245070457458496094 4.04346466064453125 4.1296381950378417969 4.2006320953369140625 3.1366050243377685547 4.2337188720703125 4.1748175621032714844 4.0671415328979492188 3.9870696067810058594 3.8403987884521484375 3.7054276466369628906 3.8447844982147216797 4.0530595779418945313 4.0185904502868652344 3.9755258560180664063 3.9533824920654296875 3.8392310142517089844 3.6894063949584960938 3.6494929790496826172 3.6419267654418945313 3.6887445449829101563 3.6994891166687011719 3.5984134674072265625 3.4639189243316650391 3.18227386474609375 2.9326374530792236328 2.8728795051574707031 1.7625219821929931641 2.8648929595947265625 2.9154036045074462891 2.9392001628875732422 2.9557666778564453125 2.9784567356109619141 -9999 -9999 -9999 -9999 -9999 -9999 -9999 -9999 -9999 -9999 -9999 -9999 -9999 -9999 -9999 -9999 -9999 -9999 -9999 -9999 -9999 -9999 -9999 -9999 -9999 -9999 -9999 -9999 -9999 -9999 -9999 -9999 -9999 -9999 -9999 -9999 -9999 -9999 -9999 -9999 -9999 -9999 -9999 -9999 -9999 -9999 -9999 -9999 -9999
 -9999 -9999 -9999 -9999 -9999 -9999 -9999 -9999 -9999 -9999 -9999 -9999 -9999 -9999 -9999 -9999 -9999 -9999 -9999 -9999 -9999 -9999 -9999 -9999 -9999 -9999 4.5770206451416015625 4.5468106269836425781 4.5332646369934082031 4.5293269157409667969 4.5314126014709472656 4.5402302742004394531 4.5475602149963378906 4.56333160400390625 4.5608315467834472656 4.4664921760559082031 4.3417863845825195313 4.3004980087280273438 4.3209753036499023438 4.2901515960693359375 4.2643399238586425781 4.2572894096374511719 4.2470655441284179688 4.2401547431945800781 4.2660970687866210938 4.3244090080261230469 4.3599400520324707031 4.3525710105895996094 4.337306976318359375 4.285717010498046875 4.2824678421020507813 4.3542337417602539063 4.380336761474609375 4.2165203094482421875 4.1014151573181152344 4.1224727630615234375 4.1651201248168945313 4.2292304039001464844 3.1381647586822509766 4.4409327507019042969 4.23513031005859375 4.040904998779296875 3.9610621929168701172 3.9174294471740722656 3.8663592338562011719 3.9661939144134521484 4.0608773231506347656 4.0150198936462402344 4.0024495124816894531 4.034687042236328125 3.9883911609649658203 3.8918614387512207031 3.8088159561157226563 3.7332937717437744141 3.6756181716918945313 3.6316125392913818359 3.4821290969848632813 3.304462432861328125 2.9782688617706298828 2.7704327106475830078 1.7457288503646850586 2.9947571754455566406 3.0370268821716308594 3.0069134235382080078 2.9796307086944580078 2.9883885383605957031 3.0162005424499511719 -9999 -9999 -9999 -9999 -9999 -9999 -9999 -9999 -9999 -9999 -9999 -9999 -9999 -9999 -9999 -9999 -9999 -9999 -9999 -9999 -9999 -9999 -9999 -9999 -9999 -9999 -9999 -9999 -9999 -9999 -9999 -9999 -9999 -9999 -9999 -9999 -9999 -9999 -9999 -9999 -9999 -9999 -9999 -9999 -9999 -9999 -9999 -9999 -9999
 -9999 -9999 -9999 -9999 -9999 -9999 -9999 -9999 -9999 -9999 -9999 -9999 -9999 -9999 -9999 -9999 -9999 -9999 -9999 -9999 -9999 -9999 -9999 -9999 -9999 -9999 4.5806212425231933594 4.5407590866088867188 4.5194849967956542969 4.510921478271484375 4.5267844200134277344 4.5732431411743164063 4.5823507308959960938 4.5486202239990234375 4.5121660232543945313 4.4557104110717773438 4.3439340591430664063 4.2959203720092773438 4.2477273941040039063 4.1649756431579589844 4.1052613258361816406 4.1150751113891601563 4.1746435165405273438 4.2105922698974609375 4.2948207855224609375 4.3632488250732421875 4.3017339706420898438 4.2631578445434570313 4.2773537635803222656 4.1847443580627441406 4.1672120094299316406 4.293666839599609375 4.4121446609497070313 4.27738189697265625 4.154582977294921875 4.2168002128601074219 4.25807952880859375 3.1426370143890380859 4.5045337677001953125 4.5585570335388183594 4.3596134185791015625 4.0679240226745605469 3.9181272983551025391 3.9661066532135009766 4.0625448226928710938 4.1137061119079589844 4.1162128448486328125 4.2519478797912597656 4.3286161422729492188 4.2904720306396484375 4.1409115791320800781 4.0926733016967773438 3.9555933475494384766 3.7655346393585205078 3.6386058330535888672 3.4717230796813964844 3.2400372028350830078 3.0525302886962890625 2.7766675949096679688 -1.2723710536956787109 3.0119178295135498047 3.2014880180358886719 3.2169301509857177734 3.1474895477294921875 3.048435211181640625 -9999 -9999 -9999 -9999 -9999 -9999 -9999 -9999 -9999 -9999 -9999 -9999 -9999 -9999 -9999 -9999 -9999 -9999 -9999 -9999 -9999 -9999 -9999 -9999 -9999 -9999 -9999 -9999 -9999 -9999 -9999 -9999 -9999 -9999 -9999 -9999 -9999 -9999 -9999 -9999 -9999 -9999 -9999 -9999 -9999 -9999 -9999 -9999 -9999 -9999 -9999
 -9999 -9999 -9999 -9999 -9999 -9999 -9999 -9999 -9999 -9999 -9999 -9999 -9999 -9999 -9999 -9999 -9999 -9999 -9999 -9999 -9999 -9999 -9999 -9999 -9999 -9999 4.5780463218688964844 4.5359377861022949219 4.505893707275390625 4.4917612075805664063 4.5133581161499023438 4.5838637351989746094 4.6258225440979003906 4.6023917198181152344 4.5250506401062011719 4.4866042137145996094 4.43155670166015625 4.3287191390991210938 4.1825723648071289063 4.1345639228820800781 4.1140804290771484375 4.1177239418029785156 4.1822209358215332031 4.3150792121887207031 4.4093332290649414063 4.3391680717468261719 4.2398691177368164063 4.2434191703796386719 4.3016161918640136719 4.1864805221557617188 4.13311767578125 4.2161049842834472656 4.3698878288269042969 4.3239316940307617188 4.1089696884155273438 4.0652709007263183594 3.1462802886962890625 4.2754259109497070313 4.4326481819152832031 4.5318932533264160156 4.5690903663635253906 4.3778624534606933594 4.04901123046875 4.0497484207153320313 4.1993756294250488281 4.179233551025390625 4.0628829002380371094 4.3047785758972167969 4.4341068267822265625 4.3625965118408203125 4.2094035148620605469 4.1786904335021972656 4.0460691452026367188 3.7892007827758789063 3.6203761100769042969 3.3986313343048095703 3.1308646202087402344 2.9992344379425048828 2.8740637302398681641 -1.212578892707824707 3.1431167125701904297 3.3282701969146728516 3.3501949310302734375 3.3029601573944091797 -9999 -9999 -9999 -9999 -9999 -9999 -9999 -9999 -9999 -9999 -9999 -9999 -9999 -9999 -9999 -9999 -9999 -9999 -9999 -9999 -9999 -9999 -9999 -9999 -9999 -9999 -9999 -9999 -9999 -9999 -9999 -9999 -9999 -9999 -9999 -9999 -9999 -9999 -9999 -9999 -9999 -9999 -9999 -9999 -9999 -9999 -9999 -9999 -9999 -9999 -9999 -9999
 -9999 -9999 -9999 -9999 -9999 -9999 -9999 -9999 -9999 -9999 -9999 -9999 -9999 -9999 -9999 -9999 -9999 -9999 -9999 -9999 -9999 -9999 -9999 -9999 -9999 -9999 4.577007293701171875 4.532505035400390625 4.4943590164184570313 4.4779119491577148438 4.4836411476135253906 4.5295863151550292969 4.5870585441589355469 4.5830860137939453125 4.5073657035827636719 4.4664249420166015625 4.4217233657836914063 4.3203096389770507813 4.1964569091796875 4.1717915534973144531 4.1609649658203125 4.1531033515930175781 4.1990747451782226563 4.3550601005554199219 4.4324798583984375 4.3242616653442382813 4.2438077926635742188 4.2550363540649414063 4.3240604400634765625 4.2727746963500976563 4.208972930908203125 4.1964559555053710938 4.3337831497192382813 4.333042144775390625 4.1091847419738769531 2.7005248069763183594 2.7005248069763183594 4.2625498771667480469 4.3882541656494140625 4.4847254753112792969 4.6132421493530273438 4.5525269508361816406 4.2392077445983886719 4.165439605712890625 4.2105364799499511719 4.1347670555114746094 3.9764490127563476563 4.1787629127502441406 4.303852081298828125 4.2650904655456542969 4.1409964561462402344 4.1022362709045410156 4.0272297859191894531 3.8309464454650878906 3.6313631534576416016 3.4297831058502197266 3.20416259765625 3.1238763332366943359 -0.14062249660491943359 -1.1237211227416992188 3.2960429191589355469 3.4150142669677734375 3.4117188453674316406 3.4109356403350830078 -9999 -9999 -9999 -9999 -9999 -9999 -9999 -9999 -9999 -9999 -9999 -9999 -9999 -9999 -9999 -9999 -9999 -9999 -9999 -9999 -9999 -9999 -9999 -9999 -9999 -9999 -9999 -9999 -9999 -9999 -9999 -9999 -9999 -9999 -9999 -9999 -9999 -9999 -9999 -9999 -9999 -9999 -9999 -9999 -9999 -9999 -9999 -9999 -9999 -9999 -9999 -9999
 -9999 -9999 -9999 -9999 -9999 -9999 -9999 -9999 -9999 -9999 -9999 -9999 -9999 -9999 -9999 -9999 -9999 -9999 -9999 -9999 -9999 -9999 -9999 -9999 -9999 4.5959401130676269531 4.5680384635925292969 4.5275735855102539063 4.4997091293334960938 4.4862294197082519531 4.4790482521057128906 4.4985041618347167969 4.514636993408203125 4.4929485321044921875 4.4519677162170410156 4.3998284339904785156 4.3354105949401855469 4.2866830825805664063 4.2848062515258789063 4.2720646858215332031 4.2447009086608886719 4.235263824462890625 4.2564969062805175781 4.3266100883483886719 4.3690934181213378906 4.3425488471984863281 4.3176698684692382813 4.2865881919860839844 4.3127379417419433594 4.4201555252075195313 4.3842730522155761719 4.2326250076293945313 4.2995967864990234375 4.3256139755249023438 2.7005248069763183594 2.7005248069763183594 4.1957354545593261719 4.2514262199401855469 4.3589429855346679688 4.4156713485717773438 4.5138635635375976563 4.6265854835510253906 4.5366945266723632813 4.3424358367919921875 4.13472747802734375 3.993366241455078125 3.8690590858459472656 3.9275524616241455078 4.0039362907409667969 4.0430769920349121094 3.9626681804656982422 3.9067232608795166016 3.9215791225433349609 3.8915622234344482422 3.7226204872131347656 3.6242237091064453125 3.5351819992065429688 3.5366318225860595703 -0.084989145398139953613 -1.0537266731262207031 3.6664128303527832031 3.5660564899444580078 3.4476840496063232422 3.4496035575866699219 -9999 -9999 -9999 -9999 -9999 -9999 -9999 -9999 -9999 -9999 -9999 -9999 -9999 -9999 -9999 -9999 -9999 -9999 -9999 -9999 -9999 -9999 -9999 -9999 -9999 -9999 -9999 -9999 -9999 -9999 -9999 -9999 -9999 -9999 -9999 -9999 -9999 -9999 -9999 -9999 -9999 -9999 -9999 -9999 -9999 -9999 -9999 -9999 -9999 -9999 -9999 -9999
 -9999 -9999 -9999 -9999 -9999 -9999 -9999 -9999 -9999 -9999 -9999 -9999 -9999 -9999 -9999 -9999 -9999 -9999 -9999 -9999 -9999 -9999 -9999 -9999 -9999 4.6474466323852539063 4.5651135444641113281 4.5266270637512207031 4.5195422172546386719 4.5171561241149902344 4.5346584320068359375 4.5867705345153808594 4.5956673622131347656 4.5655107498168945313 4.5395598411560058594 4.4772577285766601563 4.4216184616088867188 4.3742380142211914063 4.3659582138061523438 4.3909535408020019531 4.4074139595031738281 4.4105296134948730469 4.3801379203796386719 4.3116526603698730469 4.3261775970458984375 4.3609819412231445313 4.3839707374572753906 4.3075618743896484375 4.2447729110717773438 4.3741526603698730469 4.382480621337890625 4.2553768157958984375 4.2641329765319824219 4.309635162353515625 2.7005248069763183594 4.4377794265747070313 4.3562097549438476563 4.2643418312072753906 4.3519687652587890625 4.407390594482421875 4.4735050201416015625 4.6251749992370605469 4.58206939697265625 4.3219394683837890625 4.0917444229125976563 3.9859807491302490234 3.9088687896728515625 3.8711614608764648438 3.8850989341735839844 3.9265296459197998047 3.9182138442993164063 3.9019069671630859375 3.8746039867401123047 3.8346192836761474609 3.8616888523101806641 3.980205535888671875 4.0276541709899902344 4.0695328712463378906 -1.0302628278732299805 4.1492328643798828125 3.9510564804077148438 3.6439561843872070313 3.5131580829620361328 3.5150585174560546875 -9999 -9999 -9999 -9999 -9999 -9999 -9999 -9999 -9999 -9999 -9999 -9999 -9999 -9999 -9999 -9999 -9999 -9999 -9999 -9999 -9999 -9999 -9999 -9999 -9999 -9999 -9999 -9999 -9999 -9999 -9999 -9999 -9999 -9999 -9999 -9999 -9999 -9999 -9999 -9999 -9999 -9999 -9999 -9999 -9999 -9999 -9999 -9999 -9999 -9999 -9999 -9999
 -9999 -9999 -9999 -9999 -9999 -9999 -9999 -9999 -9999 -9999 -9999 -9999 -9999 -9999 -9999 -9999 -9999 -9999 -9999 -9999 -9999 -9999 -9999 -9999 4.9846043586730957031 4.7675576210021972656 4.6146516799926757813 4.5443329811096191406 4.5161118507385253906 4.523036956787109375 4.5753297805786132813 4.6595630645751953125 4.687808990478515625 4.6780362129211425781 4.6520018577575683594 4.604084014892578125 4.5671343803405761719 4.5075821876525878906 4.4321341514587402344 4.4484076499938964844 4.5165333747863769531 4.5197415351867675781 4.4493083953857421875 4.3946313858032226563 4.4334049224853515625 4.4944372177124023438 4.4762048721313476563 4.4140253067016601563 4.3259434700012207031 4.2613620758056640625 4.2189083099365234375 4.1824955940246582031 4.2297916412353515625 2.7005248069763183594 4.4861621856689453125 4.6160898208618164063 4.5066618919372558594 4.378265380859375 4.4808812141418457031 4.541645050048828125 4.5585703849792480469 4.5881795883178710938 4.4515023231506347656 4.2123250961303710938 4.0930767059326171875 4.10900115966796875 4.0422663688659667969 3.9307053089141845703 3.8947854042053222656 3.8936793804168701172 3.8947484493255615234 3.8999960422515869141 3.8189837932586669922 3.7317869663238525391 3.8759427070617675781 4.2319207191467285156 4.3778223991394042969 0.041761118918657302856 -0.90640550851821899414 4.1491413116455078125 3.9421944618225097656 3.6724381446838378906 3.6720299720764160156 3.7005853652954101563 -9999 -9999 -9999 -9999 -9999 -9999 -9999 -9999 -9999 -9999 -9999 -9999 -9999 -9999 -9999 -9999 -9999 -9999 -9999 -9999 -9999 -9999 -9999 -9999 -9999 -9999 -9999 -9999 -9999 -9999 -9999 -9999 -9999 -9999 -9999 -9999 -9999 -9999 -9999 -9999 -9999 -9999 -9999 -9999 -9999 -9999 -9999 -9999 -9999 -9999 -9999 -9999
 -9999 -9999 -9999 -9999 -9999 -9999 -9999 -9999 -9999 -9999 -9999 -9999 -9999 -9999 -9999 -9999 -9999 -9999 -9999 -9999 -9999 -9999 -9999 -9999 5.1004199981689453125 4.8577260971069335938 4.6795444488525390625 4.5934190750122070313 4.542430877685546875 4.5621943473815917969 4.5796198844909667969 4.5942454338073730469 4.5977358818054199219 4.5878615379333496094 4.5701737403869628906 4.5448169708251953125 4.5284743309020996094 4.4977478981018066406 4.409450531005859375 4.39118194580078125 4.4098052978515625 4.4317841529846191406 4.4804067611694335938 4.5394830703735351563 4.6624040603637695313 4.78258514404296875 4.6182360649108886719 4.5252575874328613281 4.4808812141418457031 4.2618117332458496094 4.1587948799133300781 4.16924285888671875 2.7005248069763183594 4.4874224662780761719 4.6779761314392089844 4.811553955078125 4.7139306068420410156 4.5894908905029296875 4.6803407669067382813 4.7198429107666015625 4.6523866653442382813 4.5382809638977050781 4.357288360595703125 4.1437811851501464844 4.1054663658142089844 4.2199225425720214844 4.2186045646667480469 4.1189522743225097656 4.0617346763610839844 4.0132117271423339844 3.957317352294921875 3.8333344459533691406 3.7168908119201660156 3.7411031723022460938 3.9205765724182128906 4.1895904541015625 4.3146729469299316406 -0.91335964202880859375 -0.81013441085815429688 4.0899806022644042969 3.9965569972991943359 3.8864910602569580078 3.9199886322021484375 3.9724185466766357422 -9999 -9999 -9999 -9999 -9999 -9999 -9999 -9999 -9999 -9999 -9999 -9999 -9999 -9999 -9999 -9999 -9999 -9999 -9999 -9999 -9999 -9999 -9999 -9999 -9999 -9999 -9999 -9999 -9999 -9999 -9999 -9999 -9999 -9999 -9999 -9999 -9999 -9999 -9999 -9999 -9999 -9999 -9999 -9999 -9999 -9999 -9999 -9999 -9999 -9999 -9999 -9999
 -9999 -9999 -9999 -9999 -9999 -9999 -9999 -9999 -9999 -9999 -9999 -9999 -9999 -9999 -9999 -9999 -9999 -9999 -9999 -9999 -9999 -9999 -9999 -9999 5.3036713600158691406 5.0359983444213867188 4.8142571449279785156 4.6905975341796875 4.6325321197509765625 4.6980295181274414063 4.6914343833923339844 4.5964670181274414063 4.5410714149475097656 4.4956407546997070313 4.4768075942993164063 4.4779987335205078125 4.4783825874328613281 4.4883813858032226563 4.5267605781555175781 4.5735402107238769531 4.5229401588439941406 4.5172605514526367188 4.5921874046325683594 4.677196502685546875 4.7937064170837402344 4.8337750434875488281 4.6301283836364746094 4.5023159980773925781 4.529003143310546875 4.3348383903503417969 4.1949419975280761719 2.7005248069763183594 4.4071335792541503906 4.6416025161743164063 4.7879557609558105469 4.9020318984985351563 4.8637557029724121094 4.7916970252990722656 4.8103466033935546875 4.7976474761962890625 4.7100024223327636719 4.5969471931457519531 4.387790679931640625 4.1745281219482421875 4.1456499099731445313 4.2836217880249023438 4.3581442832946777344 4.3672556877136230469 4.3221716880798339844 4.178417205810546875 3.9885730743408203125 3.7594182491302490234 3.6486341953277587891 3.7584104537963867188 3.9093539714813232422 3.9959177970886230469 3.0433530807495117188 4.0538039207458496094 1.0866403579711914063 2.0092129707336425781 4.0144495964050292969 3.9980890750885009766 4.0471014976501464844 4.0999937057495117188 -9999 -9999 -9999 -9999 -9999 -9999 -9999 -9999 -9999 -9999 -9999 -9999 -9999 -9999 -9999 -9999 -9999 -9999 -9999 -9999 -9999 -9999 -9999 -9999 -9999 -9999 -9999 -9999 -9999 -9999 -9999 -9999 -9999 -9999 -9999 -9999 -9999 -9999 -9999 -9999 -9999 -9999 -9999 -9999 -9999 -9999 -9999 -9999 -9999 -9999 -9999 -9999
 -9999 -9999 -9999 -9999 -9999 -9999 -9999 -9999 -9999 -9999 -9999 -9999 -9999 -9999 -9999 -9999 -9999 -9999 -9999 -9999 -9999 -9999 5.5884556770324707031 5.5240664482116699219 5.38234710693359375 5.1223134994506835938 4.9243073463439941406 4.811649322509765625 4.760120391845703125 4.801074981689453125 4.8285589218139648438 4.7080416679382324219 4.6176123619079589844 4.5423560142517089844 4.5349874496459960938 4.5706696510314941406 4.5820031166076660156 4.6555047035217285156 4.7983536720275878906 4.8359284400939941406 4.696170806884765625 4.6337103843688964844 4.6466221809387207031 4.7056069374084472656 4.7957887649536132813 4.7266840934753417969 4.5463547706604003906 4.446018218994140625 4.5351686477661132813 4.3936018943786621094 2.7005248069763183594 2.7005248069763183594 4.5893788337707519531 4.6402420997619628906 4.6088089942932128906 4.7044992446899414063 4.8058481216430664063 4.8278450965881347656 4.7534985542297363281 4.7314348220825195313 4.7512874603271484375 4.6845951080322265625 4.4865899085998535156 4.2430887222290039063 4.1623477935791015625 4.2956027984619140625 4.4210519790649414063 4.4976401329040527344 4.4627728462219238281 4.264835357666015625 4.0074033737182617188 3.8001577854156494141 3.7300705909729003906 3.7756364345550537109 3.89113616943359375 2.9200158119201660156 3.9052672386169433594 3.9429981708526611328 4.004604339599609375 1.0866403579711914063 0.08664035797119140625 3.9297542572021484375 4.0420179367065429688 -9999 -9999 -9999 -9999 -9999 -9999 -9999 -9999 -9999 -9999 -9999 -9999 -9999 -9999 -9999 -9999 -9999 -9999 -9999 -9999 -9999 -9999 -9999 -9999 -9999 -9999 -9999 -9999 -9999 -9999 -9999 -9999 -9999 -9999 -9999 -9999 -9999 -9999 -9999 -9999 -9999 -9999 -9999 -9999 -9999 -9999 -9999 -9999 -9999 -9999 -9999 -9999 -9999
 -9999 -9999 -9999 -9999 -9999 -9999 -9999 -9999 -9999 -9999 -9999 -9999 -9999 -9999 -9999 -9999 -9999 -9999 -9999 -9999 -9999 -9999 5.5663123130798339844 5.4599127769470214844 5.3249115943908691406 5.1717228889465332031 5.0438923835754394531 4.9912362098693847656 4.9966626167297363281 4.9351129531860351563 4.9039196968078613281 4.79558563232421875 4.7531771659851074219 4.7808866500854492188 4.8236761093139648438 4.8384499549865722656 4.7636733055114746094 4.8011803627014160156 4.8917241096496582031 4.9573521614074707031 4.8133344650268554688 4.7311496734619140625 4.7274866104125976563 4.7618961334228515625 4.7737951278686523438 4.6979961395263671875 4.6894655227661132813 4.7836766242980957031 4.8922724723815917969 2.7005248069763183594 2.7005248069763183594 4.6908860206604003906 4.7206740379333496094 4.5598025321960449219 4.5414075851440429688 4.641429901123046875 4.6821527481079101563 4.69512176513671875 4.5893545150756835938 4.575588226318359375 4.66416168212890625 4.6328740119934082031 4.4789819717407226563 4.3308987617492675781 4.1909966468811035156 4.2611894607543945313 4.3859591484069824219 4.49078369140625 4.4812831878662109375 4.3220057487487792969 4.1217164993286132813 4.0215640068054199219 3.9865386486053466797 3.9175801277160644531 2.9235737323760986328 3.9554142951965332031 3.8919813632965087891 3.9462859630584716797 4.124114990234375 2.0866403579711914063 2.9094438552856445313 1.9160904884338378906 4.052989959716796875 -9999 -9999 -9999 -9999 -9999 -9999 -9999 -9999 -9999 -9999 -9999 -9999 -9999 -9999 -9999 -9999 -9999 -9999 -9999 -9999 -9999 -9999 -9999 -9999 -9999 -9999 -9999 -9999 -9999 -9999 -9999 -9999 -9999 -9999 -9999 -9999 -9999 -9999 -9999 -9999 -9999 -9999 -9999 -9999 -9999 -9999 -9999 -9999 -9999 -9999 -9999 -9999 -9999
 -9999 -9999 -9999 -9999 -9999 -9999 -9999 -9999 -9999 -9999 -9999 -9999 -9999 -9999 -9999 -9999 -9999 -9999 -9999 -9999 -9999 -9999 5.6279635429382324219 5.5396103858947753906 5.4108281135559082031 5.3178858757019042969 5.2548184394836425781 5.2142190933227539063 5.1759314537048339844 5.087505340576171875 5.0363492965698242188 4.9590916633605957031 4.9622793197631835938 5.0665669441223144531 5.1504540443420410156 5.1116862297058105469 4.8874726295471191406 4.7824997901916503906 4.7521023750305175781 4.7759079933166503906 4.7770648002624511719 4.7832636833190917969 4.8580317497253417969 4.931346893310546875 4.8185434341430664063 4.83258056640625 4.9552984237670898438 5.16339874267578125 3.521392822265625 4.9995617866516113281 4.7894649505615234375 4.6288633346557617188 4.5457501411437988281 4.4281268119812011719 4.521297454833984375 4.6069087982177734375 4.5554890632629394531 4.4526114463806152344 4.35863494873046875 4.3222284317016601563 4.3380923271179199219 4.3719925880432128906 4.3024654388427734375 4.338039398193359375 4.2890305519104003906 4.3185896873474121094 4.3865399360656738281 4.4952383041381835938 4.5122971534729003906 4.4264721870422363281 4.3334288597106933594 4.2747812271118164063 4.2061176300048828125 3.0723552703857421875 4.0239419937133789063 4.0486044883728027344 3.9441254138946533203 3.9968695640563964844 2.0866403579711914063 4.2714896202087402344 4.1047320365905761719 3.0533003807067871094 2.0939645767211914063 4.1308951377868652344 4.1517815589904785156 -9999 -9999 -9999 -9999 -9999 -9999 -9999 -9999 -9999 -9999 -9999 -9999 -9999 -9999 -9999 -9999 -9999 -9999 -9999 -9999 -9999 -9999 -9999 -9999 -9999 -9999 -9999 -9999 -9999 -9999 -9999 -9999 -9999 -9999 -9999 -9999 -9999 -9999 -9999 -9999 -9999 -9999 -9999 -9999 -9999 -9999 -9999 -9999 -9999 -9999 -9999
 -9999 -9999 -9999 -9999 -9999 -9999 -9999 -9999 -9999 -9999 -9999 -9999 -9999 -9999 -9999 -9999 -9999 -9999 -9999 -9999 -9999 -9999 5.7896552085876464844 5.6892986297607421875 5.5468263626098632813 5.5004410743713378906 5.4572510719299316406 5.3671813011169433594 5.2805304527282714844 5.1862130165100097656 5.1161694526672363281 5.043529510498046875 5.0661492347717285156 5.20172119140625 5.2825794219970703125 5.1983118057250976563 4.9175744056701660156 4.7434353828430175781 4.6751146316528320313 4.6993365287780761719 4.7600131034851074219 4.7870731353759765625 4.857082366943359375 4.9526801109313964844 4.8687081336975097656 4.9473581314086914063 5.1025371551513671875 3.2187631130218505859 5.3680386543273925781 5.1047611236572265625 4.8662047386169433594 4.6053433418273925781 4.499065399169921875 4.4301314353942871094 4.5204706192016601563 4.5834336280822753906 4.5251736640930175781 4.3877696990966796875 4.2584261894226074219 4.1986784934997558594 4.1978349685668945313 4.2741231918334960938 4.2525897026062011719 4.3326010704040527344 4.3316526412963867188 4.3399143218994140625 4.4220972061157226563 4.5389704704284667969 4.5405063629150390625 4.4430832862854003906 4.401287078857421875 4.3660497665405273438 3.2905707359313964844 4.1537594795227050781 4.10561370849609375 4.1375913619995117188 4.0426630973815917969 2.0866403579711914063 4.3469219207763671875 4.41468048095703125 4.2682933807373046875 4.1563501358032226563 3.1245226860046386719 2.1144492626190185547 4.1759924888610839844 -9999 -9999 -9999 -9999 -9999 -9999 -9999 -9999 -9999 -9999 -9999 -9999 -9999 -9999 -9999 -9999 -9999 -9999 -9999 -9999 -9999 -9999 -9999 -9999 -9999 -9999 -9999 -9999 -9999 -9999 -9999 -9999 -9999 -9999 -9999 -9999 -9999 -9999 -9999 -9999 -9999 -9999 -9999 -9999 -9999 -9999 -9999 -9999 -9999 -9999 -9999
 -9999 -9999 -9999 -9999 -9999 -9999 -9999 -9999 -9999 -9999 -9999 -9999 -9999 -9999 -9999 -9999 -9999 -9999 -9999 -9999 -9999 -9999 6.0728816986083984375 5.9851183891296386719 5.8408403396606445313 5.8482818603515625 5.7953228950500488281 5.6265225410461425781 5.5237703323364257813 5.4003729820251464844 5.251804351806640625 5.1262922286987304688 5.1396155357360839844 5.2711987495422363281 5.2956986427307128906 5.1508450508117675781 4.920318603515625 4.7483572959899902344 4.6642069816589355469 4.7369976043701171875 4.8039097785949707031 4.7787389755249023438 4.7246689796447753906 4.8218021392822265625 4.9423489570617675781 5.0872659683227539063 2.9392247200012207031 5.3579421043395996094 5.3638682365417480469 5.1346669197082519531 4.926494598388671875 4.6861696243286132813 4.623004913330078125 4.5634360313415527344 4.5408101081848144531 4.5528039932250976563 4.5341010093688964844 4.4536504745483398438 4.2436871528625488281 4.1591053009033203125 4.2113389968872070313 4.32985687255859375 4.3505015373229980469 4.3837466239929199219 4.3408160209655761719 4.3270721435546875 4.4861111640930175781 4.6000475883483886719 4.5542712211608886719 4.4027838706970214844 4.3988842964172363281 3.4224882125854492188 4.3746061325073242188 4.2582530975341796875 4.1875896453857421875 4.2380933761596679688 2.0866403579711914063 4.2259674072265625 4.4481911659240722656 4.5542969703674316406 4.4665160179138183594 4.3159813880920410156 4.234249114990234375 3.1326701641082763672 2.1294653415679931641 4.4675769805908203125 4.679443359375 -9999 -9999 -9999 -9999 -9999 -9999 -9999 -9999 -9999 -9999 -9999 -9999 -9999 -9999 -9999 -9999 -9999 -9999 -9999 -9999 -9999 -9999 -9999 -9999 -9999 -9999 -9999 -9999 -9999 -9999 -9999 -9999 -9999 -9999 -9999 -9999 -9999 -9999 -9999 -9999 -9999 -9999 -9999 -9999 -9999 -9999 -9999 -9999 -9999
 -9999 -9999 -9999 -9999 -9999 -9999 -9999 -9999 -9999 -9999 -9999 -9999 -9999 -9999 -9999 -9999 -9999 -9999 -9999 -9999 -9999 -9999 6.4006218910217285156 6.3450832366943359375 6.2417273521423339844 6.2175245285034179688 6.1425747871398925781 6.0029683113098144531 5.952182769775390625 5.8253998756408691406 5.5847306251525878906 5.32916259765625 5.2336606979370117188 5.1987547874450683594 5.1263632774353027344 4.9876914024353027344 4.9210796356201171875 4.8506817817687988281 4.7022395133972167969 4.7161898612976074219 4.8071718215942382813 4.7733469009399414063 4.6521420478820800781 4.7466273307800292969 4.9618921279907226563 3.9392247200012207031 5.23333740234375 5.3959755897521972656 5.4419236183166503906 5.11750030517578125 4.8893642425537109375 4.7236728668212890625 4.6975412368774414063 4.6287713050842285156 4.4999761581420898438 4.4634165763854980469 4.4887542724609375 4.4856648445129394531 4.3191242218017578125 4.2608046531677246094 4.3485112190246582031 4.4666924476623535156 4.4958677291870117188 4.5056896209716796875 4.3689694404602050781 4.371829986572265625 4.5436282157897949219 4.5996146202087402344 4.5491456985473632813 4.4465951919555664063 3.4697203636169433594 4.5329990386962890625 4.4917507171630859375 4.3576245307922363281 4.1718292236328125 4.1658511161804199219 2.0866403579711914063 4.1564145088195800781 4.3810577392578125 4.50604248046875 4.51946258544921875 4.5030941963195800781 4.4931006431579589844 4.4151439666748046875 3.1402471065521240234 2.1456935405731201172 4.6701750755310058594 -9999 -9999 -9999 -9999 -9999 -9999 -9999 -9999 -9999 -9999 -9999 -9999 -9999 -9999 -9999 -9999 -9999 -9999 -9999 -9999 -9999 -9999 -9999 -9999 -9999 -9999 -9999 -9999 -9999 -9999 -9999 -9999 -9999 -9999 -9999 -9999 -9999 -9999 -9999 -9999 -9999 -9999 -9999 -9999 -9999 -9999 -9999 -9999 -9999
 -9999 -9999 -9999 -9999 -9999 -9999 -9999 -9999 -9999 -9999 -9999 -9999 -9999 -9999 -9999 -9999 -9999 -9999 -9999 -9999 -9999 -9999 6.7731180191040039063 6.6769342422485351563 6.6590094566345214844 6.7099957466125488281 6.6059584617614746094 6.4213552474975585938 6.3663005828857421875 6.2776026725769042969 6.0085320472717285156 5.6211323738098144531 5.3879575729370117188 5.1249780654907226563 4.9405322074890136719 4.8541808128356933594 4.8475184440612792969 4.8506865501403808594 4.7547140121459960938 4.7635130882263183594 4.7869462966918945313 4.7542500495910644531 4.6991715431213378906 4.7680101394653320313 4.8780856132507324219 3.9392247200012207031 5.2071042060852050781 5.375667572021484375 5.4272379875183105469 5.2163267135620117188 5.0510125160217285156 4.8869986534118652344 4.7740163803100585938 4.6027207374572753906 4.408538818359375 4.3975081443786621094 4.4720172882080078125 4.4832544326782226563 4.419647216796875 4.452091217041015625 4.5910587310791015625 4.6256670951843261719 4.633846282958984375 4.573490142822265625 4.4297337532043457031 4.4587540626525878906 4.6591658592224121094 4.7025051116943359375 4.6274290084838867188 3.4935688972473144531 4.5115284919738769531 4.5811176300048828125 4.5569620132446289063 4.4011273384094238281 4.1233243942260742188 4.0220551490783691406 2.0866403579711914063 4.0903730392456054688 4.2582268714904785156 4.3993234634399414063 4.4901118278503417969 4.5997385978698730469 4.6310014724731445313 4.5457386970520019531 4.4776053428649902344 3.1478190422058105469 2.151599884033203125 4.8890409469604492188 5.119205474853515625 -9999 -9999 -9999 -9999 -9999 -9999 -9999 -9999 -9999 -9999 -9999 -9999 -9999 -9999 -9999 -9999 -9999 -9999 -9999 -9999 -9999 -9999 -9999 -9999 -9999 -9999 -9999 -9999 -9999 -9999 -9999 -9999 -9999 -9999 -9999 -9999 -9999 -9999 -9999 -9999 -9999 -9999 -9999 -9999 -9999 -9999 -9999
 -9999 -9999 -9999 -9999 -9999 -9999 -9999 -9999 -9999 -9999 -9999 -9999 -9999 -9999 -9999 -9999 -9999 -9999 -9999 -9999 -9999 7.3190989494323730469 7.1760945320129394531 7.0599827766418457031 7.1160411834716796875 7.140201568603515625 6.9368319511413574219 6.6607718467712402344 6.5054478645324707031 6.4180240631103515625 6.2819700241088867188 5.8951144218444824219 5.6064968109130859375 5.2300333976745605469 4.9252176284790039063 4.8204517364501953125 4.7830624580383300781 4.7558498382568359375 4.826694488525390625 4.9721403121948242188 4.9274654388427734375 4.8484525680541992188 4.7943024635314941406 4.8399996757507324219 4.830413818359375 3.8429021835327148438 5.0260190963745117188 5.252716064453125 5.3239288330078125 5.394550323486328125 5.3468194007873535156 5.0823416709899902344 4.7702074050903320313 4.5158925056457519531 4.3900408744812011719 4.4188904762268066406 4.43889617919921875 4.43845367431640625 4.4880428314208984375 4.5711812973022460938 4.6759324073791503906 4.6646356582641601563 4.7211246490478515625 4.6009130477905273438 4.4958405494689941406 4.56443023681640625 4.6710982322692871094 4.6787800788879394531 3.61150360107421875 4.4803767204284667969 4.4759707450866699219 4.539333343505859375 4.5140972137451171875 4.3484177589416503906 4.0794353485107421875 3.9779894351959228516 2.0866403579711914063 4.0810208320617675781 4.1904902458190917969 4.3311705589294433594 4.4400482177734375 4.5721979141235351563 4.6116790771484375 4.5796117782592773438 4.6115894317626953125 4.6525158882141113281 3.1553959846496582031 2.1591770648956298828 5.0676670074462890625 5.0059099197387695313 4.9205799102783203125 5.0734992027282714844 5.5628523826599121094 6.2266979217529296875 -9999 -9999 -9999 -9999 -9999 -9999 -9999 -9999 -9999 -9999 -9999 -9999 -9999 -9999 -9999 -9999 -9999 -9999 -9999 -9999 -9999 -9999 -9999 -9999 -9999 -9999 -9999 -9999 -9999 -9999 -9999 -9999 -9999 -9999 -9999 -9999 -9999 -9999 -9999 -9999 -9999 -9999
 -9999 -9999 -9999 -9999 -9999 -9999 -9999 -9999 -9999 -9999 -9999 -9999 -9999 -9999 -9999 -9999 -9999 -9999 -9999 -9999 -9999 7.3419508934020996094 7.264911651611328125 7.2062182426452636719 7.2441344261169433594 7.2480826377868652344 6.9883322715759277344 6.6161260604858398438 6.3489170074462890625 6.2751607894897460938 6.3263163566589355469 6.1554780006408691406 5.9460053443908691406 5.5707883834838867188 5.1720895767211914063 4.9523258209228515625 4.9142541885375976563 4.887393951416015625 4.9991464614868164063 5.0664339065551757813 4.9656858444213867188 4.8458614349365234375 4.736515045166015625 4.8372035026550292969 4.8455681800842285156 3.7646422386169433594 4.9186558723449707031 5.2348041534423828125 5.373767852783203125 5.5138983726501464844 5.4939250946044921875 5.21187591552734375 4.8332219123840332031 4.541530609130859375 4.4454069137573242188 4.4620108604431152344 4.41249847412109375 4.3991670608520507813 4.5014715194702148438 4.5824275016784667969 4.678920745849609375 4.7594542503356933594 4.7764372825622558594 4.6323986053466796875 4.4823594093322753906 4.4472279548645019531 4.4693932533264160156 3.4433150291442871094 4.4132480621337890625 4.3714084625244140625 4.3793101310729980469 4.5056376457214355469 4.5242452621459960938 4.3593997955322265625 4.2040185928344726563 4.0975289344787597656 2.0866403579711914063 4.0784907341003417969 4.1536726951599121094 4.2540440559387207031 4.2597794532775878906 4.3593802452087402344 4.4842395782470703125 4.5996847152709960938 4.6979508399963378906 4.6797890663146972656 4.7165436744689941406 3.1629731655120849609 2.1663622856140136719 4.9687304496765136719 4.9126505851745605469 5.0659680366516113281 5.5182695388793945313 6.3871245384216308594 7.4852323532104492188 7.9558424949645996094 -9999 -9999 -9999 -9999 -9999 -9999 -9999 -9999 -9999 -9999 -9999 -9999 -9999 -9999 -9999 -9999 -9999 -9999 -9999 -9999 -9999 -9999 -9999 -9999 -9999 -9999 -9999 -9999 -9999 -9999 -9999 -9999 -9999 -9999 -9999 -9999 -9999 -9999 -9999 -9999
 -9999 -9999 -9999 -9999 -9999 -9999 -9999 -9999 -9999 -9999 -9999 -9999 -9999 -9999 -9999 -9999 -9999 -9999 -9999 -9999 -9999 7.21014404296875 7.1112642288208007813 7.0383114814758300781 6.9714345932006835938 6.9338669776916503906 6.7348093986511230469 6.3998847007751464844 6.1582136154174804688 6.1461634635925292969 6.3333988189697265625 6.4371900558471679688 6.3326873779296875 5.9387645721435546875 5.4747357368469238281 5.1490979194641113281 5.0958428382873535156 5.115509033203125 5.1842608451843261719 5.1261434555053710938 4.8194880485534667969 4.65166473388671875 4.595409393310546875 4.7154150009155273438 4.8796687126159667969 3.9392247200012207031 5.1326775550842285156 5.4534230232238769531 5.5301461219787597656 5.5390195846557617188 5.4571270942687988281 5.1815013885498046875 4.8870573043823242188 4.610240936279296875 4.4878191947937011719 4.4989366531372070313 4.4456224441528320313 4.4225564002990722656 4.4954800605773925781 4.6151418685913085938 4.8382773399353027344 4.9367656707763671875 4.8783502578735351563 4.7067027091979980469 4.4984517097473144531 4.3796572685241699219 3.3814721107482910156 4.3743762969970703125 4.3579449653625488281 4.3337469100952148438 4.3457732200622558594 4.4750227928161621094 4.6001272201538085938 4.5338678359985351563 4.4335341453552246094 4.3633432388305664063 4.2753863334655761719 2.0866403579711914063 2.0866403579711914063 4.2058787345886230469 4.0813727378845214844 4.1448926925659179688 4.3174686431884765625 4.5453162193298339844 4.6947841644287109375 4.6276416778564453125 4.636096954345703125 4.8015122413635253906 3.1710283756256103516 2.1741306781768798828 4.9278955459594726563 5.0319638252258300781 5.3963985443115234375 6.1627745628356933594 7.1460967063903808594 7.5666003227233886719 7.748676300048828125 7.8292970657348632813 8.0728168487548828125 8.2025060653686523438 -9999 -9999 -9999 -9999 -9999 -9999 -9999 -9999 -9999 -9999 -9999 -9999 -9999 -9999 -9999 -9999 -9999 -9999 -9999 -9999 -9999 -9999 -9999 -9999 -9999 -9999 -9999 -9999 -9999 -9999 -9999 -9999 -9999 -9999 -9999 -9999
 -9999 -9999 -9999 -9999 -9999 -9999 -9999 -9999 -9999 -9999 -9999 -9999 -9999 -9999 -9999 -9999 -9999 -9999 -9999 -9999 7.1930041313171386719 7.0429949760437011719 6.9338049888610839844 6.8361258506774902344 6.6712965965270996094 6.6069202423095703125 6.5340332984924316406 6.3972353935241699219 6.2931942939758300781 6.3049221038818359375 6.3931255340576171875 6.5535130500793457031 6.5499787330627441406 6.2570247650146484375 5.7508158683776855469 5.3658308982849121094 5.2152881622314453125 5.1920537948608398438 5.2370409965515136719 5.1464357376098632813 4.8703303337097167969 4.7345943450927734375 4.7113733291625976563 4.8429346084594726563 5.0489630699157714844 5.2002191543579101563 3.9685320854187011719 5.410999298095703125 5.4350433349609375 5.2753024101257324219 5.2150144577026367188 5.196430206298828125 5.0302414894104003906 4.7385849952697753906 4.5545210838317871094 4.5812101364135742188 4.5651154518127441406 4.5279068946838378906 4.603420257568359375 4.7762274742126464844 5.1191959381103515625 5.2382235527038574219 5.0824790000915527344 4.8453369140625 4.6263217926025390625 3.4800362586975097656 4.4036717414855957031 4.32241058349609375 4.2941603660583496094 4.3116326332092285156 4.3436956405639648438 4.4008646011352539063 4.567028045654296875 4.6545562744140625 4.6392889022827148438 4.6202044486999511719 4.5879068374633789063 4.5467610359191894531 2.0866403579711914063 2.0866403579711914063 4.1317353248596191406 4.1500329971313476563 4.3513593673706054688 4.5285587310791015625 4.643421173095703125 4.5537862777709960938 4.4907932281494140625 4.5323214530944824219 4.7108020782470703125 2.1767573356628417969 2.1803624629974365234 4.9199833869934082031 5.2016663551330566406 5.7361865043640136719 6.2299113273620605469 6.5315504074096679688 6.9014191627502441406 7.036884307861328125 7.1166124343872070313 7.2805428504943847656 7.70568084716796875 -9999 -9999 -9999 -9999 -9999 -9999 -9999 -9999 -9999 -9999 -9999 -9999 -9999 -9999 -9999 -9999 -9999 -9999 -9999 -9999 -9999 -9999 -9999 -9999 -9999 -9999 -9999 -9999 -9999 -9999 -9999 -9999 -9999 -9999 -9999
 -9999 -9999 -9999 -9999 -9999 -9999 -9999 -9999 -9999 -9999 -9999 -9999 -9999 -9999 -9999 -9999 -9999 -9999 -9999 -9999 7.0763301849365234375 6.9827952384948730469 6.8656940460205078125 6.7468557357788085938 6.5489783287048339844 6.4736495018005371094 6.4872155189514160156 6.5270304679870605469 6.5537052154541015625 6.6153054237365722656 6.5678339004516601563 6.58919525146484375 6.603488922119140625 6.4622173309326171875 6.0214481353759765625 5.5379161834716796875 5.2552156448364257813 5.2012419700622558594 5.2179212570190429688 5.213932037353515625 5.2030396461486816406 5.1430325508117675781 5.1097412109375 5.3103861808776855469 5.3191533088684082031 5.3005309104919433594 5.1169838905334472656 4.0080966949462890625 5.0003628730773925781 4.7506866455078125 4.8043560981750488281 5.2005777359008789063 5.2347517013549804688 4.9705982208251953125 4.6738147735595703125 4.6249852180480957031 4.6083116531372070313 4.6253142356872558594 4.8636622428894042969 5.046909332275390625 5.3307037353515625 5.5925955772399902344 5.42006683349609375 5.1362619400024414063 3.8753609657287597656 4.7134542465209960938 4.55426025390625 4.3360238075256347656 4.2577357292175292969 4.2836060523986816406 4.3172640800476074219 4.316680908203125 4.5146908760070800781 4.723785400390625 4.8318796157836914063 4.8233561515808105469 4.8373570442199707031 4.9211244583129882813 5.0946574211120605469 4.9657959938049316406 2.0866403579711914063 4.5348229408264160156 4.7696256637573242188 4.6980762481689453125 4.5415363311767578125 4.3226680755615234375 4.2470121383666992188 4.3121671676635742188 4.4376592636108398438 4.4811005592346191406 2.1846597194671630859 2.1882648468017578125 4.9990639686584472656 5.1672649383544921875 5.2584791183471679688 5.4472002983093261719 5.9004769325256347656 6.1598100662231445313 6.1990575790405273438 6.3487043380737304688 7.001590728759765625 8.9412565231323242188 12.616044998168945313 15.50658416748046875 16.338260650634765625 16.410520553588867188 -9999 -9999 -9999 -9999 -9999 -9999 -9999 -9999 -9999 -9999 -9999 -9999 -9999 -9999 -9999 -9999 -9999 -9999 -9999 -9999 -9999 -9999 -9999 -9999 -9999 -9999 -9999 -9999 -9999 -9999
 -9999 -9999 -9999 -9999 -9999 -9999 -9999 -9999 -9999 -9999 -9999 -9999 -9999 -9999 -9999 -9999 -9999 -9999 -9999 -9999 7.014705657958984375 6.9442915916442871094 6.7974514961242675781 6.6820230484008789063 6.5413899421691894531 6.5140585899353027344 6.5882692337036132813 6.6538615226745605469 6.7121777534484863281 6.7727437019348144531 6.6758203506469726563 6.6095690727233886719 6.5992331504821777344 6.4952816963195800781 6.0945901870727539063 5.5879564285278320313 5.2886271476745605469 5.214630126953125 5.1967320442199707031 5.2247672080993652344 5.3124413490295410156 5.2832279205322265625 5.2834291458129882813 5.5918340682983398438 5.5035886764526367188 5.2873582839965820313 5.0298609733581542969 3.8752264976501464844 4.8718099594116210938 4.6840729713439941406 4.7642717361450195313 5.2007012367248535156 5.3300085067749023438 5.1231694221496582031 4.7966656684875488281 4.6878380775451660156 4.6583790779113769531 4.7245583534240722656 5.0316781997680664063 5.1964502334594726563 5.4036531448364257813 5.7170825004577636719 5.6275663375854492188 5.4022917747497558594 3.9338006973266601563 3.9186811447143554688 4.6629757881164550781 4.3810400962829589844 4.2852725982666015625 4.3062062263488769531 4.3379487991333007813 4.3317847251892089844 4.5036907196044921875 4.7151546478271484375 4.9043836593627929688 4.9199213981628417969 4.90300750732421875 5.0223746299743652344 5.3207254409790039063 5.2824764251708984375 4.8998026847839355469 2.0866403579711914063 5.0246915817260742188 4.7609848976135253906 4.4588918685913085938 4.1987423896789550781 4.1498675346374511719 4.2732787132263183594 4.3746991157531738281 4.3784875869750976563 4.5066771507263183594 2.1925618648529052734 4.9505295753479003906 5.0013642311096191406 4.9791054725646972656 5.1194162368774414063 5.5345177650451660156 5.782787322998046875 5.8531928062438964844 5.9609708786010742188 6.598278045654296875 8.779483795166015625 12.350950241088867188 15.264657974243164063 16.138566970825195313 16.239620208740234375 -9999 -9999 -9999 -9999 -9999 -9999 -9999 -9999 -9999 -9999 -9999 -9999 -9999 -9999 -9999 -9999 -9999 -9999 -9999 -9999 -9999 -9999 -9999 -9999 -9999 -9999 -9999 -9999 -9999 -9999
 -9999 -9999 -9999 -9999 -9999 -9999 -9999 -9999 -9999 -9999 -9999 -9999 -9999 -9999 -9999 -9999 -9999 -9999 -9999 7.0299282073974609375 6.9132833480834960938 6.8043065071105957031 6.6379637718200683594 6.5737714767456054688 6.5942325592041015625 6.7075982093811035156 6.8911275863647460938 6.9371037483215332031 6.9484772682189941406 6.9180622100830078125 6.7896089553833007813 6.64511871337890625 6.5746808052062988281 6.4347667694091796875 6.0832304954528808594 5.6561756134033203125 5.3875341415405273438 5.2346677780151367188 5.1469793319702148438 5.1319499015808105469 5.1815433502197265625 5.1817150115966796875 5.3224029541015625 5.7775011062622070313 5.6531195640563964844 5.225040435791015625 4.0139403343200683594 4.9494290351867675781 5.0092482566833496094 5.0371651649475097656 5.0908679962158203125 5.2725315093994140625 5.4290528297424316406 5.3352327346801757813 5.0622115135192871094 4.9162077903747558594 4.9054436683654785156 4.9936699867248535156 5.2225565910339355469 5.3338904380798339844 5.4687414169311523438 5.738384246826171875 5.8518323898315429688 4.0096755027770996094 3.9718492031097412109 5.3183131217956542969 4.8590674400329589844 4.50888824462890625 4.4039759635925292969 4.39839935302734375 4.4207215309143066406 4.4582576751708984375 4.5510349273681640625 4.6854963302612304688 4.9288039207458496094 4.9996371269226074219 4.9256105422973632813 5.0330753326416015625 5.3875317573547363281 5.5316219329833984375 5.5164637565612792969 5.4011578559875488281 2.0866403579711914063 4.6377477645874023438 4.3214750289916992188 4.0971126556396484375 4.0915036201477050781 4.2793412208557128906 4.4013772010803222656 4.4166436195373535156 4.576446533203125 4.8181848526000976563 2.2009260654449462891 5.130870819091796875 5.0895371437072753906 5.1513476371765136719 5.38732147216796875 5.4914021492004394531 5.6498041152954101563 5.8643503189086914063 6.6029753684997558594 8.7200632095336914063 11.416771888732910156 13.811555862426757813 14.805326461791992188 15.5269622802734375 16.314222335815429688 16.9134368896484375 -9999 -9999 -9999 -9999 -9999 -9999 -9999 -9999 -9999 -9999 -9999 -9999 -9999 -9999 -9999 -9999 -9999 -9999 -9999 -9999 -9999 -9999 -9999 -9999 -9999 -9999 -9999 -9999
 -9999 -9999 -9999 -9999 -9999 -9999 -9999 -9999 -9999 -9999 -9999 -9999 -9999 -9999 -9999 -9999 -9999 -9999 -9999 6.9396424293518066406 6.754009246826171875 6.6102604866027832031 6.5406565666198730469 6.55289459228515625 6.6696028709411621094 6.8869557380676269531 7.1585974693298339844 7.2775936126708984375 7.2088103294372558594 7.0637083053588867188 6.9034891128540039063 6.6805491447448730469 6.552097320556640625 6.3984851837158203125 6.1834850311279296875 5.900768280029296875 5.5444741249084472656 5.2405695915222167969 5.0868744850158691406 5.0042591094970703125 4.9946808815002441406 5.0541005134582519531 5.3336319923400878906 5.7140145301818847656 5.5446720123291015625 4.2138414382934570313 5.160007476806640625 5.1509389877319335938 5.1471610069274902344 5.2719888687133789063 5.3452963829040527344 5.4155912399291992188 5.5249314308166503906 5.5093731880187988281 5.3352484703063964844 5.2692971229553222656 5.3598332405090332031 5.3876056671142578125 5.4300780296325683594 5.4799113273620605469 5.5995116233825683594 5.8136453628540039063 4.0855498313903808594 4.0477237701416015625 6.0809512138366699219 5.6514863967895507813 5.0964426994323730469 4.6925573348999023438 4.5548520088195800781 4.487888336181640625 4.4986872673034667969 4.6230959892272949219 4.7285604476928710938 4.8310475349426269531 4.9956870079040527344 5.0948324203491210938 5.1171879768371582031 5.2670564651489257813 5.60306549072265625 5.6630349159240722656 5.59752655029296875 5.2826776504516601563 4.7580471038818359375 2.0866403579711914063 4.1989483833312988281 4.0163588523864746094 4.0133543014526367188 4.186801910400390625 4.2938637733459472656 4.3283224105834960938 4.5311179161071777344 4.7819647789001464844 4.9902281761169433594 4.2060790061950683594 5.2092690467834472656 5.1964192390441894531 5.2182331085205078125 5.2327160835266113281 5.4390845298767089844 5.7448701858520507813 6.5075244903564453125 8.1873760223388671875 9.6000833511352539063 10.696923255920410156 11.684413909912109375 13.69913482666015625 15.798524856567382813 17.084428787231445313 17.777082443237304688 -9999 -9999 -9999 -9999 -9999 -9999 -9999 -9999 -9999 -9999 -9999 -9999 -9999 -9999 -9999 -9999 -9999 -9999 -9999 -9999 -9999 -9999 -9999 -9999 -9999 -9999 -9999
 -9999 -9999 -9999 -9999 -9999 -9999 -9999 -9999 -9999 -9999 -9999 -9999 -9999 -9999 -9999 -9999 -9999 -9999 -9999 6.9104557037353515625 6.7727160453796386719 6.5939235687255859375 6.5446081161499023438 6.5829014778137207031 6.7429056167602539063 7.066913604736328125 7.4097380638122558594 7.4978861808776855469 7.3993487358093261719 7.1977300643920898438 6.9839015007019042969 6.7026152610778808594 6.5603566169738769531 6.4507551193237304688 6.336444854736328125 6.1333494186401367188 5.7241153717041015625 5.3040204048156738281 5.1101403236389160156 4.9500937461853027344 4.9135007858276367188 5.0090069770812988281 5.3044991493225097656 5.5541753768920898438 4.4358153343200683594 5.2711725234985351563 5.3510522842407226563 5.4229612350463867188 5.3666663169860839844 5.4406790733337402344 5.4680914878845214844 5.4364528656005859375 5.4686651229858398438 5.4368429183959960938 5.3655261993408203125 5.4697751998901367188 5.6402983665466308594 5.6644396781921386719 5.6733856201171875 5.6901021003723144531 5.7563748359680175781 4.1614246368408203125 4.1235985755920410156 6.3564743995666503906 6.0467967987060546875 5.4546608924865722656 5.0145936012268066406 4.7537808418273925781 4.6585183143615722656 4.6214261054992675781 4.7034215927124023438 4.8843851089477539063 4.9832053184509277344 5.0434594154357910156 5.160968780517578125 5.3217997550964355469 5.4339337348937988281 5.5711941719055175781 5.774097442626953125 5.6612563133239746094 5.4140710830688476563 5.0285029411315917969 4.6132321357727050781 4.3288135528564453125 2.0866403579711914063 4.1251559257507324219 4.1211524009704589844 4.1241927146911621094 4.1042056083679199219 4.1942906379699707031 4.417423248291015625 4.6383900642395019531 3.7777569293975830078 4.0480780601501464844 5.1745843887329101563 5.1999979019165039063 5.1638331413269042969 5.1032810211181640625 5.2076768875122070313 5.44878387451171875 5.9644031524658203125 6.8085570335388183594 7.5113062858581542969 8.1845798492431640625 8.924877166748046875 11.19361114501953125 14.912663459777832031 17.242389678955078125 18.080965042114257813 18.493595123291015625 -9999 -9999 -9999 -9999 -9999 -9999 -9999 -9999 -9999 -9999 -9999 -9999 -9999 -9999 -9999 -9999 -9999 -9999 -9999 -9999 -9999 -9999 -9999 -9999 -9999 -9999
 -9999 -9999 -9999 -9999 -9999 -9999 -9999 -9999 -9999 -9999 -9999 -9999 -9999 -9999 -9999 -9999 -9999 -9999 -9999 7.0173358917236328125 6.8626770973205566406 6.7093443870544433594 6.6788921356201171875 6.7176828384399414063 6.8875241279602050781 7.2592620849609375 7.6172184944152832031 7.6586432456970214844 7.5588192939758300781 7.3644046783447265625 7.1087298393249511719 6.8104333877563476563 6.6855378150939941406 6.629062652587890625 6.5447235107421875 6.3010168075561523438 5.8602824211120605469 5.4238491058349609375 5.1645870208740234375 4.9181780815124511719 4.8277530670166015625 4.9373526573181152344 5.2417201995849609375 5.3862524032592773438 4.3388619422912597656 4.3126401901245117188 5.4640073776245117188 5.5951447486877441406 5.5880570411682128906 5.5905323028564453125 5.5646309852600097656 5.4906988143920898438 5.4493808746337890625 5.3166780471801757813 5.2265210151672363281 5.3671875 5.6088604927062988281 5.7181529998779296875 5.8045439720153808594 5.8263411521911621094 5.8342380523681640625 4.1994733810424804688 6.0651097297668457031 6.1296324729919433594 5.7658538818359375 5.1820311546325683594 4.9404754638671875 4.8828434944152832031 4.8684072494506835938 4.9091014862060546875 5.0426540374755859375 5.1594958305358886719 5.2262787818908691406 5.2549214363098144531 5.3543138504028320313 5.507770538330078125 5.6143879890441894531 5.716396331787109375 5.8209357261657714844 5.6115131378173828125 5.2817587852478027344 4.8963470458984375 4.554168701171875 4.3256764411926269531 2.0866403579711914063 2.0866403579711914063 4.1323628425598144531 4.0757236480712890625 3.9820394515991210938 4.0714044570922851563 4.2732958793640136719 3.3590908050537109375 3.5031991004943847656 4.7572150230407714844 4.9849596023559570313 5.0990977287292480469 5.2406101226806640625 5.3291025161743164063 5.3482441902160644531 5.3980269432067871094 5.5581402778625488281 5.8383312225341796875 6.1505627632141113281 6.5605573654174804688 7.1589727401733398438 9.78409576416015625 14.787085533142089844 17.397916793823242188 18.059400558471679688 18.572034835815429688 19.046295166015625 -9999 -9999 -9999 -9999 -9999 -9999 -9999 -9999 -9999 -9999 -9999 -9999 -9999 -9999 -9999 -9999 -9999 -9999 -9999 -9999 -9999 -9999 -9999 -9999 -9999
 -9999 -9999 -9999 -9999 -9999 -9999 -9999 -9999 -9999 -9999 -9999 -9999 -9999 -9999 -9999 -9999 -9999 -9999 -9999 7.1300301551818847656 7.0791234970092773438 6.9555983543395996094 6.8487629890441894531 6.8696742057800292969 7.0155673027038574219 7.1815395355224609375 7.3973016738891601563 7.4921331405639648438 7.4825119972229003906 7.4202504158020019531 7.2365412712097167969 6.9841909408569335938 6.8807535171508789063 6.8310489654541015625 6.7622427940368652344 6.5872550010681152344 6.1473875045776367188 5.597064971923828125 5.2069830894470214844 4.9921660423278808594 4.934589385986328125 4.9888067245483398438 5.1508908271789550781 5.2703390121459960938 5.3211145401000976563 5.3572821617126464844 4.4866080284118652344 5.6546773910522460938 5.7231206893920898438 5.6829161643981933594 5.6369485855102539063 5.5826592445373535156 5.5054612159729003906 5.2867441177368164063 5.126926422119140625 5.2409138679504394531 5.5432982444763183594 5.7511272430419921875 5.8486084938049316406 5.8632426261901855469 4.2753481864929199219 5.8663887977600097656 5.848712921142578125 5.6578950881958007813 5.32028961181640625 5.0339326858520507813 5.0222539901733398438 5.0789537429809570313 5.1380562782287597656 5.2596559524536132813 5.3505749702453613281 5.424072265625 5.4709191322326660156 5.5009965896606445313 5.604915618896484375 5.7092614173889160156 5.7180056571960449219 5.753692626953125 5.7857818603515625 5.5200161933898925781 5.1085987091064453125 4.7323904037475585938 4.4827165603637695313 4.3278288841247558594 4.2012577056884765625 4.14398956298828125 2.0866403579711914063 3.9576232433319091797 3.8900945186614990234 3.9645137786865234375 2.6832306385040283203 3.2217159271240234375 4.3686203956604003906 4.6744246482849121094 4.9325780868530273438 5.1300411224365234375 5.4986996650695800781 5.7603459358215332031 5.7323203086853027344 5.6350202560424804688 5.5870518684387207031 5.6362261772155761719 5.7645611763000488281 5.9517531394958496094 6.4223918914794921875 8.8538303375244140625 13.732282638549804688 16.680547714233398438 17.53936004638671875 18.268924713134765625 18.978651046752929688 -9999 -9999 -9999 -9999 -9999 -9999 -9999 -9999 -9999 -9999 -9999 -9999 -9999 -9999 -9999 -9999 -9999 -9999 -9999 -9999 -9999 -9999 -9999 -9999 -9999
 -9999 -9999 -9999 -9999 -9999 -9999 -9999 -9999 -9999 -9999 -9999 -9999 -9999 -9999 -9999 -9999 -9999 -9999 -9999 7.3970766067504882813 7.4135375022888183594 7.2235083580017089844 7.0092549324035644531 6.9867010116577148438 7.0680537223815917969 7.0430688858032226563 7.0189299583435058594 7.0599741935729980469 7.1209893226623535156 7.2493948936462402344 7.2359061241149902344 7.0982890129089355469 7.0344548225402832031 6.9768877029418945313 6.8909053802490234375 6.8295927047729492188 6.4809331893920898438 5.8642029762268066406 5.4137644767761230469 5.1872630119323730469 5.1146030426025390625 5.0798358917236328125 5.048236846923828125 5.1508297920227050781 5.3072938919067382813 5.3834872245788574219 5.4725728034973144531 4.6366739273071289063 5.7758097648620605469 5.7600731849670410156 5.726070404052734375 5.6980848312377929688 5.5995640754699707031 5.3530917167663574219 5.2113466262817382813 5.2539539337158203125 5.4635782241821289063 5.6946473121643066406 5.8761892318725585938 4.3512225151062011719 5.8819050788879394531 5.7913966178894042969 5.670543670654296875 5.4259004592895507813 5.253894805908203125 5.1732134819030761719 5.2004857063293457031 5.2649407386779785156 5.3274321556091308594 5.43457794189453125 5.5127749443054199219 5.6061267852783203125 5.6990103721618652344 5.8025827407836914063 5.9255809783935546875 5.9449667930603027344 5.8714914321899414063 5.8079581260681152344 5.6679863929748535156 5.3692536354064941406 4.9419732093811035156 4.5874524116516113281 4.4076170921325683594 4.2321705818176269531 4.0790925025939941406 4.1181726455688476563 3.0475015640258789063 2.7960555553436279297 3.7643907070159912109 2.9403433799743652344 2.1943392753601074219 4.2821631431579589844 4.4269900321960449219 4.6825089454650878906 4.8834619522094726563 5.1078653335571289063 5.6664295196533203125 6.1948771476745605469 6.203319549560546875 6.0110659599304199219 5.8915271759033203125 5.8281359672546386719 5.9018139839172363281 6.0523958206176757813 6.409381866455078125 7.8472747802734375 10.998868942260742188 14.608433723449707031 16.269947052001953125 17.21170806884765625 18.57027435302734375 19.468448638916015625 -9999 -9999 -9999 -9999 -9999 -9999 -9999 -9999 -9999 -9999 -9999 -9999 -9999 -9999 -9999 -9999 -9999 -9999 -9999 -9999 -9999 -9999 -9999 -9999
 -9999 -9999 -9999 -9999 -9999 -9999 -9999 -9999 -9999 -9999 -9999 -9999 -9999 -9999 -9999 -9999 -9999 -9999 -9999 7.8140263557434082031 7.7945466041564941406 7.6005153656005859375 7.2778577804565429688 7.1577677726745605469 7.137081146240234375 7.0198616981506347656 6.7959794998168945313 6.742938995361328125 6.7596001625061035156 6.8976869583129882813 7.0230374336242675781 7.0351452827453613281 7.0038285255432128906 6.9074392318725585938 6.8056683540344238281 6.7672429084777832031 6.50531768798828125 6.1410021781921386719 5.7299098968505859375 5.4936838150024414063 5.3696265220642089844 5.2489886283874511719 5.1011857986450195313 5.2047204971313476563 5.3411464691162109375 5.4368524551391601563 4.4627094268798828125 5.562274932861328125 5.6438088417053222656 5.7598090171813964844 5.8402547836303710938 5.879848480224609375 5.7191910743713378906 5.4554605484008789063 5.3398118019104003906 5.3423442840576171875 5.4349617958068847656 5.6600298881530761719 4.427097320556640625 5.9996356964111328125 5.9486408233642578125 5.8640995025634765625 5.6933584213256835938 5.4882192611694335938 5.385074615478515625 5.3278827667236328125 5.3305335044860839844 5.4100222587585449219 5.4485869407653808594 5.5115900039672851563 5.6665463447570800781 5.75675201416015625 5.8803763389587402344 6.0849370956420898438 6.2014369964599609375 6.1584653854370117188 6.0564179420471191406 5.9614877700805664063 5.7630338668823242188 5.4363269805908203125 4.9411377906799316406 4.5132541656494140625 4.2418818473815917969 4.094135284423828125 3.9317533969879150391 4.0389556884765625 4.0308737754821777344 2.3264422416687011719 1.7736680507659912109 2.8326439857482910156 4.1913733482360839844 4.2889261245727539063 4.4825625419616699219 4.7114119529724121094 4.9322228431701660156 5.2284636497497558594 5.9409985542297363281 6.6079721450805664063 6.7943372726440429688 6.7880368232727050781 6.6992259025573730469 6.4473667144775390625 6.2484755516052246094 6.3520441055297851563 6.5972948074340820313 7.2066063880920410156 8.6641292572021484375 11.551634788513183594 13.837489128112792969 15.485015869140625 17.498050689697265625 18.893184661865234375 19.497415542602539063 19.7364501953125 -9999 -9999 -9999 -9999 -9999 -9999 -9999 -9999 -9999 -9999 -9999 -9999 -9999 -9999 -9999 -9999 -9999 -9999 -9999 -9999 -9999 -9999
 -9999 -9999 -9999 -9999 -9999 -9999 -9999 -9999 -9999 -9999 -9999 -9999 -9999 -9999 -9999 -9999 -9999 -9999 -9999 8.20087432861328125 8.151668548583984375 7.9387335777282714844 7.5307607650756835938 7.3606929779052734375 7.3265414237976074219 7.1847901344299316406 6.823238372802734375 6.6983017921447753906 6.6284627914428710938 6.645885467529296875 6.8035254478454589844 6.9408059120178222656 6.9639844894409179688 6.8661646842956542969 6.6853351593017578125 6.5566420555114746094 6.3172860145568847656 6.1281490325927734375 5.9139885902404785156 5.7396678924560546875 5.5166611671447753906 5.3762431144714355469 5.3031454086303710938 5.4418015480041503906 5.6003661155700683594 4.6968355178833007813 5.6172709465026855469 5.5917477607727050781 5.6206088066101074219 5.8660793304443359375 6.0506587028503417969 6.149814605712890625 5.9316549301147460938 5.6514863967895507813 5.5641565322875976563 5.5475435256958007813 5.519405364990234375 4.5029721260070800781 5.8445410728454589844 5.9274578094482421875 5.9642367362976074219 5.9799938201904296875 5.8220744132995605469 5.4847922325134277344 5.3224334716796875 5.2874159812927246094 5.3334436416625976563 5.5028028488159179688 5.5838303565979003906 5.6377501487731933594 5.7508206367492675781 5.8614773750305175781 5.9445433616638183594 6.0960268974304199219 6.2890481948852539063 6.3315615653991699219 6.2558102607727050781 6.2481675148010253906 6.2297992706298828125 5.80960845947265625 5.0476999282836914063 4.5553488731384277344 4.2800111770629882813 4.230037689208984375 4.1004476547241210938 4.0703296661376953125 4.0452189445495605469 3.9265928268432617188 0.83105134963989257813 3.8456902503967285156 3.9311597347259521484 4.0913615226745605469 4.4686875343322753906 4.8140468597412109375 5.1450629234313964844 5.5418295860290527344 6.383411407470703125 7.0966005325317382813 7.4672374725341796875 7.7980670928955078125 7.9397225379943847656 7.4214076995849609375 6.5935578346252441406 6.4318575859069824219 6.5539121627807617188 6.8153004646301269531 7.3729333877563476563 8.6787195205688476563 10.643503189086914063 13.037444114685058594 15.541055679321289063 17.607242584228515625 18.807956695556640625 19.3923797607421875 20.071969985961914063 -9999 -9999 -9999 -9999 -9999 -9999 -9999 -9999 -9999 -9999 -9999 -9999 -9999 -9999 -9999 -9999 -9999 -9999 -9999 -9999 -9999
 -9999 -9999 -9999 -9999 -9999 -9999 -9999 -9999 -9999 -9999 -9999 -9999 -9999 -9999 -9999 -9999 -9999 -9999 -9999 8.5686578750610351563 8.4282379150390625 8.0900869369506835938 7.5791115760803222656 7.3815312385559082031 7.3610882759094238281 7.2401289939880371094 6.8987336158752441406 6.7679691314697265625 6.6719002723693847656 6.636020660400390625 6.7645096778869628906 6.9395608901977539063 6.9827494621276855469 6.8762745857238769531 6.6573929786682128906 6.4914093017578125 6.2692542076110839844 6.1001224517822265625 5.9558930397033691406 5.8003249168395996094 5.5704030990600585938 5.4473400115966796875 5.4141955375671386719 5.5678548812866210938 4.728946685791015625 4.7137970924377441406 5.79392242431640625 5.6808462142944335938 5.7037687301635742188 5.9419393539428710938 6.1296715736389160156 6.2531046867370605469 6.0406332015991210938 5.7716541290283203125 5.7013673782348632813 5.6616082191467285156 4.5547556877136230469 5.6133112907409667969 5.7804155349731445313 5.8603878021240234375 5.9190845489501953125 5.9722728729248046875 5.8749651908874511719 5.4978928565979003906 5.2799849510192871094 5.2217755317687988281 5.301364898681640625 5.4914674758911132813 5.5879697799682617188 5.6640043258666992188 5.7677206993103027344 5.8884234428405761719 5.9606428146362304688 6.0913915634155273438 6.3275547027587890625 6.4174890518188476563 6.3700885772705078125 6.3992495536804199219 6.4516630172729492188 6.003021240234375 5.0837969779968261719 4.5295343399047851563 4.273223876953125 4.2804160118103027344 4.1953663825988769531 4.0860309600830078125 4.0428180694580078125 3.9877240657806396484 2.8142104148864746094 3.8279011249542236328 3.8258557319641113281 4.0027980804443359375 4.4279150962829589844 4.8419976234436035156 5.2037568092346191406 5.6266531944274902344 6.5242371559143066406 7.2806673049926757813 7.7419061660766601563 8.2033720016479492188 8.4664936065673828125 7.9405283927917480469 6.9152650833129882813 6.5534424781799316406 6.5662050247192382813 6.6984796524047851563 7.0022902488708496094 7.6528415679931640625 9.1268510818481445313 11.397887229919433594 14.029366493225097656 16.647108078002929688 18.309841156005859375 19.090242385864257813 19.866498947143554688 -9999 -9999 -9999 -9999 -9999 -9999 -9999 -9999 -9999 -9999 -9999 -9999 -9999 -9999 -9999 -9999 -9999 -9999 -9999 -9999 -9999
 -9999 -9999 -9999 -9999 -9999 -9999 -9999 -9999 -9999 -9999 -9999 -9999 -9999 -9999 -9999 -9999 -9999 -9999 8.7621145248413085938 9.0130395889282226563 8.7132883071899414063 8.17693328857421875 7.5018429756164550781 7.2565326690673828125 7.2575664520263671875 7.1940407752990722656 6.993106842041015625 6.8811755180358886719 6.8288016319274902344 6.8110294342041015625 6.8613986968994140625 6.9969882965087890625 7.0158872604370117188 6.8757123947143554688 6.6756825447082519531 6.5138845443725585938 6.3241281509399414063 6.13834381103515625 5.9519047737121582031 5.785694122314453125 5.6636762619018554688 5.5897431373596191406 5.5411992073059082031 4.6956839561462402344 4.7459087371826171875 6.24161529541015625 6.0858983993530273438 5.8672084808349609375 5.8769831657409667969 5.9991278648376464844 6.1263866424560546875 6.2618379592895507813 6.0933980941772460938 5.8675756454467773438 5.8115983009338378906 4.6509375572204589844 5.5816774368286132813 5.6370954513549804688 5.8519287109375 5.9068994522094726563 5.8471550941467285156 5.8706049919128417969 5.8994975090026855469 5.6233472824096679688 5.3165616989135742188 5.1912016868591308594 5.2965598106384277344 5.4296636581420898438 5.5049662590026855469 5.6301732063293457031 5.7863483428955078125 5.9237971305847167969 6.0513486862182617188 6.2142543792724609375 6.4013886451721191406 6.4587359428405761719 6.4548707008361816406 6.4854931831359863281 6.5220727920532226563 6.1179380416870117188 5.0954318046569824219 4.4356985092163085938 4.1588163375854492188 4.1475157737731933594 4.1372814178466796875 4.0727267265319824219 4.0387401580810546875 3.9972400665283203125 3.9362275600433349609 2.7588703632354736328 3.8372774124145507813 3.9827408790588378906 4.3722467422485351563 4.8057579994201660156 5.1287093162536621094 5.5315542221069335938 6.4797358512878417969 7.3530449867248535156 7.8645253181457519531 8.3175811767578125 8.6527109146118164063 8.4325895309448242188 7.7219843864440917969 7.2921652793884277344 7.0961747169494628906 6.8706889152526855469 6.9792561531066894531 7.4292192459106445313 8.2035169601440429688 9.4730100631713867188 11.646149635314941406 14.478217124938964844 16.490095138549804688 17.469484329223632813 18.429483413696289063 18.32791900634765625 -9999 -9999 -9999 -9999 -9999 -9999 -9999 -9999 -9999 -9999 -9999 -9999 -9999 -9999 -9999 -9999 -9999 -9999 -9999 -9999
 -9999 -9999 -9999 -9999 -9999 -9999 -9999 -9999 -9999 -9999 -9999 -9999 -9999 -9999 -9999 -9999 -9999 -9999 8.7490863800048828125 8.835102081298828125 8.42591094970703125 8.0260562896728515625 7.3999423980712890625 7.1545052528381347656 7.1729917526245117188 7.1445293426513671875 7.0196218490600585938 6.8652329444885253906 6.8890705108642578125 6.9770212173461914063 6.9801025390625 6.9591555595397949219 6.911289215087890625 6.7919964790344238281 6.6727399826049804688 6.5001721382141113281 6.3095312118530273438 6.1523699760437011719 5.9419827461242675781 5.7938218116760253906 5.7766242027282714844 5.76129150390625 4.7422771453857421875 4.7780199050903320313 6.2637720108032226563 6.5197620391845703125 6.3526868820190429688 6.0772395133972167969 6.0138487815856933594 6.0891604423522949219 6.1919617652893066406 6.3093647956848144531 6.1650114059448242188 5.9341821670532226563 4.7243032455444335938 5.8051238059997558594 5.6709170341491699219 5.7554788589477539063 6.0685267448425292969 6.0862026214599609375 5.8440260887145996094 5.824634552001953125 5.9064207077026367188 5.7738175392150878906 5.4235444068908691406 5.3138918876647949219 5.4188508987426757813 5.5337777137756347656 5.6095528602600097656 5.7259311676025390625 5.8645572662353515625 6.10950469970703125 6.3495688438415527344 6.4613566398620605469 6.4485039710998535156 6.3834695816040039063 6.4160289764404296875 6.4705042839050292969 6.5220932960510253906 6.1962537765502929688 5.2152361869812011719 4.5259909629821777344 4.1936192512512207031 4.0257463455200195313 4.0021176338195800781 4.0864162445068359375 4.068317413330078125 3.9500069618225097656 3.9315350055694580078 2.7292258739471435547 3.7999787330627441406 3.9450354576110839844 4.3606581687927246094 4.7456984519958496094 5.0277042388916015625 5.4225096702575683594 6.4551749229431152344 7.5275363922119140625 7.9729237556457519531 8.2901468276977539063 8.7014989852905273438 8.853183746337890625 8.7580661773681640625 8.6804485321044921875 8.3587818145751953125 7.5747699737548828125 7.3190364837646484375 7.6388597488403320313 8.0268869400024414063 8.5628194808959960938 9.5325918197631835938 10.962368011474609375 12.302956581115722656 13.389733314514160156 15.037655830383300781 15.663483619689941406 15.734559059143066406 -9999 -9999 -9999 -9999 -9999 -9999 -9999 -9999 -9999 -9999 -9999 -9999 -9999 -9999 -9999 -9999 -9999 -9999 -9999
 -9999 -9999 -9999 -9999 -9999 -9999 -9999 -9999 -9999 -9999 -9999 -9999 -9999 -9999 -9999 -9999 -9999 -9999 8.632541656494140625 8.2859716415405273438 7.9574294090270996094 7.7149853706359863281 7.227703094482421875 7.0251927375793457031 7.0058298110961914063 6.9834542274475097656 6.9802179336547851563 6.8769602775573730469 6.9015941619873046875 7.0602993965148925781 7.0505037307739257813 6.8622341156005859375 6.7600445747375488281 6.7010922431945800781 6.6411232948303222656 6.4720697402954101563 6.29242706298828125 6.1607465744018554688 5.9553465843200683594 5.795688629150390625 5.8141531944274902344 5.8426194190979003906 4.8101315498352050781 6.1101446151733398438 6.4356083869934082031 6.6398787498474121094 6.5642247200012207031 6.2886052131652832031 6.1546006202697753906 6.2576117515563964844 6.3530421257019042969 6.4520959854125976563 4.8345446586608886719 4.7976694107055664063 5.8843111991882324219 5.8368792533874511719 5.71205902099609375 5.6819205284118652344 5.8844013214111328125 5.8903574943542480469 5.7100834846496582031 5.7192883491516113281 5.76816558837890625 5.7896180152893066406 5.62329864501953125 5.507907867431640625 5.5464987754821777344 5.7333121299743652344 5.8398346900939941406 5.9130702018737792969 6.0414042472839355469 6.397251129150390625 6.7316865921020507813 6.7964878082275390625 6.6156554222106933594 6.411411285400390625 6.4092288017272949219 6.4422688484191894531 6.4517688751220703125 6.1968326568603515625 5.3760256767272949219 4.6951489448547363281 4.3760533332824707031 4.1773056983947753906 4.0136437416076660156 3.9955399036407470703 3.9254739284515380859 3.7729008197784423828 3.7901911735534667969 0.678966522216796875 3.6823296546936035156 3.94788360595703125 4.271175384521484375 4.5647525787353515625 4.8192286491394042969 5.2298073768615722656 6.3585910797119140625 7.5771632194519042969 8.029064178466796875 8.2129049301147460938 8.6370077133178710938 8.9977560043334960938 9.1953496932983398438 9.3629131317138671875 9.2203044891357421875 8.6439256668090820313 8.2462139129638671875 8.2393522262573242188 8.4285373687744140625 8.6729030609130859375 9.0114526748657226563 9.49291229248046875 10.028464317321777344 10.780916213989257813 12.399261474609375 13.80062103271484375 14.95310211181640625 -9999 -9999 -9999 -9999 -9999 -9999 -9999 -9999 -9999 -9999 -9999 -9999 -9999 -9999 -9999 -9999 -9999 -9999 -9999
 -9999 -9999 -9999 -9999 -9999 -9999 -9999 -9999 -9999 -9999 -9999 -9999 -9999 -9999 -9999 -9999 -9999 -9999 8.4644594192504882813 8.0877408981323242188 7.8224763870239257813 7.5572800636291503906 7.1191501617431640625 6.9678330421447753906 6.9764971733093261719 6.9092001914978027344 6.9020376205444335938 6.9782514572143554688 7.0633959770202636719 7.1504201889038085938 7.1008596420288085938 6.8874115943908691406 6.785556793212890625 6.7351598739624023438 6.6490774154663085938 6.4891228675842285156 6.3029012680053710938 6.152557373046875 5.9696097373962402344 5.859218597412109375 5.9232311248779296875 4.8422427177429199219 6.01016998291015625 6.2985239028930664063 6.5967187881469726563 6.7002620697021484375 6.6037077903747558594 6.31793212890625 6.163372039794921875 6.3528790473937988281 6.4676051139831542969 4.9079103469848632813 4.8710355758666992188 6.3427219390869140625 6.0233016014099121094 5.9661684036254882813 5.8745551109313964844 5.6462740898132324219 5.6475954055786132813 5.6688442230224609375 5.6332583427429199219 5.6039204597473144531 5.5670642852783203125 5.6845278739929199219 5.7799477577209472656 5.730525970458984375 5.6842784881591796875 5.868946075439453125 5.9740552902221679688 6.042613983154296875 6.210292816162109375 6.4874162673950195313 6.819610595703125 6.9636449813842773438 6.8142409324645996094 6.5931186676025390625 6.5196013450622558594 6.5274133682250976563 6.528057098388671875 6.224460601806640625 5.4370784759521484375 4.8772091865539550781 4.6224293708801269531 4.4167599678039550781 4.1572613716125488281 3.8551290035247802734 3.6683530807495117188 3.5418019294738769531 0.92169082164764404297 0.89999997615814208984 3.7124543190002441406 3.9065458774566650391 4.1374135017395019531 4.3888530731201171875 4.6568784713745117188 5.1289715766906738281 6.2970709800720214844 7.378826141357421875 7.9136190414428710938 8.1423444747924804688 8.5860033035278320313 8.9891510009765625 9.2201414108276367188 9.4169912338256835938 9.5451679229736328125 9.656383514404296875 9.5607700347900390625 9.45446014404296875 9.544643402099609375 9.5289487838745117188 9.4753618240356445313 9.5731210708618164063 9.80797576904296875 10.368455886840820313 11.943436622619628906 13.88156890869140625 15.507986068725585938 16.491487503051757813 -9999 -9999 -9999 -9999 -9999 -9999 -9999 -9999 -9999 -9999 -9999 -9999 -9999 -9999 -9999 -9999 -9999 -9999
 -9999 -9999 -9999 -9999 -9999 -9999 -9999 -9999 -9999 -9999 -9999 -9999 -9999 -9999 -9999 -9999 -9999 -9999 8.3642511367797851563 8.1200227737426757813 7.8519649505615234375 7.5332670211791992188 7.1196675300598144531 7.016326904296875 7.1070909500122070313 7.0606842041015625 7.0010142326354980469 7.1085748672485351563 7.1520290374755859375 7.0907578468322753906 6.9903044700622558594 6.8528890609741210938 6.7912607192993164063 6.7439808845520019531 6.6510324478149414063 6.5147871971130371094 6.350864410400390625 6.1805295944213867188 6.050678253173828125 6.0756397247314453125 4.8743538856506347656 6.2896704673767089844 6.3465147018432617188 6.6198596954345703125 6.7999739646911621094 6.7984104156494140625 6.6556453704833984375 6.2763695716857910156 6.1291179656982421875 6.4267187118530273438 4.9812765121459960938 4.9444017410278320313 6.6712055206298828125 6.5296316146850585938 6.2776360511779785156 6.2226886749267578125 6.1208181381225585938 5.8086538314819335938 5.7181839942932128906 5.7063360214233398438 5.649944305419921875 5.6029481887817382813 5.5603380203247070313 5.6452264785766601563 5.7847094535827636719 5.8296098709106445313 5.8457784652709960938 5.9983673095703125 6.0494966506958007813 6.0084300041198730469 6.06150054931640625 6.2711510658264160156 6.4895486831665039063 6.6170210838317871094 6.6484675407409667969 6.6243100166320800781 6.6742596626281738281 6.7079834938049316406 6.6414203643798828125 6.2498316764831542969 5.5666785240173339844 5.0280795097351074219 4.669525146484375 4.4109063148498535156 4.1066722869873046875 3.7430815696716308594 3.5832421779632568359 1.2038630247116088867 3.7512238025665283203 2.0212044715881347656 3.6798851490020751953 3.7731058597564697266 3.9810049533843994141 4.2693996429443359375 4.5577883720397949219 5.1185693740844726563 6.4346332550048828125 7.3858857154846191406 7.8057470321655273438 8.0901651382446289063 8.54586029052734375 8.9327716827392578125 9.212001800537109375 9.4481487274169921875 9.705760955810546875 10.223827362060546875 10.669580459594726563 11.060673713684082031 11.288952827453613281 11.109698295593261719 10.785525321960449219 10.709664344787597656 10.896974563598632813 11.528661727905273438 13.4419097900390625 15.741962432861328125 17.16228485107421875 17.917013168334960938 -9999 -9999 -9999 -9999 -9999 -9999 -9999 -9999 -9999 -9999 -9999 -9999 -9999 -9999 -9999 -9999 -9999 -9999
 -9999 -9999 -9999 -9999 -9999 -9999 -9999 -9999 -9999 -9999 -9999 -9999 -9999 -9999 -9999 -9999 -9999 -9999 8.5318727493286132813 8.2409772872924804688 7.9957933425903320313 7.6827130317687988281 7.2853655815124511719 7.1643576622009277344 7.1956882476806640625 7.1810884475708007813 7.2000713348388671875 7.2692632675170898438 7.2079763412475585938 6.9569907188415527344 6.7866015434265136719 6.7289371490478515625 6.6943330764770507813 6.6183490753173828125 6.5173830986022949219 6.415283203125 6.3593626022338867188 6.2701010704040527344 6.1971578598022460938 4.9064655303955078125 6.5733771324157714844 6.7318296432495117188 6.8562293052673339844 6.8930206298828125 6.8761768341064453125 6.8973774909973144531 6.843257904052734375 6.4287610054016113281 6.262786865234375 5.0546426773071289063 5.0177674293518066406 6.7092161178588867188 6.8285503387451171875 6.7926845550537109375 6.6734552383422851563 6.5928959846496582031 6.467678070068359375 6.1756434440612792969 5.92932891845703125 5.8248534202575683594 5.7388033866882324219 5.6994900703430175781 5.6637034416198730469 5.7093186378479003906 5.8099455833435058594 5.89166259765625 5.9719552993774414063 6.08812713623046875 6.0927257537841796875 5.9692292213439941406 5.9110140800476074219 6.0564165115356445313 6.1739935874938964844 6.2181253433227539063 6.2896175384521484375 6.4347186088562011719 6.667575836181640625 6.774761199951171875 6.7065172195434570313 6.2520031929016113281 5.6149973869323730469 5.05065155029296875 4.5851635932922363281 4.2896299362182617188 3.9583759307861328125 3.5928471088409423828 1.5052980184555053711 1.366929173469543457 3.8027653694152832031 3.7216885089874267578 2.3691637516021728516 3.6502041816711425781 3.8715338706970214844 4.2177944183349609375 4.5203232765197753906 5.1250286102294921875 6.6234588623046875 7.7296428680419921875 8.0092134475708007813 8.1730709075927734375 8.5461187362670898438 8.878787994384765625 9.1796665191650390625 9.4394474029541015625 9.7445201873779296875 10.475759506225585938 11.310657501220703125 11.978556632995605469 12.40325164794921875 12.623210906982421875 12.792322158813476563 12.835656166076660156 12.846028327941894531 13.609850883483886719 15.800502777099609375 17.523298263549804688 18.414823532104492188 18.998098373413085938 -9999 -9999 -9999 -9999 -9999 -9999 -9999 -9999 -9999 -9999 -9999 -9999 -9999 -9999 -9999 -9999 -9999 -9999
 -9999 -9999 -9999 -9999 -9999 -9999 -9999 -9999 -9999 -9999 -9999 -9999 -9999 -9999 -9999 -9999 -9999 -9999 8.9472713470458984375 8.4491453170776367188 8.1260986328125 7.8162226676940917969 7.4424195289611816406 7.3294758796691894531 7.359264373779296875 7.3499517440795898438 7.3301792144775390625 7.2917256355285644531 7.1956787109375 7.0078787803649902344 6.8011908531188964844 6.6818637847900390625 6.6440477371215820313 6.5670413970947265625 6.3788266181945800781 6.2403054237365722656 6.2392749786376953125 6.2815370559692382813 4.9385766983032226563 6.4977712631225585938 6.9588146209716796875 7.1386322975158691406 7.0774683952331542969 6.8634700775146484375 6.7410612106323242188 6.7597208023071289063 6.8276658058166503906 6.6654047966003417969 5.1280083656311035156 5.0911335945129394531 7.06501007080078125 7.0915617942810058594 7.1262192726135253906 7.1581878662109375 7.1527380943298339844 7.0722126960754394531 6.8421330451965332031 6.474578857421875 6.1229538917541503906 6.0256533622741699219 6.05696868896484375 6.0295953750610351563 5.9365510940551757813 5.934459686279296875 5.9946713447570800781 6.0797610282897949219 6.1668529510498046875 6.2213354110717773438 6.1873698234558105469 6.0593905448913574219 6.0049800872802734375 6.0538182258605957031 6.0946278572082519531 6.0741138458251953125 6.1086378097534179688 6.2766594886779785156 6.5230984687805175781 6.7030396461486816406 6.819042205810546875 6.361186981201171875 5.523662567138671875 4.9997777938842773438 4.5957388877868652344 4.1785454750061035156 3.8827965259552001953 1.8188600540161132813 1.6813387870788574219 3.8224663734436035156 3.757659912109375 3.4972391128540039063 2.4265289306640625 3.621433258056640625 3.8613512516021728516 4.1482439041137695313 4.4239306449890136719 4.9662408828735351563 6.4170427322387695313 7.7707366943359375 8.2027339935302734375 8.32262420654296875 8.5636768341064453125 8.8447217941284179688 9.1413469314575195313 9.425251007080078125 9.8091840744018554688 10.71524810791015625 11.681756973266601563 12.591628074645996094 13.487396240234375 14.264979362487792969 14.793313026428222656 14.965841293334960938 14.892955780029296875 15.397367477416992188 17.01004791259765625 18.374887466430664063 19.206066131591796875 19.785614013671875 20.034349441528320313 -9999 -9999 -9999 -9999 -9999 -9999 -9999 -9999 -9999 -9999 -9999 -9999 -9999 -9999 -9999 -9999 -9999
 -9999 -9999 -9999 -9999 -9999 -9999 -9999 -9999 -9999 -9999 -9999 -9999 -9999 -9999 -9999 -9999 -9999 -9999 9.2727842330932617188 8.5884857177734375 8.2269916534423828125 7.96443939208984375 7.6083760261535644531 7.5098395347595214844 7.5671105384826660156 7.5213251113891601563 7.3744211196899414063 7.2390341758728027344 7.1932992935180664063 7.1733288764953613281 6.9938340187072753906 6.829227447509765625 6.7854342460632324219 6.7130422592163085938 6.469738006591796875 6.3098120689392089844 6.3465719223022460938 4.9706883430480957031 6.2518658638000488281 6.5774545669555664063 7.0947275161743164063 7.21208953857421875 6.9625239372253417969 6.6148777008056640625 6.4477992057800292969 6.4311895370483398438 6.5185527801513671875 5.2013745307922363281 5.1644997596740722656 7.3330526351928710938 7.4689946174621582031 7.4846200942993164063 7.5175557136535644531 7.6307187080383300781 7.7027144432067871094 7.6287355422973632813 7.2574496269226074219 6.7640690803527832031 6.3631844520568847656 6.3641381263732910156 6.6441578865051269531 6.6324687004089355469 6.3961682319641113281 6.2538619041442871094 6.2532343864440917969 6.3024744987487792969 6.2992773056030273438 6.3125314712524414063 6.3033728599548339844 6.2548313140869140625 6.2119774818420410156 6.1445364952087402344 6.1199350357055664063 6.118076324462890625 6.1648411750793457031 6.3353986740112304688 6.5180106163024902344 6.7693471908569335938 7.1818470954895019531 6.7802257537841796875 5.5489149093627929688 4.9316015243530273438 4.6169714927673339844 4.1955595016479492188 4.0318660736083984375 2.0141482353210449219 4.0448160171508789063 4.064090728759765625 3.8740024566650390625 2.5664782524108886719 3.4943399429321289063 3.6413388252258300781 3.8586521148681640625 4.0826444625854492188 4.3348937034606933594 4.7295255661010742188 5.8877682685852050781 7.3747835159301757813 8.1034755706787109375 8.4001979827880859375 8.538463592529296875 8.7494783401489257813 9.070556640625 9.3659458160400390625 9.870471954345703125 11.06543731689453125 12.201142311096191406 13.440531730651855469 14.717254638671875 15.684468269348144531 16.321992874145507813 16.856801986694335938 16.98072052001953125 17.0507965087890625 17.608087539672851563 18.78133392333984375 19.608007431030273438 20.0684051513671875 20.327587127685546875 20.499114990234375 -9999 -9999 -9999 -9999 -9999 -9999 -9999 -9999 -9999 -9999 -9999 -9999 -9999 -9999 -9999 -9999
 -9999 -9999 -9999 -9999 -9999 -9999 -9999 -9999 -9999 -9999 -9999 -9999 -9999 -9999 -9999 -9999 -9999 -9999 9.3255643844604492188 8.6707372665405273438 8.3150949478149414063 8.0547056198120117188 7.71539306640625 7.6229991912841796875 7.6629934310913085938 7.5698785781860351563 7.3953294754028320313 7.2724537849426269531 7.267612457275390625 7.2884349822998046875 7.1328806877136230469 6.9963908195495605469 6.9443697929382324219 6.8293833732604980469 6.59229278564453125 6.4719562530517578125 5.0027995109558105469 4.9876499176025390625 6.2654094696044921875 6.5624041557312011719 7.0848035812377929688 7.1873521804809570313 6.8924889564514160156 6.5284018516540527344 6.3265748023986816406 6.2906322479248046875 5.2747406959533691406 5.237865447998046875 6.9729714393615722656 7.4857273101806640625 7.6405844688415527344 7.6310882568359375 7.6831326484680175781 7.8093485832214355469 7.9025120735168457031 7.8473219871520996094 7.4697513580322265625 6.9668092727661132813 6.5499901771545410156 6.5791220664978027344 6.9340076446533203125 6.9082102775573730469 6.6075825691223144531 6.416851043701171875 6.3934354782104492188 6.4035878181457519531 6.332653045654296875 6.3355278968811035156 6.3393025398254394531 6.3059482574462890625 6.2598943710327148438 6.185665130615234375 6.1799230575561523438 6.2139143943786621094 6.2578597068786621094 6.3946700096130371094 6.5516991615295410156 6.8083596229553222656 7.2747330665588378906 6.9320302009582519531 5.6520032882690429688 4.9681773185729980469 4.6514997482299804688 4.2972965240478515625 2.3272063732147216797 4.2050838470458984375 4.1829466819763183594 4.1420412063598632813 3.9450755119323730469 2.5755105018615722656 2.5788638591766357422 3.6400091648101806641 3.8255262374877929688 4.0707616806030273438 4.3521494865417480469 4.6863641738891601563 5.6217312812805175781 6.9865102767944335938 7.9191193580627441406 8.3621168136596679688 8.517520904541015625 8.7196683883666992188 9.0558061599731445313 9.3611621856689453125 9.89484405517578125 11.164858818054199219 12.369747161865234375 13.701869964599609375 15.05460357666015625 16.1010589599609375 16.817913055419921875 17.477935791015625 17.687776565551757813 17.655275344848632813 17.892473220825195313 18.913919448852539063 19.70795440673828125 20.084217071533203125 20.319303512573242188 20.496273040771484375 -9999 -9999 -9999 -9999 -9999 -9999 -9999 -9999 -9999 -9999 -9999 -9999 -9999 -9999 -9999 -9999
 -9999 -9999 -9999 -9999 -9999 -9999 -9999 -9999 -9999 -9999 -9999 -9999 -9999 -9999 -9999 -9999 -9999 -9999 9.2657957077026367188 8.873401641845703125 8.5289201736450195313 8.2029371261596679688 7.8932700157165527344 7.8023462295532226563 7.7725644111633300781 7.6301259994506835938 7.5353112220764160156 7.4900293350219726563 7.4987583160400390625 7.4616160392761230469 7.3284153938293457031 7.2408094406127929688 7.156200408935546875 6.9539861679077148438 6.7909760475158691406 5.0349111557006835938 5.0197610855102539063 6.5815839767456054688 6.4053440093994140625 6.5449533462524414063 7.0018734931945800781 7.1049075126647949219 6.8545680046081542969 6.5630979537963867188 6.3243012428283691406 6.264568328857421875 5.2982182502746582031 5.4244132041931152344 6.7980608940124511719 7.3842639923095703125 7.6159830093383789063 7.6831135749816894531 7.7841730117797851563 7.851284027099609375 7.9257416725158691406 7.9194178581237792969 7.6617059707641601563 7.2481398582458496094 6.8234157562255859375 6.8017563819885253906 7.0513749122619628906 6.9674072265625 6.697132110595703125 6.5406627655029296875 6.4908571243286132813 6.4574370384216308594 6.353420257568359375 6.3233580589294433594 6.3001356124877929688 6.2346959114074707031 6.2220835685729980469 6.2511000633239746094 6.314540863037109375 6.3770351409912109375 6.3903646469116210938 6.4369373321533203125 6.5751552581787109375 6.7605314254760742188 7.0501985549926757813 6.8072772026062011719 5.8605818748474121094 5.1438055038452148438 4.7335495948791503906 4.4630999565124511719 2.416606903076171875 4.3247013092041015625 4.2430248260498046875 4.1871542930603027344 4.0153384208679199219 3.7773687839508056641 2.655223846435546875 3.6771419048309326172 3.7921531200408935547 4.0917263031005859375 4.4284310340881347656 4.7292923927307128906 5.4084348678588867188 6.4339861869812011719 7.5333642959594726563 8.1480779647827148438 8.4774332046508789063 8.72057342529296875 9.0368289947509765625 9.3690919876098632813 9.8571557998657226563 10.979289054870605469 12.102203369140625 13.274324417114257813 14.434795379638671875 15.577822685241699219 16.523942947387695313 17.175394058227539063 17.301031112670898438 17.354724884033203125 17.815418243408203125 18.834835052490234375 19.654407501220703125 19.933534622192382813 20.00464630126953125 -9999 -9999 -9999 -9999 -9999 -9999 -9999 -9999 -9999 -9999 -9999 -9999 -9999 -9999 -9999 -9999 -9999
 -9999 -9999 -9999 -9999 -9999 -9999 -9999 -9999 -9999 -9999 -9999 -9999 -9999 -9999 -9999 -9999 -9999 9.4163389205932617188 9.3747100830078125 9.1923274993896484375 8.8125429153442382813 8.4196376800537109375 8.09716796875 7.9798793792724609375 7.9089555740356445313 7.8308868408203125 7.8391671180725097656 7.8076796531677246094 7.766712188720703125 7.6456351280212402344 7.5168972015380859375 7.340564727783203125 7.2033619880676269531 5.1028499603271484375 5.0670223236083984375 5.0518727302551269531 7.0413227081298828125 6.857959747314453125 6.6205511093139648438 6.6462330818176269531 6.8688058853149414063 6.91628265380859375 6.7805728912353515625 6.5868067741394042969 6.3938169479370117188 6.3252420425415039063 6.3414797782897949219 5.4258723258972167969 4.6051506996154785156 7.0447640419006347656 7.3248653411865234375 7.6921305656433105469 7.9541239738464355469 7.9507246017456054688 7.9541783332824707031 7.9670572280883789063 7.7879462242126464844 7.4340314865112304688 7.02213287353515625 6.9299230575561523438 7.00262451171875 6.8820357322692871094 6.7122921943664550781 6.5667715072631835938 6.4451613426208496094 6.421573638916015625 6.3793039321899414063 6.2694950103759765625 6.2047104835510253906 6.1776051521301269531 6.2555217742919921875 6.3553290367126464844 6.4062204360961914063 6.4438128471374511719 6.4521856307983398438 6.465541839599609375 6.5524678230285644531 6.6394200325012207031 6.7336759567260742188 6.5599780082702636719 5.9476184844970703125 5.2155981063842773438 4.7119998931884765625 4.4886884689331054688 3.3959701061248779297 4.4717969894409179688 4.4105200767517089844 4.316680908203125 4.1809329986572265625 3.8588030338287353516 2.7348618507385253906 3.8134114742279052734 3.8571252822875976563 4.1097636222839355469 4.390960693359375 4.6143741607666015625 5.155910491943359375 6.0687794685363769531 7.08245086669921875 7.8531298637390136719 8.3680696487426757813 8.5893707275390625 8.8325347900390625 9.1613826751708984375 9.581684112548828125 10.481777191162109375 11.360939979553222656 12.18354034423828125 12.929302215576171875 13.88205718994140625 15.034068107604980469 15.944369316101074219 16.140508651733398438 16.288667678833007813 17.057348251342773438 18.38497161865234375 19.294683456420898438 19.56514739990234375 19.649400711059570313 -9999 -9999 -9999 -9999 -9999 -9999 -9999 -9999 -9999 -9999 -9999 -9999 -9999 -9999 -9999 -9999 -9999
 -9999 -9999 -9999 -9999 -9999 -9999 -9999 -9999 -9999 -9999 -9999 -9999 -9999 -9999 -9999 -9999 -9999 9.5406217575073242188 9.5831212997436523438 9.402408599853515625 8.9295473098754882813 8.50193023681640625 8.1144866943359375 7.96856689453125 7.9457421302795410156 7.9592609405517578125 7.9540791511535644531 7.9667816162109375 7.9285526275634765625 7.7756471633911132813 7.6258234977722167969 7.3379721641540527344 6.1813116073608398438 5.1141734123229980469 5.0790357589721679688 7.2110433578491210938 7.1500840187072753906 7.00775146484375 6.7844777107238769531 6.7198123931884765625 6.8598971366882324219 6.9073047637939453125 6.8175091743469238281 6.6370038986206054688 6.48896026611328125 6.4417018890380859375 6.4087352752685546875 6.5055098533630371094 4.661724090576171875 4.766033172607421875 7.2641263008117675781 7.7014207839965820313 8.0581045150756835938 8.0560579299926757813 8.0061979293823242188 7.9966816902160644531 7.8085131645202636719 7.4894123077392578125 7.1494545936584472656 7.0473017692565917969 7.0454254150390625 6.9259014129638671875 6.7264294624328613281 6.5298700332641601563 6.3941969871520996094 6.3748455047607421875 6.3577427864074707031 6.2312135696411132813 6.1726403236389160156 6.1806612014770507813 6.2453513145446777344 6.3660120964050292969 6.4706559181213378906 6.4785709381103515625 6.4799776077270507813 6.4756979942321777344 6.5087256431579589844 6.5212292671203613281 6.4850888252258300781 6.2884521484375 5.7419562339782714844 5.0373320579528808594 4.5428605079650878906 4.3448262214660644531 3.3432459831237792969 4.3910617828369140625 4.4070439338684082031 4.3886766433715820313 4.2418122291564941406 3.9478759765625 2.8395817279815673828 3.8393104076385498047 3.8839750289916992188 4.1165323257446289063 4.3480792045593261719 4.536075592041015625 4.9672298431396484375 5.685611724853515625 6.706684112548828125 7.653957366943359375 8.1742639541625976563 8.3225660324096679688 8.4908199310302734375 8.730518341064453125 9.0392818450927734375 9.7369365692138671875 10.466725349426269531 11.096121788024902344 11.694654464721679688 12.410910606384277344 13.394174575805664063 14.623545646667480469 15.437320709228515625 15.932313919067382813 16.912427902221679688 18.080654144287109375 18.911352157592773438 19.303974151611328125 19.437923431396484375 -9999 -9999 -9999 -9999 -9999 -9999 -9999 -9999 -9999 -9999 -9999 -9999 -9999 -9999 -9999 -9999 -9999
 -9999 -9999 -9999 -9999 -9999 -9999 -9999 -9999 -9999 -9999 -9999 -9999 -9999 -9999 -9999 -9999 -9999 9.6454143524169921875 9.6216192245483398438 9.4013299942016601563 8.8875589370727539063 8.4921588897705078125 8.1198110580444335938 7.990352630615234375 8.0242967605590820313 8.070171356201171875 8.0206298828125 7.9793767929077148438 7.9510903358459472656 7.8592400550842285156 7.7236781120300292969 6.4023303985595703125 6.3190045356750488281 7.3728585243225097656 7.3972034454345703125 7.2896304130554199219 7.2238531112670898438 7.1293005943298339844 6.914020538330078125 6.8341035842895507813 6.9708914756774902344 7.0167827606201171875 6.9343266487121582031 6.77487945556640625 6.5997729301452636719 6.527965545654296875 6.4869446754455566406 6.6966490745544433594 7.0085005760192871094 4.8596057891845703125 4.9639148712158203125 7.595447540283203125 7.8778223991394042969 8.0162067413330078125 8.0857028961181640625 8.0731706619262695313 7.8689126968383789063 7.5854930877685546875 7.3138003349304199219 7.2137246131896972656 7.1507782936096191406 6.9964590072631835938 6.7837347984313964844 6.583889007568359375 6.4636793136596679688 6.4324679374694824219 6.3781766891479492188 6.2334084510803222656 6.1803822517395019531 6.217235565185546875 6.3273706436157226563 6.497547149658203125 6.5918984413146972656 6.5327253341674804688 6.5171422958374023438 6.4938650131225585938 6.5153403282165527344 6.5036458969116210938 6.386394500732421875 6.0814194679260253906 5.4827051162719726563 4.8810634613037109375 4.4931197166442871094 4.2314152717590332031 3.1567301750183105469 3.1486759185791015625 4.1940126419067382813 4.2897839546203613281 4.2048940658569335938 4.0143480300903320313 2.97811126708984375 3.9817693233489990234 3.9926362037658691406 4.1366333961486816406 4.3599781990051269531 4.5461978912353515625 4.8998117446899414063 5.4368414878845214844 6.2856898307800292969 7.1631846427917480469 7.6831912994384765625 7.9379611015319824219 8.080928802490234375 8.2564601898193359375 8.476596832275390625 9.0374765396118164063 9.8006954193115234375 10.46639251708984375 11.1520538330078125 11.957241058349609375 13.118782997131347656 14.520246505737304688 15.548645973205566406 16.270608901977539063 17.58429718017578125 18.749292373657226563 19.359125137329101563 19.579034805297851563 -9999 -9999 -9999 -9999 -9999 -9999 -9999 -9999 -9999 -9999 -9999 -9999 -9999 -9999 -9999 -9999 -9999 -9999
 -9999 -9999 -9999 -9999 -9999 -9999 -9999 -9999 -9999 -9999 -9999 -9999 -9999 -9999 -9999 -9999 -9999 9.7563409805297851563 9.6348009109497070313 9.3259649276733398438 8.8117198944091796875 8.4685153961181640625 8.2102518081665039063 8.1124162673950195313 8.1061859130859375 8.1308965682983398438 8.0858850479125976563 8.020488739013671875 7.9764614105224609375 7.912776947021484375 6.57861328125 6.4952878952026367188 7.7276167869567871094 7.7763381004333496094 7.6698589324951171875 7.4257388114929199219 7.3885474205017089844 7.2954950332641601563 7.0538272857666015625 6.9891271591186523438 7.0807552337646484375 7.1125059127807617188 7.0533857345581054688 6.905788421630859375 6.7456192970275878906 6.6367511749267578125 6.6556854248046875 6.9844379425048828125 7.3532762527465820313 7.2413129806518554688 5.1391229629516601563 7.4274001121520996094 7.6717476844787597656 7.9176950454711914063 8.1543798446655273438 8.1670618057250976563 7.9523472785949707031 7.7320404052734375 7.5426120758056640625 7.4245276451110839844 7.2392978668212890625 7.0334420204162597656 6.8770041465759277344 6.7220478057861328125 6.6237359046936035156 6.5699744224548339844 6.4466238021850585938 6.2702622413635253906 6.2029619216918945313 6.2825298309326171875 6.5074172019958496094 6.5419392585754394531 6.569950103759765625 6.5775933265686035156 6.5429043769836425781 6.4793767929077148438 6.5178990364074707031 6.5214905738830566406 6.3849682807922363281 6.0203890800476074219 5.461490631103515625 4.9530081748962402344 4.5423030853271484375 4.1908349990844726563 3.9927015304565429688 2.9336409568786621094 3.9859306812286376953 4.1559939384460449219 4.2029833793640136719 4.0894026756286621094 2.9918301105499267578 4.1505231857299804688 4.1515040397644042969 4.2206211090087890625 4.4313259124755859375 4.57460784912109375 4.8021273612976074219 5.1970448493957519531 5.6941847801208496094 6.2283539772033691406 6.7652301788330078125 7.3214602470397949219 7.6906557083129882813 7.9518351554870605469 8.1763143539428710938 8.7060060501098632813 9.4716558456420898438 10.2125244140625 11.060879707336425781 12.180459976196289063 13.762969970703125 15.274524688720703125 16.331110000610351563 17.248321533203125 18.9426727294921875 20.027856826782226563 20.288967132568359375 20.217428207397460938 -9999 -9999 -9999 -9999 -9999 -9999 -9999 -9999 -9999 -9999 -9999 -9999 -9999 -9999 -9999 -9999 -9999 -9999
 -9999 -9999 -9999 -9999 -9999 -9999 -9999 -9999 -9999 -9999 -9999 -9999 -9999 -9999 -9999 -9999 -9999 9.9400129318237304688 9.6917619705200195313 9.2967424392700195313 8.8416347503662109375 8.5293140411376953125 8.3023166656494140625 8.2273197174072265625 8.2158784866333007813 8.1910266876220703125 8.1638460159301757813 8.148181915283203125 8.1046495437622070313 7.9419622421264648438 6.6715707778930664063 7.8163099288940429688 7.8786158561706542969 7.9580831527709960938 7.8797435760498046875 7.63714599609375 7.5747480392456054688 7.4518275260925292969 7.22867584228515625 7.1323266029357910156 7.1042375564575195313 7.0988488197326660156 7.0736494064331054688 6.9618558883666992188 6.8196115493774414063 6.6942968368530273438 6.8014774322509765625 7.2823638916015625 7.6170687675476074219 5.3372912406921386719 7.1606583595275878906 7.3715467453002929688 7.6345734596252441406 7.9250288009643554688 8.2390928268432617188 8.31108856201171875 8.1084690093994140625 7.9340996742248535156 7.7516846656799316406 7.5947308540344238281 7.3238248825073242188 7.0897150039672851563 6.980663299560546875 6.88066864013671875 6.7955884933471679688 6.6906409263610839844 6.5237469673156738281 6.3254580497741699219 6.2642354965209960938 6.3578629493713378906 6.5064778327941894531 6.4109311103820800781 6.438182830810546875 6.518077850341796875 6.567413330078125 6.5675611495971679688 6.6156435012817382813 6.5792002677917480469 6.3625483512878417969 6.0390939712524414063 5.6049103736877441406 5.092685699462890625 4.6474099159240722656 4.3539457321166992188 4.1373639106750488281 2.9336409568786621094 4.02582550048828125 4.1439838409423828125 4.271762847900390625 4.1414351463317871094 4.0413885116577148438 3.036346435546875 4.2247118949890136719 4.2700910568237304688 4.3905072212219238281 4.4813070297241210938 4.6657814979553222656 5.0031285285949707031 5.3367476463317871094 5.7055721282958984375 6.1691899299621582031 6.6730751991271972656 7.1520929336547851563 7.5473418235778808594 7.8665304183959960938 8.506252288818359375 9.2523870468139648438 10.038374900817871094 11.100693702697753906 12.460808753967285156 14.096081733703613281 15.644789695739746094 16.787584304809570313 17.866947174072265625 19.810968399047851563 20.80857086181640625 20.980062484741210938 -9999 -9999 20.362705230712890625 20.146211624145507813 19.85785675048828125 19.597806930541992188 -9999 -9999 -9999 -9999 -9999 -9999 -9999 -9999 -9999 -9999 -9999 -9999 -9999
 -9999 -9999 -9999 -9999 -9999 -9999 -9999 -9999 -9999 -9999 -9999 -9999 -9999 -9999 -9999 -9999 10.258765220642089844 10.06917572021484375 9.7454738616943359375 9.3797149658203125 8.985256195068359375 8.6735696792602539063 8.5116624832153320313 8.4683589935302734375 8.430629730224609375 8.3401460647583007813 8.2737360000610351563 8.275760650634765625 8.264495849609375 6.8478541374206542969 7.8453645706176757813 7.9128251075744628906 8.0105304718017578125 8.11313629150390625 8.0615224838256835938 7.8705577850341796875 7.8298549652099609375 7.6829991340637207031 7.4314632415771484375 7.241634368896484375 7.0951800346374511719 7.0638175010681152344 7.0707221031188964844 6.9604010581970214844 6.8204684257507324219 6.7740979194641113281 6.9330205917358398438 7.3470921516418457031 5.5560331344604492188 7.5207004547119140625 7.4878964424133300781 7.615020751953125 7.8419985771179199219 8.0467748641967773438 8.26953125 8.3840532302856445313 8.2724475860595703125 8.12619781494140625 7.8971486091613769531 7.7290282249450683594 7.4888591766357421875 7.2800436019897460938 7.1936049461364746094 7.0876631736755371094 6.9544987678527832031 6.7711391448974609375 6.6201510429382324219 6.4337906837463378906 6.3665518760681152344 6.396739959716796875 6.3990893363952636719 6.274005889892578125 6.3096842765808105469 6.4155621528625488281 6.5196413993835449219 6.5699009895324707031 6.5993094444274902344 6.5348443984985351563 6.2940411567687988281 5.984832763671875 5.5889797210693359375 5.1594696044921875 4.9149870872497558594 4.8804798126220703125 4.6145334243774414063 2.9336409568786621094 4.2905292510986328125 4.2989602088928222656 4.2881283760070800781 4.1418585777282714844 3.9829964637756347656 2.0565981864929199219 4.1714696884155273438 4.2651233673095703125 4.3606081008911132813 4.4148235321044921875 4.5689368247985839844 4.9302287101745605469 5.2604393959045410156 5.5303201675415039063 5.7800383567810058594 6.0343251228332519531 6.4638142585754394531 6.89379119873046875 7.2940263748168945313 8.1241483688354492188 9.0231647491455078125 9.8959903717041015625 10.948106765747070313 12.473727226257324219 14.234648704528808594 15.73079681396484375 16.94406890869140625 18.073558807373046875 19.988979339599609375 20.912462234497070313 21.091266632080078125 20.911518096923828125 20.382761001586914063 19.819271087646484375 19.465703964233398438 19.267004013061523438 18.93151092529296875 18.600000381469726563 18.5 -9999 -9999 -9999 -9999 -9999 -9999 -9999 -9999 -9999 -9999 -9999
 -9999 -9999 -9999 -9999 -9999 -9999 -9999 -9999 -9999 -9999 -9999 -9999 -9999 -9999 -9999 -9999 10.274096488952636719 10.084825515747070313 9.8206300735473632813 9.525302886962890625 9.1151247024536132813 8.8134374618530273438 8.7253580093383789063 8.7027988433837890625 8.636699676513671875 8.4963092803955078125 8.3064355850219726563 8.2099323272705078125 7.0241370201110839844 8.1857404708862304688 8.0325059890747070313 8.0854969024658203125 8.1789007186889648438 8.2698078155517578125 8.1891460418701171875 8.0786371231079101563 8.096469879150390625 7.9311261177062988281 7.6345500946044921875 7.3844895362854003906 7.1626162528991699219 7.0951337814331054688 7.0761232376098632813 6.9695420265197753906 6.903041839599609375 6.9376344680786132813 7.0871148109436035156 7.3464994430541992188 7.6007781028747558594 5.7500262260437011719 8.101322174072265625 8.1308307647705078125 8.1525745391845703125 8.177215576171875 8.1911249160766601563 8.209133148193359375 8.2342815399169921875 8.275360107421875 8.1088323593139648438 7.9442391395568847656 7.7142124176025390625 7.5382289886474609375 7.4347929954528808594 7.2532114982604980469 7.0693655014038085938 6.8347449302673339844 6.6920847892761230469 6.5253634452819824219 6.4678792953491210938 6.4904513359069824219 6.4523992538452148438 6.3298139572143554688 6.3575549125671386719 6.4868578910827636719 6.5409030914306640625 6.4797258377075195313 6.385417938232421875 6.2994518280029296875 6.1065592765808105469 5.7976732254028320313 5.427642822265625 5.219509124755859375 5.1587719917297363281 5.0462756156921386719 4.7364816665649414063 2.9336409568786621094 4.3353867530822753906 4.2852611541748046875 4.1579036712646484375 4.1375041007995605469 4.131237030029296875 2.4010529518127441406 4.0646147727966308594 4.1681528091430664063 4.2987093925476074219 4.3864254951477050781 4.603038787841796875 4.9697084426879882813 5.2131562232971191406 5.3245077133178710938 5.4423875808715820313 5.6086916923522949219 5.8580327033996582031 6.1990933418273925781 6.6933846473693847656 7.8618798255920410156 9.0734710693359375 9.8295068740844726563 10.390612602233886719 12.044849395751953125 14.28131866455078125 15.788244247436523438 17.140886306762695313 18.229022979736328125 19.7979736328125 20.556392669677734375 20.72751617431640625 20.6292266845703125 19.923986434936523438 18.6822662353515625 18.122686386108398438 18.21070098876953125 18.08792877197265625 18.149999618530273438 18.299999237060546875 -9999 -9999 -9999 -9999 -9999 -9999 -9999 -9999 -9999 -9999 -9999
 -9999 -9999 -9999 -9999 -9999 -9999 -9999 -9999 -9999 -9999 -9999 -9999 -9999 -9999 -9999 -9999 10.292672157287597656 10.112723350524902344 9.9010629653930664063 9.6101531982421875 9.1766614913940429688 8.9005861282348632813 8.8359041213989257813 8.819446563720703125 8.7200231552124023438 8.4763698577880859375 8.2451353073120117188 7.1463298797607421875 7.1635718345642089844 8.2269134521484375 8.147998809814453125 8.258533477783203125 8.351253509521484375 8.3840627670288085938 8.2573595046997070313 8.1502733230590820313 8.1777658462524414063 8.003414154052734375 7.711658477783203125 7.4877800941467285156 7.2946143150329589844 7.2107868194580078125 7.1235985755920410156 6.9927210807800292969 6.954586029052734375 6.9992470741271972656 7.1404790878295898438 7.334728240966796875 7.6038727760314941406 5.9496531486511230469 8.32354736328125 8.3067779541015625 8.2435855865478515625 8.1982421875 8.1296758651733398438 8.1092052459716796875 8.1873607635498046875 8.3093824386596679688 8.1975526809692382813 8.0555973052978515625 7.8445935249328613281 7.6625647544860839844 7.5188975334167480469 7.307231903076171875 7.1199316978454589844 6.8776793479919433594 6.7226161956787109375 6.5555009841918945313 6.5023407936096191406 6.5265135765075683594 6.502986907958984375 6.4302430152893066406 6.4152345657348632813 6.5046453475952148438 6.5801916122436523438 6.5244054794311523438 6.3799467086791992188 6.247394561767578125 6.0063123703002929688 5.7037138938903808594 5.3600068092346191406 5.2330336570739746094 5.2098875045776367188 5.0150341987609863281 4.6839666366577148438 2.9336409568786621094 4.2233080863952636719 4.2180581092834472656 4.1525092124938964844 4.159336090087890625 4.1270427703857421875 4.01065826416015625 3.0070710182189941406 4.1224431991577148438 4.2405796051025390625 4.3446750640869140625 4.6093883514404296875 4.9720664024353027344 5.1511774063110351563 5.1876235008239746094 5.2906737327575683594 5.4618849754333496094 5.6410899162292480469 5.9342565536499023438 6.4642343521118164063 7.7689785957336425781 9.08780670166015625 9.7615861892700195313 10.007513046264648438 11.493874549865722656 13.92868804931640625 15.535852432250976563 16.827545166015625 17.864061355590820313 19.38936614990234375 20.077062606811523438 20.001007080078125 19.630367279052734375 18.750062942504882813 17.6001434326171875 17.226808547973632813 17.54967498779296875 17.64813232421875 18.100000381469726563 18.350000381469726563 -9999 -9999 -9999 -9999 -9999 -9999 -9999 -9999 -9999 -9999 -9999
 -9999 -9999 -9999 -9999 -9999 -9999 -9999 -9999 -9999 -9999 -9999 -9999 -9999 -9999 -9999 10.685222625732421875 10.333470344543457031 10.175307273864746094 10.012782096862792969 9.6970872879028320313 9.2840709686279296875 9.055728912353515625 8.9833583831787109375 8.9269151687622070313 8.6769809722900390625 8.2355012893676757813 8.098720550537109375 8.1435766220092773438 8.2194147109985351563 6.198322296142578125 8.2332324981689453125 8.533298492431640625 8.6456546783447265625 8.5491380691528320313 8.3471288681030273438 8.1736898422241210938 8.160999298095703125 8.0204486846923828125 7.772991180419921875 7.6427030563354492188 7.5930495262145996094 7.5208973884582519531 7.3208522796630859375 7.1155505180358886719 7.0422348976135253906 7.0405297279357910156 7.1527705192565917969 7.2806239128112792969 7.5233545303344726563 7.0554685592651367188 8.2607030868530273438 8.23082733154296875 8.1830701828002929688 8.1298685073852539063 8.070865631103515625 8.092014312744140625 8.1930332183837890625 8.3176965713500976563 8.267391204833984375 8.1857776641845703125 8.0254487991333007813 7.78462982177734375 7.5908331871032714844 7.421787261962890625 7.2681498527526855469 7.0352482795715332031 6.8301544189453125 6.5973343849182128906 6.5233631134033203125 6.5270590782165527344 6.4996562004089355469 6.5180149078369140625 6.3967919349670410156 6.3623828887939453125 6.548076629638671875 6.6322202682495117188 6.4851489067077636719 6.2812070846557617188 5.9385237693786621094 5.668609619140625 5.3451943397521972656 5.2065229415893554688 5.1491680145263671875 4.9306759834289550781 4.6007537841796875 2.9336409568786621094 4.0412173271179199219 4.1321740150451660156 4.3177900314331054688 4.2641654014587402344 4.0760178565979003906 4.0261478424072265625 3.0275428295135498047 4.1301250457763671875 4.1330113410949707031 4.2069582939147949219 4.4819645881652832031 4.8351473808288574219 4.9970765113830566406 5.0312743186950683594 5.1805996894836425781 5.3758764266967773438 5.5752897262573242188 5.8647274971008300781 6.3875050544738769531 7.6435122489929199219 8.8547773361206054688 9.5388631820678710938 9.6300668716430664063 10.536068916320800781 12.720806121826171875 14.419470787048339844 15.352046966552734375 16.128683090209960938 17.477634429931640625 17.96595001220703125 17.473878860473632813 16.660394668579101563 15.881259918212890625 15.735341072082519531 16.129575729370117188 16.891326904296875 17.368707656860351563 17.799655914306640625 18.399999618530273438 -9999 -9999 -9999 -9999 -9999 -9999 -9999 -9999 -9999 -9999 -9999
 -9999 -9999 -9999 -9999 -9999 -9999 -9999 -9999 -9999 -9999 -9999 -9999 -9999 11.847786903381347656 11.537796974182128906 10.856299400329589844 10.302092552185058594 10.080164909362792969 9.9077425003051757813 9.667400360107421875 9.4179401397705078125 9.2371473312377929688 9.1117925643920898438 8.9323215484619140625 8.4522142410278320313 8.0177583694458007813 8.08362579345703125 8.263278961181640625 6.7576327323913574219 8.226451873779296875 8.2989759445190429688 8.678134918212890625 8.7902889251708984375 8.6289167404174804688 8.4101686477661132813 8.2169446945190429688 8.1536083221435546875 8.1316776275634765625 7.9264497756958007813 7.8146181106567382813 7.8998274803161621094 7.8946027755737304688 7.7057676315307617188 7.4695653915405273438 7.3354005813598632813 7.2697925567626953125 7.2447052001953125 7.2587742805480957031 5.4659366607666015625 7.9771342277526855469 8.180736541748046875 8.1748437881469726563 8.144168853759765625 8.0837736129760742188 8.058513641357421875 8.1194629669189453125 8.2647619247436523438 8.4519071578979492188 8.503681182861328125 8.470661163330078125 8.3094873428344726563 8.02642822265625 7.8886766433715820313 7.8183016777038574219 7.6727170944213867188 7.4255590438842773438 7.1552777290344238281 6.7937378883361816406 6.6765389442443847656 6.6556420326232910156 6.5204529762268066406 6.4650149345397949219 6.2832913398742675781 6.2154026031494140625 6.3412799835205078125 6.4079427719116210938 6.2554597854614257813 6.0882673263549804688 5.8563075065612792969 5.6521134376525878906 5.3387818336486816406 5.1858768463134765625 5.05399322509765625 4.7498288154602050781 4.3993868827819824219 4.0589127540588378906 2.9336409568786621094 4.043277740478515625 4.4012160301208496094 4.4085636138916015625 4.2182111740112304688 4.2235846519470214844 3.0513899326324462891 4.1218967437744140625 4.0273599624633789063 4.0596556663513183594 4.2841215133666992188 4.5822162628173828125 4.7929387092590332031 4.9242548942565917969 5.1531033515930175781 5.3543643951416015625 5.5644817352294921875 5.8483400344848632813 6.3032069206237792969 7.3438982963562011719 8.3278284072875976563 9.0198526382446289063 9.2420711517333984375 9.8225927352905273438 11.297823905944824219 12.699557304382324219 13.364991188049316406 13.600180625915527344 13.813038825988769531 13.802533149719238281 13.657170295715332031 13.511914253234863281 13.653552055358886719 14.386153221130371094 15.68906402587890625 17.120664596557617188 17.879604339599609375 18.471172332763671875 18.45482635498046875 -9999 -9999 -9999 -9999 -9999 -9999 -9999 -9999 -9999 -9999 -9999
 -9999 -9999 -9999 -9999 -9999 -9999 -9999 -9999 -9999 -9999 -9999 -9999 -9999 11.846897125244140625 11.575429916381835938 10.859614372253417969 10.20856475830078125 9.8811483383178710938 9.6291980743408203125 9.4807891845703125 9.4249114990234375 9.31409454345703125 9.0442991256713867188 8.8141374588012695313 8.4428386688232421875 8.1801176071166992188 8.2732248306274414063 7.37500762939453125 8.5145120620727539063 8.44507598876953125 8.551364898681640625 8.8183317184448242188 8.8749227523803710938 8.7126169204711914063 8.4780406951904296875 8.2786455154418945313 8.1707897186279296875 8.1693773269653320313 8.0813703536987304688 7.9946894645690917969 8.1809940338134765625 8.2623462677001953125 8.168369293212890625 7.9731240272521972656 7.8073067665100097656 7.6669263839721679688 7.4455361366271972656 6.3823723793029785156 6.55524444580078125 8.1580495834350585938 8.3181066513061523438 8.2679643630981445313 8.2407598495483398438 8.1810445785522460938 8.150875091552734375 8.2270660400390625 8.438800811767578125 8.70877838134765625 8.8663768768310546875 8.8581066131591796875 8.691925048828125 8.4939069747924804688 8.4238843917846679688 8.32698822021484375 8.0895757675170898438 7.8283543586730957031 7.5847578048706054688 7.1984648704528808594 7.0447010993957519531 6.9704771041870117188 6.7570886611938476563 6.5520539283752441406 6.3814768791198730469 6.3621516227722167969 6.2505483627319335938 6.2065649032592773438 6.1149334907531738281 5.9996690750122070313 5.8081111907958984375 5.6232662200927734375 5.3669610023498535156 5.1492419242858886719 4.8941898345947265625 4.5420866012573242188 4.3072710037231445313 4.1384768486022949219 2.9336409568786621094 3.9399247169494628906 4.2362346649169921875 4.40433502197265625 4.3099803924560546875 4.2484107017517089844 4.1066641807556152344 3.0659170150756835938 4.0748286247253417969 4.1300039291381835938 4.3002486228942871094 4.5019903182983398438 4.7113661766052246094 4.9313988685607910156 5.2267742156982421875 5.3968243598937988281 5.5356836318969726563 5.7575764656066894531 6.0777106285095214844 6.8607563972473144531 7.7273149490356445313 8.2357587814331054688 8.5330400466918945313 9.1526021957397460938 10.291110992431640625 11.380952835083007813 11.946895599365234375 12.02277374267578125 11.874875068664550781 11.827299118041992188 12.033306121826171875 12.388368606567382813 13.146484375 14.746195793151855469 16.987211227416992188 18.822977066040039063 19.433450698852539063 19.472301483154296875 19.154703140258789063 -9999 -9999 -9999 -9999 -9999 -9999 -9999 -9999 -9999 -9999 -9999
 -9999 -9999 -9999 -9999 -9999 -9999 -9999 -9999 -9999 -9999 -9999 -9999 -9999 11.72826385498046875 11.504442214965820313 10.858068466186523438 10.236598968505859375 9.8909673690795898438 9.6605739593505859375 9.507869720458984375 9.4646177291870117188 9.32924652099609375 8.8585872650146484375 8.6403141021728515625 8.5879335403442382813 8.5749969482421875 8.6153049468994140625 7.6589517593383789063 8.7120618820190429688 8.7808809280395507813 8.89818572998046875 8.9908285140991210938 9.0030460357666015625 8.8953084945678710938 8.6213827133178710938 8.3699512481689453125 8.1914148330688476563 8.0933990478515625 8.119312286376953125 8.1725683212280273438 8.3930940628051757813 8.50495147705078125 8.5077161788940429688 8.3989610671997070313 8.2179765701293945313 7.95452117919921875 7.633571624755859375 6.5599603652954101563 7.8120799064636230469 8.2740945816040039063 8.4525279998779296875 8.4522008895874023438 8.398746490478515625 8.3593759536743164063 8.3986301422119140625 8.5165386199951171875 8.809535980224609375 9.11887359619140625 9.3157835006713867188 9.3114223480224609375 9.1432218551635742188 8.9920721054077148438 8.8665475845336914063 8.6781158447265625 8.3752775192260742188 8.169895172119140625 7.9681429862976074219 7.5276393890380859375 7.3149814605712890625 7.1814527511596679688 6.9396991729736328125 6.6524930000305175781 6.5264158248901367188 6.49767303466796875 6.2889041900634765625 6.1985869407653808594 6.0910806655883789063 6.0183844566345214844 5.9106421470642089844 5.680576324462890625 5.397487640380859375 5.1382665634155273438 4.8127660751342773438 4.4640779495239257813 4.357265472412109375 4.34288787841796875 2.9336409568786621094 2.9336409568786621094 4.0478072166442871094 4.250843048095703125 4.2508487701416015625 4.1473226547241210938 3.9994728565216064453 3.0698938369750976563 4.1607556343078613281 4.2167096138000488281 4.334445953369140625 4.5150599479675292969 4.7879500389099121094 5.0683465003967285156 5.3363466262817382813 5.4332098960876464844 5.483142852783203125 5.7018828392028808594 6.0038862228393554688 6.6734342575073242188 7.4034075736999511719 7.8918843269348144531 8.2404565811157226563 8.770175933837890625 9.5819101333618164063 10.399544715881347656 10.790036201477050781 10.939785957336425781 11.143217086791992188 11.363101005554199219 11.834951400756835938 12.613307952880859375 14.083620071411132813 16.744258880615234375 19.137758255004882813 20.534093856811523438 20.786188125610351563 20.279314041137695313 19.670612335205078125 -9999 -9999 -9999 -9999 -9999 -9999 -9999 -9999 -9999 -9999 -9999
 -9999 -9999 -9999 -9999 -9999 -9999 -9999 -9999 -9999 -9999 -9999 -9999 -9999 11.397055625915527344 11.251761436462402344 10.8211517333984375 10.318427085876464844 9.9596967697143554688 9.8055973052978515625 9.65074920654296875 9.5295896530151367188 9.3819093704223632813 8.9175128936767578125 8.7225437164306640625 8.730464935302734375 8.7813854217529296875 8.8911256790161132813 8.8643398284912109375 7.8645639419555664063 9.0290241241455078125 9.1559667587280273438 9.1719846725463867188 9.1684169769287109375 9.0914583206176757813 8.802486419677734375 8.49170684814453125 8.2622318267822265625 8.1161737442016601563 8.0856580734252929688 8.2054624557495117188 8.4681224822998046875 8.595203399658203125 8.6273927688598632813 8.5299835205078125 8.3319454193115234375 8.0440845489501953125 6.7837381362915039063 6.7126684188842773438 7.9466357231140136719 8.455310821533203125 8.6764707565307617188 8.686473846435546875 8.557910919189453125 8.5444574356079101563 8.6917295455932617188 8.834621429443359375 9.1256999969482421875 9.4986944198608398438 9.790069580078125 9.828945159912109375 9.677204132080078125 9.4321336746215820313 9.084728240966796875 8.8847198486328125 8.7708911895751953125 8.6370897293090820313 8.296417236328125 7.7645373344421386719 7.5104541778564453125 7.3079090118408203125 7.0030560493469238281 6.6632304191589355469 6.5477190017700195313 6.4853506088256835938 6.3742380142211914063 6.2412309646606445313 6.0868425369262695313 6.0415539741516113281 5.9846425056457519531 5.7105054855346679688 5.4247822761535644531 5.2268166542053222656 4.9717426300048828125 4.6852807998657226563 4.6490526199340820313 4.6500344276428222656 4.505401611328125 2.9336409568786621094 2.9336409568786621094 4.1093306541442871094 4.0862889289855957031 4.0421433448791503906 3.9950063228607177734 3.073787689208984375 4.1756792068481445313 4.2493963241577148438 4.3784308433532714844 4.5770030021667480469 4.8824324607849121094 5.1319589614868164063 5.3031067848205566406 5.3557620048522949219 5.4461894035339355469 5.6366405487060546875 6.0248036384582519531 6.916530609130859375 7.6182866096496582031 8.039318084716796875 8.31999969482421875 8.790172576904296875 9.2868633270263671875 9.8257236480712890625 10.244233131408691406 10.509236335754394531 10.969124794006347656 11.571935653686523438 12.451562881469726563 13.607738494873046875 15.642889022827148438 18.87760162353515625 20.78337860107421875 21.57637786865234375 21.779619216918945313 -9999 -9999 -9999 -9999 -9999 -9999 -9999 -9999 -9999 -9999 -9999 -9999 -9999
 -9999 -9999 -9999 -9999 -9999 -9999 -9999 -9999 -9999 -9999 -9999 -9999 -9999 11.205981254577636719 11.118979454040527344 10.881310462951660156 10.460947990417480469 10.106846809387207031 10.026940345764160156 9.8805265426635742188 9.69838714599609375 9.4870147705078125 9.0200653076171875 8.832706451416015625 8.8293390274047851563 8.8943119049072265625 9.121547698974609375 9.0975313186645507813 8.9891748428344726563 8.0966510772705078125 9.23578643798828125 9.237030029296875 9.2071733474731445313 9.10692596435546875 8.8492908477783203125 8.5820035934448242188 8.373905181884765625 8.1392621994018554688 8.0011377334594726563 8.1188688278198242188 8.357879638671875 8.4786214828491210938 8.5410327911376953125 8.4467458724975585938 8.2427511215209960938 8.0865917205810546875 7.9155483245849609375 6.7980084419250488281 6.8928017616271972656 8.6711206436157226563 8.9132452011108398438 8.866809844970703125 8.6913166046142578125 8.7403469085693359375 8.8930044174194335938 9.074901580810546875 9.410106658935546875 9.8466033935546875 10.279431343078613281 10.407220840454101563 10.350427627563476563 10.080636024475097656 9.445415496826171875 9.151676177978515625 9.27544403076171875 9.2533664703369140625 8.8217182159423828125 8.2055234909057617188 7.8249526023864746094 7.3563265800476074219 6.9523944854736328125 6.6263470649719238281 6.4908823966979980469 6.4378566741943359375 6.4526882171630859375 6.3523554801940917969 6.1843090057373046875 6.1130356788635253906 6.016048431396484375 5.7552037239074707031 5.421649932861328125 5.1687722206115722656 5.0964579582214355469 5.0105051994323730469 4.9130291938781738281 4.8641986846923828125 4.7047276496887207031 4.3212237358093261719 1.9336409568786621094 4.0888094902038574219 4.0346217155456542969 4.0241026878356933594 4.0094933509826660156 4.06594085693359375 3.1193540096282958984 4.3251428604125976563 4.5620198249816894531 4.6881842613220214844 4.8313837051391601563 5.0119280815124511719 5.1567678451538085938 5.2471218109130859375 5.4395399093627929688 5.6469144821166992188 6.1752681732177734375 7.3841257095336914063 8.0428457260131835938 8.2561693191528320313 8.43630218505859375 9.07049560546875 9.5037517547607421875 9.8341197967529296875 10.143495559692382813 10.4925689697265625 11.411244392395019531 12.768011093139648438 14.059711456298828125 14.971120834350585938 16.540142059326171875 19.294763565063476563 20.95397186279296875 21.796415328979492188 22.25055694580078125 -9999 -9999 -9999 -9999 -9999 -9999 -9999 -9999 -9999 -9999 -9999 -9999 -9999
 -9999 -9999 -9999 -9999 -9999 -9999 -9999 -9999 -9999 -9999 -9999 -9999 -9999 11.185708999633789063 11.153444290161132813 11.031374931335449219 10.581530570983886719 10.200747489929199219 10.188234329223632813 10.195155143737792969 9.9608440399169921875 9.5366725921630859375 9.07663726806640625 8.9320135116577148438 8.960788726806640625 9.0833120346069335938 9.3317518234252929688 9.3219804763793945313 9.189952850341796875 9.1789112091064453125 8.2375879287719726563 9.1880645751953125 9.1417026519775390625 9.0487041473388671875 8.81479644775390625 8.5824146270751953125 8.4040460586547851563 8.1431207656860351563 7.9520626068115234375 8.0074672698974609375 8.2145595550537109375 8.3181848526000976563 8.35729217529296875 8.2792768478393554688 8.1473073959350585938 8.0925760269165039063 7.9666738510131835938 6.8471536636352539063 8.1276350021362304688 8.737060546875 9.0008440017700195313 9.0002603530883789063 8.8114681243896484375 8.807964324951171875 8.9323129653930664063 9.190067291259765625 9.6597194671630859375 10.237819671630859375 10.828341484069824219 11.096429824829101563 11.208587646484375 10.825170516967773438 9.9047002792358398438 9.4967975616455078125 9.7160863876342773438 9.7062902450561523438 9.2798891067504882813 8.7422285079956054688 8.2088537216186523438 7.2897362709045410156 6.7923126220703125 6.5966305732727050781 6.4625272750854492188 6.335193634033203125 6.3836321830749511719 6.3726658821105957031 6.2532887458801269531 6.2261476516723632813 6.2293996810913085938 5.9768705368041992188 5.4665713310241699219 5.1308922767639160156 5.1170854568481445313 5.1968564987182617188 5.0236196517944335938 4.8893351554870605469 4.7001948356628417969 1.9728438854217529297 1.9541326761245727539 4.0424122810363769531 3.9749269485473632813 4.002178192138671875 3.9994153976440429688 4.0036931037902832031 3.1431603431701660156 4.41149139404296875 4.6063227653503417969 4.5868682861328125 4.6127300262451171875 4.8249988555908203125 5.0435042381286621094 5.2089643478393554688 5.4194231033325195313 5.6465883255004882813 6.1372203826904296875 7.2756276130676269531 8.0325307846069335938 8.3426752090454101563 8.5929994583129882813 9.2445554733276367188 9.7528371810913085938 10.036631584167480469 10.258763313293457031 10.651869773864746094 12.117999076843261719 14.521969795227050781 15.821534156799316406 15.998219490051269531 16.90057373046875 19.09621429443359375 20.609651565551757813 21.607334136962890625 22.021406173706054688 -9999 -9999 -9999 -9999 -9999 -9999 -9999 -9999 -9999 -9999 -9999 -9999 -9999
 -9999 -9999 -9999 -9999 -9999 -9999 -9999 -9999 -9999 -9999 -9999 -9999 -9999 11.2893218994140625 11.219983100891113281 11.118020057678222656 10.6705169677734375 10.27701568603515625 10.252188682556152344 10.327094078063964844 10.095561981201171875 9.6119318008422851563 9.1939973831176757813 9.0692682266235351563 9.1151599884033203125 9.31459808349609375 9.5151767730712890625 9.4738826751708984375 9.3483028411865234375 9.311061859130859375 9.3504638671875 8.3161258697509765625 9.2833843231201171875 9.2167539596557617188 9.04573822021484375 8.860797882080078125 8.6346578598022460938 8.3298797607421875 8.095203399658203125 8.048976898193359375 8.1729831695556640625 8.23833465576171875 8.24542999267578125 8.1934719085693359375 8.1215915679931640625 8.0959577560424804688 7.0182161331176757813 6.9308924674987792969 8.2144021987915039063 8.8380460739135742188 9.1153669357299804688 9.1479625701904296875 8.9909753799438476563 8.924922943115234375 8.9945878982543945313 9.3000650405883789063 9.906024932861328125 10.6580963134765625 11.551517486572265625 11.961899757385253906 12.103714942932128906 11.642293930053710938 10.6349029541015625 10.142361640930175781 10.15192413330078125 10.01361083984375 9.4773693084716796875 8.7433691024780273438 8.1462955474853515625 7.2681150436401367188 6.821765899658203125 6.6690497398376464844 6.5237116813659667969 6.3324041366577148438 6.3290348052978515625 6.3172483444213867188 6.218448638916015625 6.2263345718383789063 6.3197574615478515625 6.1569232940673828125 5.6853747367858886719 5.3444457054138183594 5.2492060661315917969 5.2952094078063964844 5.0918736457824707031 4.8575439453125 4.6360440254211425781 2.0064046382904052734 4.0870885848999023438 4.0453443527221679688 3.9944376945495605469 4.0357351303100585938 4.0400724411010742188 4.0975475311279296875 3.2836236953735351563 4.4314336776733398438 4.5359034538269042969 4.5067858695983886719 4.5221509933471679688 4.7397241592407226563 5.0219640731811523438 5.2230429649353027344 5.4229331016540527344 5.6676435470581054688 6.0790686607360839844 7.0510010719299316406 7.9071636199951171875 8.4217462539672851563 8.9483184814453125 9.7161350250244140625 10.28978729248046875 10.55510711669921875 10.719936370849609375 11.172608375549316406 12.916706085205078125 15.609097480773925781 16.932697296142578125 17.024700164794921875 17.679552078247070313 19.349761962890625 20.625772476196289063 21.539140701293945313 21.808462142944335938 -9999 -9999 -9999 -9999 -9999 -9999 -9999 -9999 -9999 -9999 -9999 -9999 -9999
 -9999 -9999 -9999 -9999 -9999 -9999 -9999 -9999 -9999 -9999 -9999 -9999 11.991258621215820313 11.558416366577148438 11.374258995056152344 11.201497077941894531 10.786985397338867188 10.440712928771972656 10.359235763549804688 10.41957855224609375 10.274335861206054688 9.86528778076171875 9.500965118408203125 9.3669528961181640625 9.4026575088500976563 9.676280975341796875 9.7728815078735351563 9.6834859848022460938 9.5806522369384765625 9.5790395736694335938 9.694484710693359375 8.7742595672607421875 9.8050775527954101563 9.845977783203125 9.868072509765625 9.7660894393920898438 9.41973876953125 8.956851959228515625 8.5447063446044921875 8.29804229736328125 8.23181915283203125 8.2166385650634765625 8.1905765533447265625 8.1784849166870117188 8.160175323486328125 8.1440534591674804688 8.1524229049682617188 8.1130685806274414063 6.3318500518798828125 9.1038646697998046875 9.4047460556030273438 9.4450597763061523438 9.39270782470703125 9.2836475372314453125 9.2759304046630859375 9.6462497711181640625 10.42005157470703125 11.453064918518066406 12.976712226867675781 13.630250930786132813 13.706164360046386719 13.162465095520019531 12.230215072631835938 11.715546607971191406 11.228230476379394531 10.622287750244140625 9.6901922225952148438 8.3275232315063476563 7.69197845458984375 7.3347253799438476563 7.1008806228637695313 6.9035501480102539063 6.6814546585083007813 6.4388470649719238281 6.3257098197937011719 6.2194576263427734375 6.130901336669921875 6.1484456062316894531 6.2701654434204101563 6.3032708168029785156 6.1080031394958496094 5.8139204978942871094 5.496723175048828125 5.3101072311401367188 5.1583619117736816406 4.8766741752624511719 2.041133880615234375 4.3840451240539550781 4.228778839111328125 4.2330727577209472656 4.198230743408203125 4.2091951370239257813 4.2153429985046386719 4.3287968635559082031 4.3864588737487792969 3.3004543781280517578 4.4160447120666503906 4.4635109901428222656 4.5020132064819335938 4.6831374168395996094 5.0321402549743652344 5.2662076950073242188 5.4656853675842285156 5.7377033233642578125 6.0500125885009765625 6.7906904220581054688 7.7274198532104492188 8.5985288619995117188 9.752338409423828125 11.049039840698242188 11.788472175598144531 12.053393363952636719 12.164481163024902344 12.69229888916015625 14.490590095520019531 16.861759185791015625 18.483922958374023438 19.150247573852539063 19.600435256958007813 20.206745147705078125 20.911779403686523438 21.428913116455078125 21.503849029541015625 21.306489944458007813 21.246826171875 -9999 -9999 -9999 -9999 -9999 -9999 -9999 -9999 -9999 -9999 -9999
 -9999 -9999 -9999 -9999 -9999 -9999 -9999 -9999 -9999 -9999 -9999 -9999 12.366251945495605469 11.883410453796386719 11.593735694885253906 11.257510185241699219 10.824594497680664063 10.634325027465820313 10.57224273681640625 10.598063468933105469 10.559818267822265625 10.194719314575195313 9.7855329513549804688 9.6379842758178710938 9.646121978759765625 9.7847766876220703125 9.821903228759765625 9.82204437255859375 9.8040914535522460938 9.822940826416015625 10.054553031921386719 8.7801342010498046875 10.468441009521484375 10.694674491882324219 10.928290367126464844 10.863974571228027344 10.423419952392578125 9.7141637802124023438 8.9481105804443359375 8.5653543472290039063 8.4132051467895507813 8.3607940673828125 8.3273983001708984375 8.3046083450317382813 8.281726837158203125 8.2606487274169921875 8.2940015792846679688 8.2573070526123046875 6.4446654319763183594 9.2708683013916015625 9.6160058975219726563 9.6896505355834960938 9.7192697525024414063 9.662487030029296875 9.74933624267578125 10.184819221496582031 10.9237823486328125 12.067540168762207031 13.861809730529785156 14.642376899719238281 14.719944953918457031 14.114260673522949219 13.384860038757324219 13.116727828979492188 12.655027389526367188 11.495312690734863281 9.9340648651123046875 8.2914285659790039063 7.6632866859436035156 7.4646439552307128906 7.3211965560913085938 7.1132230758666992188 6.8198595046997070313 6.6022100448608398438 6.4525127410888671875 6.2592186927795410156 6.1905016899108886719 6.1859750747680664063 6.1936306953430175781 6.2188463211059570313 6.1425280570983886719 5.8706350326538085938 5.4251108169555664063 5.0217485427856445313 5.0091905593872070313 2.0821135044097900391 4.9725394248962402344 4.8460879325866699219 4.6715102195739746094 4.6761603355407714844 4.5014104843139648438 4.4114403724670410156 4.4355230331420898438 4.4690461158752441406 4.4060292243957519531 2.31139373779296875 4.2858157157897949219 4.3417234420776367188 4.434154510498046875 4.6460576057434082031 5.002964019775390625 5.2731962203979492188 5.4755864143371582031 5.7133278846740722656 5.9909954071044921875 6.6533918380737304688 7.5857872962951660156 8.701198577880859375 10.206075668334960938 12.15924835205078125 13.275412559509277344 13.764306068420410156 13.993625640869140625 14.425848960876464844 15.769595146179199219 17.685827255249023438 19.565069198608398438 20.655818939208984375 20.822210311889648438 20.648365020751953125 20.737209320068359375 20.802150726318359375 20.857114791870117188 21.016401290893554688 21.137859344482421875 21.219713211059570313 21.369659423828125 21.464410781860351563 -9999 -9999 -9999 -9999 -9999 -9999 -9999 -9999
 -9999 -9999 -9999 -9999 -9999 -9999 -9999 -9999 -9999 -9999 -9999 -9999 12.9674530029296875 12.269949913024902344 11.820554733276367188 11.346963882446289063 10.991305351257324219 10.959801673889160156 10.831803321838378906 10.745508193969726563 10.692200660705566406 10.380362510681152344 9.965179443359375 9.8352384567260742188 9.866947174072265625 9.88695526123046875 9.8846693038940429688 9.9615421295166015625 10.03377532958984375 10.104242324829101563 10.462538719177246094 8.7476053237915039063 11.424254417419433594 11.743642807006835938 12.030729293823242188 12.004377365112304688 11.288899421691894531 10.253342628479003906 9.3026256561279296875 8.8526611328125 8.6332502365112304688 8.5390138626098632813 8.47002410888671875 8.4251375198364257813 8.3757572174072265625 8.3582935333251953125 8.4124193191528320313 8.4260463714599609375 8.6324920654296875 6.6805291175842285156 9.8390779495239257813 9.9372463226318359375 9.9548902511596679688 9.9879484176635742188 10.20587921142578125 10.634682655334472656 11.318269729614257813 12.519396781921386719 14.315651893615722656 15.044973373413085938 15.060247421264648438 14.562302589416503906 14.024764060974121094 13.856963157653808594 13.488945960998535156 12.076074600219726563 9.9776334762573242188 8.4886693954467773438 7.9634060859680175781 7.6122126579284667969 7.4058694839477539063 7.2967734336853027344 7.1393680572509765625 6.9776582717895507813 6.7239894866943359375 6.4563722610473632813 6.3395252227783203125 6.3031516075134277344 6.2441511154174804688 6.2024717330932617188 6.1618852615356445313 5.8571534156799316406 5.3720526695251464844 4.8549723625183105469 4.7384252548217773438 2.1120941638946533203 5.0662379264831542969 5.1789803504943847656 5.1780371665954589844 5.0645513534545898438 4.7017612457275390625 4.463405609130859375 4.459636688232421875 4.3809933662414550781 4.2008342742919921875 2.2972846031188964844 4.2057399749755859375 4.2610125541687011719 4.3343029022216796875 4.5526499748229980469 4.8850016593933105469 5.1707386970520019531 5.360279083251953125 5.5564203262329101563 5.8497667312622070313 6.5667920112609863281 7.4940576553344726563 8.6273870468139648438 10.050022125244140625 12.056841850280761719 13.617784500122070313 14.662446022033691406 15.126077651977539063 15.510611534118652344 16.595813751220703125 18.18224334716796875 19.765897750854492188 20.80927276611328125 20.724512100219726563 20.056537628173828125 19.712976455688476563 19.677122116088867188 19.919622421264648438 20.5490875244140625 20.91583251953125 21.06365203857421875 21.247148513793945313 21.390096664428710938 -9999 -9999 -9999 -9999 -9999 -9999 -9999 -9999
 -9999 -9999 -9999 -9999 -9999 -9999 -9999 -9999 -9999 -9999 -9999 -9999 13.504223823547363281 12.630387306213378906 12.088805198669433594 11.562902450561523438 11.203191757202148438 11.223933219909667969 11.06053924560546875 10.808588027954101563 10.660563468933105469 10.42356109619140625 10.067482948303222656 9.9479837417602539063 9.9761180877685546875 9.9920167922973632813 10.011693000793457031 10.120596885681152344 10.249135017395019531 10.406188011169433594 8.716548919677734375 11.899909019470214844 12.474652290344238281 12.927358627319335938 13.0072021484375 12.628602027893066406 11.67388916015625 10.536772727966308594 9.7092914581298828125 9.2213649749755859375 8.889469146728515625 8.7233829498291015625 8.560100555419921875 8.461345672607421875 8.3762645721435546875 8.3547964096069335938 8.4042482376098632813 8.524898529052734375 8.8259563446044921875 6.8796982765197753906 10.178445816040039063 10.199855804443359375 10.217632293701171875 10.412430763244628906 10.653550148010253906 10.955260276794433594 11.575461387634277344 12.820361137390136719 14.588525772094726563 15.226223945617675781 15.118628501892089844 14.7233123779296875 14.312099456787109375 14.068854331970214844 13.323756217956542969 11.360749244689941406 9.6950092315673828125 8.6998195648193359375 8.268970489501953125 7.8347783088684082031 7.5356822013854980469 7.4952178001403808594 7.4782152175903320313 7.30217742919921875 6.9932188987731933594 6.7132134437561035156 6.5583314895629882813 6.4820299148559570313 6.3715443611145019531 6.2962603569030761719 6.1988573074340820313 5.8048024177551269531 5.203891754150390625 4.7134852409362792969 4.4762530326843261719 2.1307682991027832031 4.9828763008117675781 5.34047698974609375 5.3966188430786132813 5.1995158195495605469 4.8801722526550292969 4.567806243896484375 4.4627923965454101563 4.3093247413635253906 4.1845302581787109375 2.2649517059326171875 4.2769842147827148438 4.2298078536987304688 4.1850767135620117188 4.3233127593994140625 4.5966653823852539063 4.9139180183410644531 5.1955113410949707031 5.4561905860900878906 5.7548227310180664063 6.4200296401977539063 7.2642226219177246094 8.339618682861328125 9.4629487991333007813 10.855261802673339844 12.554236412048339844 14.207043647766113281 15.182821273803710938 15.733776092529296875 16.795063018798828125 18.183916091918945313 19.456468582153320313 19.935132980346679688 19.285715103149414063 18.241382598876953125 17.950222015380859375 18.360260009765625 18.916713714599609375 19.92006683349609375 20.617923736572265625 20.990264892578125 21.18058013916015625 21.291362762451171875 -9999 -9999 -9999 -9999 -9999 -9999 -9999 -9999
 -9999 -9999 -9999 -9999 -9999 -9999 -9999 -9999 -9999 -9999 -9999 -9999 14.001526832580566406 12.925358772277832031 12.342126846313476563 11.811295509338378906 11.3169403076171875 11.270376205444335938 11.178052902221679688 10.897084236145019531 10.637679100036621094 10.402991294860839844 10.1177520751953125 10.02231597900390625 10.059062004089355469 10.129365921020507813 10.197910308837890625 10.279402732849121094 10.393692970275878906 10.60713958740234375 8.6939220428466796875 12.869317054748535156 13.612933158874511719 13.961180686950683594 13.716272354125976563 12.91124725341796875 11.786773681640625 10.774045944213867188 9.9892797470092773438 9.444217681884765625 9.0765924453735351563 8.8745441436767578125 8.6122312545776367188 8.42931365966796875 8.3671588897705078125 8.3785867691040039063 8.4820528030395507813 8.6597909927368164063 8.9977102279663085938 7.0788674354553222656 10.220784187316894531 10.249986648559570313 10.376089096069335938 10.73696136474609375 10.965308189392089844 11.140435218811035156 11.648940086364746094 12.773446083068847656 14.507311820983886719 15.148607254028320313 15.073832511901855469 14.7827301025390625 14.414525985717773438 14.033544540405273438 13.133337974548339844 11.135350227355957031 9.7863397598266601563 8.9264287948608398438 8.50112152099609375 8.059001922607421875 7.7020525932312011719 7.6181426048278808594 7.5884051322937011719 7.3790163993835449219 7.1197767257690429688 6.8455557823181152344 6.6567335128784179688 6.5680422782897949219 6.448497772216796875 6.3200039863586425781 6.1334981918334960938 5.7345633506774902344 5.2021794319152832031 4.7485337257385253906 4.347637176513671875 2.1597373485565185547 4.7674160003662109375 5.282855987548828125 5.3074049949645996094 5.138309478759765625 5.0652990341186523438 4.9251270294189453125 4.7756299972534179688 4.5522050857543945313 3.1220827102661132813 4.5164661407470703125 4.3318400382995605469 4.1716542243957519531 4.1069798469543457031 4.2262091636657714844 4.4269437789916992188 4.739154815673828125 5.0973081588745117188 5.4029674530029296875 5.7019696235656738281 6.3500666618347167969 7.1626858711242675781 8.1144475936889648438 9.0004453659057617188 10.039042472839355469 11.405098915100097656 12.843430519104003906 13.872158050537109375 14.533433914184570313 15.611889839172363281 16.685150146484375 17.683832168579101563 17.7025604248046875 16.867692947387695313 16.341594696044921875 16.565378189086914063 17.363161087036132813 18.09515380859375 19.256015777587890625 20.175535202026367188 20.830059051513671875 21.140239715576171875 21.246065139770507813 -9999 -9999 -9999 -9999 -9999 -9999 -9999 -9999
 -9999 -9999 -9999 -9999 -9999 -9999 -9999 -9999 -9999 -9999 -9999 15.305784225463867188 14.446833610534667969 13.162862777709960938 12.568049430847167969 12.119075775146484375 11.555747032165527344 11.332623481750488281 11.2474212646484375 11.028983116149902344 10.681884765625 10.450596809387207031 10.249855995178222656 10.191867828369140625 10.235300064086914063 10.309148788452148438 10.418570518493652344 10.455854415893554688 9.4577045440673828125 8.6576948165893554688 11.773560523986816406 13.750034332275390625 14.542550086975097656 14.545545578002929688 13.974932670593261719 12.917765617370605469 11.825807571411132813 10.910253524780273438 10.16945648193359375 9.6291360855102539063 9.2392292022705078125 9.02435302734375 8.7353372573852539063 8.5144634246826171875 8.4999284744262695313 8.6172924041748046875 8.8333044052124023438 8.9711437225341796875 9.1985187530517578125 7.2780365943908691406 10.068758010864257813 10.080592155456542969 10.188441276550292969 10.445102691650390625 10.748492240905761719 11.174050331115722656 11.753762245178222656 12.737229347229003906 14.221469879150390625 14.850995063781738281 14.998543739318847656 14.833250999450683594 14.405335426330566406 13.845701217651367188 12.933712959289550781 11.294035911560058594 10.043366432189941406 9.06711578369140625 8.5928640365600585938 8.153827667236328125 7.7860331535339355469 7.6040759086608886719 7.4706048965454101563 7.2187724113464355469 6.9783563613891601563 6.8477382659912109375 6.8313317298889160156 6.7618184089660644531 6.5309324264526367188 6.2725853919982910156 5.9795017242431640625 5.668346405029296875 5.3438687324523925781 4.9550981521606445313 4.4924516677856445313 2.2034232616424560547 4.6230139732360839844 4.9878411293029785156 4.9725480079650878906 4.9798684120178222656 5.1909976005554199219 5.2319293022155761719 5.1044774055480957031 4.9340386390686035156 3.0594420433044433594 4.610019683837890625 4.2464995384216308594 4.0909876823425292969 4.1690716743469238281 4.2980256080627441406 4.3951125144958496094 4.6388268470764160156 5.0421004295349121094 5.3795742988586425781 5.6876311302185058594 6.3491716384887695313 7.0808629989624023438 7.7732949256896972656 8.5184392929077148438 9.40843963623046875 10.357221603393554688 11.408095359802246094 12.089301109313964844 12.564366340637207031 13.431834220886230469 14.083520889282226563 14.369866371154785156 14.406130790710449219 14.379891395568847656 14.551177024841308594 15.056281089782714844 15.8300018310546875 16.640644073486328125 18.124158859252929688 19.3449249267578125 20.369619369506835938 21.021558761596679688 21.1392822265625 -9999 -9999 -9999 -9999 -9999 -9999 -9999 -9999
 -9999 -9999 -9999 -9999 -9999 -9999 -9999 -9999 -9999 -9999 15.843908309936523438 15.523034095764160156 14.630982398986816406 13.292385101318359375 12.680408477783203125 12.252140998840332031 11.762034416198730469 11.474958419799804688 11.388781547546386719 11.178567886352539063 10.799722671508789063 10.613534927368164063 10.5146331787109375 10.4853363037109375 10.492481231689453125 10.490427017211914063 9.5301160812377929688 9.5756044387817382813 10.544348716735839844 10.700603485107421875 11.797259330749511719 13.917654037475585938 14.725799560546875 14.554136276245117188 13.828279495239257813 12.802232742309570313 11.888730049133300781 11.045365333557128906 10.348527908325195313 9.8169450759887695313 9.3565549850463867188 9.1553287506103515625 8.9826345443725585938 8.8084039688110351563 8.7775602340698242188 8.8637237548828125 9.0500202178955078125 9.115993499755859375 9.293933868408203125 7.4755911827087402344 10.035312652587890625 9.9506063461303710938 10.004449844360351563 10.165234565734863281 10.466551780700683594 11.033125877380371094 11.756505966186523438 12.772396087646484375 14.135656356811523438 14.741762161254882813 14.96431732177734375 14.8015289306640625 14.341740608215332031 13.682940483093261719 12.672167778015136719 11.320044517517089844 10.169734001159667969 9.1901464462280273438 8.693340301513671875 8.1999044418334960938 7.8184289932250976563 7.5589642524719238281 7.3384623527526855469 7.0701479911804199219 6.8457388877868652344 6.8724799156188964844 6.9638028144836425781 6.9092311859130859375 6.6496920585632324219 6.2901048660278320313 5.8297576904296875 5.5218667984008789063 5.3280029296875 5.1120781898498535156 4.8010663986206054688 2.2208242416381835938 4.5637278556823730469 4.6622323989868164063 4.7017951011657714844 4.8879880905151367188 5.17392730712890625 5.2335553169250488281 5.1336064338684082031 2.9374837875366210938 4.8562116622924804688 4.6230192184448242188 4.2106928825378417969 4.0833058357238769531 4.2390503883361816406 4.3627071380615234375 4.4119257926940917969 4.6250772476196289063 5.0020933151245117188 5.3256511688232421875 5.6686916351318359375 6.4347858428955078125 7.1626081466674804688 7.6245532035827636719 8.1432027816772460938 8.8743848800659179688 9.6090908050537109375 10.26706695556640625 10.698305130004882813 11.171054840087890625 12.131621360778808594 12.590143203735351563 12.456789970397949219 12.499623298645019531 12.845590591430664063 13.247138023376464844 13.6999053955078125 14.197080612182617188 14.969163894653320313 16.682270050048828125 18.041133880615234375 19.023435592651367188 19.835506439208984375 20.119100570678710938 20.14007568359375 -9999 -9999 -9999 -9999 -9999 -9999 -9999
 -9999 -9999 -9999 -9999 -9999 -9999 -9999 -9999 -9999 -9999 16.045673370361328125 15.643340110778808594 14.67978668212890625 13.350987434387207031 12.742578506469726563 12.321775436401367188 11.915143013000488281 11.642061233520507813 11.458164215087890625 11.210176467895507813 10.849869728088378906 10.685510635375976563 10.733388900756835938 10.755023002624511719 10.712620735168457031 9.6335315704345703125 9.5638380050659179688 10.606655120849609375 10.651764869689941406 10.843907356262207031 11.798299789428710938 13.635127067565917969 14.372942924499511719 14.283250808715820313 13.636625289916992188 12.777529716491699219 11.898683547973632813 11.092729568481445313 10.535566329956054688 10.07415771484375 9.5710000991821289063 9.3398466110229492188 9.149051666259765625 8.9746084213256835938 8.9881467819213867188 9.0655412673950195313 9.1572980880737304688 9.1258907318115234375 9.2994022369384765625 9.7807569503784179688 7.723201751708984375 10.064011573791503906 10.0806427001953125 10.059247970581054688 10.298320770263671875 10.876826286315917969 11.659329414367675781 12.744297027587890625 14.194504737854003906 14.833810806274414063 15.03734588623046875 14.828317642211914063 14.3946685791015625 13.667074203491210938 12.398797988891601563 11.102014541625976563 10.120257377624511719 9.2704286575317382813 8.7811231613159179688 8.2327585220336914063 7.88336944580078125 7.5706853866577148438 7.2407579421997070313 7.0169472694396972656 6.7772502899169921875 6.7881336212158203125 6.8532304763793945313 6.8069734573364257813 6.6134710311889648438 6.2558617591857910156 5.6517553329467773438 5.2889666557312011719 5.1584138870239257813 5.0248665809631347656 4.7592525482177734375 4.5759229660034179688 2.2697544097900390625 4.5366606712341308594 4.54265594482421875 4.7681841850280761719 5.0927577018737792969 5.1704096794128417969 2.80136871337890625 2.8450467586517333984 5.0313444137573242188 4.7948126792907714844 4.3416919708251953125 4.1701769828796386719 4.2784357070922851563 4.3336362838745117188 4.4042692184448242188 4.6563396453857421875 5.0182089805603027344 5.3309206962585449219 5.7119717597961425781 6.5613160133361816406 7.2536959648132324219 7.5639023780822753906 7.8911309242248535156 8.4403257369995117188 9.1210308074951171875 9.6727504730224609375 10.076455116271972656 10.578579902648925781 11.519030570983886719 11.85186004638671875 11.821888923645019531 11.957299232482910156 12.339032173156738281 12.708695411682128906 13.093379974365234375 13.69474029541015625 14.347006797790527344 15.631959915161132813 16.6734161376953125 16.96954345703125 17.310197830200195313 17.99169158935546875 18.811992645263671875 19.001537322998046875 -9999 -9999 -9999 -9999 -9999 -9999
 -9999 -9999 -9999 -9999 -9999 -9999 -9999 -9999 -9999 -9999 16.27664947509765625 15.749171257019042969 14.780696868896484375 13.541986465454101563 12.941654205322265625 12.448416709899902344 12.019029617309570313 11.715429306030273438 11.428241729736328125 11.190659523010253906 10.934474945068359375 10.82875823974609375 10.909038543701171875 9.9337749481201171875 9.8689374923706054688 10.755191802978515625 10.614487648010253906 10.595439910888671875 10.6556396484375 10.908336639404296875 11.868505477905273438 13.601737022399902344 14.28882598876953125 14.187579154968261719 13.548871994018554688 12.723511695861816406 11.845928192138671875 11.095346450805664063 10.647330284118652344 10.251381874084472656 9.7760972976684570313 9.5393457412719726563 9.3211383819580078125 9.1428585052490234375 9.1611146926879882813 9.2475528717041015625 9.2984104156494140625 9.2790937423706054688 9.4192342758178710938 9.6627655029296875 7.9913544654846191406 10.061797142028808594 10.098860740661621094 10.037984848022460938 10.262920379638671875 10.828881263732910156 11.565456390380859375 12.643717765808105469 14.133618354797363281 14.815932273864746094 15.080781936645507813 14.859773635864257813 14.33396148681640625 13.510649681091308594 12.166414260864257813 10.937493324279785156 10.079059600830078125 9.3358907699584960938 8.8927106857299804688 8.3871717453002929688 8.0820674896240234375 7.7558202743530273438 7.3393206596374511719 7.0602412223815917969 6.7947368621826171875 6.72298431396484375 6.6983065605163574219 6.6236219406127929688 6.4269127845764160156 6.0915436744689941406 5.5614628791809082031 5.2180662155151367188 5.0593581199645996094 4.9112563133239746094 4.6661381721496582031 4.5303869247436523438 4.5565547943115234375 2.2889208793640136719 4.5481181144714355469 4.6970319747924804688 4.9720907211303710938 5.0343079566955566406 2.7321274280548095703 5.1557688713073730469 5.188610076904296875 5.008289337158203125 4.5330219268798828125 4.3208465576171875 4.4081692695617675781 4.47119140625 4.5990548133850097656 4.8147287368774414063 5.0693082809448242188 5.3582205772399902344 5.7267436981201171875 6.5108237266540527344 7.1493401527404785156 7.502490997314453125 7.8536205291748046875 8.3698749542236328125 8.9988851547241210938 9.491863250732421875 9.8894071578979492188 10.387423515319824219 11.305694580078125 11.683260917663574219 11.817747116088867188 12.088832855224609375 12.4953460693359375 12.8262939453125 13.236754417419433594 13.931395530700683594 14.460065841674804688 15.300847053527832031 16.00572967529296875 16.040262222290039063 16.210147857666015625 17.040742874145507813 18.245243072509765625 18.797876358032226563 -9999 -9999 -9999 -9999 -9999 -9999
 -9999 -9999 -9999 -9999 -9999 -9999 -9999 -9999 17.212656021118164063 17.06624603271484375 16.664112091064453125 16.039983749389648438 15.129008293151855469 14.0517425537109375 13.434429168701171875 12.729654312133789063 12.163465499877929688 11.761496543884277344 11.365164756774902344 11.194218635559082031 11.198048591613769531 11.235274314880371094 10.228255271911621094 10.200472831726074219 11.124091148376464844 10.969438552856445313 10.754039764404296875 10.6177215576171875 10.666327476501464844 11.061132431030273438 12.141872406005859375 13.94586181640625 14.589398384094238281 14.302529335021972656 13.506818771362304688 12.601326942443847656 11.761597633361816406 11.136893272399902344 10.816239356994628906 10.494172096252441406 10.091938018798828125 9.8872280120849609375 9.7070369720458984375 9.5691356658935546875 9.5279607772827148438 9.5911083221435546875 9.6107025146484375 9.7002363204956054688 9.7274179458618164063 9.4694147109985351563 8.1574831008911132813 9.8629970550537109375 10.037587165832519531 10.119823455810546875 10.377388954162597656 10.894911766052246094 11.507311820983886719 12.506238937377929688 13.959806442260742188 14.684614181518554688 15.11005401611328125 14.942618370056152344 14.134522438049316406 13.016218185424804688 11.759226799011230469 10.764281272888183594 10.099452018737792969 9.5335378646850585938 9.2241067886352539063 8.89446258544921875 8.6263360977172851563 8.2556295394897460938 7.7443571090698242188 7.2995572090148925781 6.9500370025634765625 6.6939649581909179688 6.4880504608154296875 6.34093475341796875 6.0742907524108886719 5.7542753219604492188 5.4680538177490234375 5.2326216697692871094 4.9957871437072753906 4.7838435173034667969 4.6223874092102050781 4.5730075836181640625 3.2889208793640136719 3.2889208793640136719 4.7106504440307617188 4.6607127189636230469 4.7331099510192871094 2.6234021186828613281 2.66918182373046875 5.0552625656127929688 5.3776211738586425781 5.3441076278686523438 4.9017415046691894531 4.6857690811157226563 4.8135046958923339844 4.9671416282653808594 5.171871185302734375 5.2380266189575195313 5.2100992202758789063 5.3927931785583496094 5.6986417770385742188 6.3199005126953125 6.8955340385437011719 7.4131989479064941406 7.8821363449096679688 8.4443264007568359375 9.0065746307373046875 9.37432861328125 9.739898681640625 10.23557281494140625 11.220875740051269531 11.841973304748535156 12.173631668090820313 12.628473281860351563 13.111593246459960938 13.485991477966308594 14.082242012023925781 14.947330474853515625 15.301095008850097656 15.440233230590820313 15.584282875061035156 15.700946807861328125 16.0807647705078125 16.992780685424804688 18.301761627197265625 19.021036148071289063 19.451436996459960938 19.662906646728515625 -9999 -9999 -9999 -9999
 -9999 -9999 -9999 -9999 -9999 -9999 -9999 -9999 17.430816650390625 17.288103103637695313 16.9904632568359375 16.510044097900390625 15.641531944274902344 14.448472023010253906 13.745553016662597656 12.929442405700683594 12.234658241271972656 11.802256584167480469 11.458407402038574219 11.321452140808105469 11.477681159973144531 10.57452392578125 11.457291603088378906 11.393087387084960938 11.332577705383300781 11.135435104370117188 10.930362701416015625 10.83115386962890625 10.968847274780273438 11.528948783874511719 12.629162788391113281 14.396147727966308594 15.00753021240234375 14.6162567138671875 13.650816917419433594 12.686809539794921875 11.89817047119140625 11.344678878784179688 11.09099578857421875 10.792092323303222656 10.37897491455078125 10.185992240905761719 10.0674285888671875 9.9799985885620117188 9.8970184326171875 9.8910303115844726563 9.8829355239868164063 9.9843387603759765625 9.9053697586059570313 9.4775629043579101563 8.3642969131469726563 8.3417224884033203125 10.133884429931640625 10.362189292907714844 10.664216995239257813 11.130990982055664063 11.713973045349121094 12.64064788818359375 13.992542266845703125 14.699318885803222656 15.2081146240234375 15.130762100219726563 14.12038421630859375 12.678852081298828125 11.522128105163574219 10.725801467895507813 10.221586227416992188 9.8466691970825195313 9.6419477462768554688 9.3956756591796875 9.0964536666870117188 8.6052083969116210938 8.1025018692016601563 7.6365246772766113281 7.1658191680908203125 6.7645516395568847656 6.4439716339111328125 6.2647652626037597656 5.998905181884765625 5.661651611328125 5.3612313270568847656 5.1463599205017089844 4.9353885650634765625 4.7216653823852539063 4.5457873344421386719 4.5591731071472167969 3.2889208793640136719 4.8416261672973632813 4.8797507286071777344 4.7262639999389648438 4.64691162109375 2.5439176559448242188 4.8474936485290527344 5.0460581779479980469 5.3813562393188476563 5.416088104248046875 5.1653470993041992188 5.0808138847351074219 5.2556476593017578125 5.403263092041015625 5.5346860885620117188 5.5088958740234375 5.34731292724609375 5.4163870811462402344 5.7019863128662109375 6.3403224945068359375 6.869396209716796875 7.2980089187622070313 7.6824374198913574219 8.2311754226684570313 8.8866825103759765625 9.3453626632690429688 9.7499895095825195313 10.2189178466796875 11.175995826721191406 11.931960105895996094 12.347320556640625 12.862951278686523438 13.541971206665039063 14.244399070739746094 15.188909530639648438 16.487268447875976563 16.893171310424804688 16.558933258056640625 16.0353851318359375 16.025190353393554688 16.56505584716796875 17.664182662963867188 19.169095993041992188 19.887788772583007813 19.844587326049804688 19.801961898803710938 -9999 -9999 -9999 -9999
 -9999 -9999 -9999 -9999 -9999 -9999 -9999 18.196413040161132813 17.7568817138671875 17.442667007446289063 17.262033462524414063 16.994001388549804688 16.144392013549804688 14.702677726745605469 13.89356231689453125 13.039977073669433594 12.23552703857421875 11.849146842956542969 11.634962081909179688 11.5314483642578125 11.681148529052734375 10.718333244323730469 11.601176261901855469 11.523690223693847656 11.47124481201171875 11.286347389221191406 11.12834930419921875 11.116696357727050781 11.320199966430664063 11.908638954162597656 12.917984962463378906 14.505924224853515625 15.112666130065917969 14.884587287902832031 13.98606109619140625 13.003946304321289063 12.272073745727539063 11.755767822265625 11.518448829650878906 11.226864814758300781 10.808730125427246094 10.600249290466308594 10.438100814819335938 10.307953834533691406 10.193439483642578125 10.126162528991699219 10.123623847961425781 10.184454917907714844 10.110899925231933594 9.8494386672973632813 8.8076381683349609375 10.036377906799316406 10.328406333923339844 10.568675041198730469 10.892628669738769531 11.3495941162109375 11.903649330139160156 12.793577194213867188 14.031812667846679688 14.756883621215820313 15.405218124389648438 15.243499755859375 14.060594558715820313 12.71930694580078125 11.660919189453125 10.870824813842773438 10.295583724975585938 9.9359188079833984375 9.6932973861694335938 9.3345575332641601563 9.07193756103515625 8.627346038818359375 8.159740447998046875 7.6701564788818359375 7.2423624992370605469 6.9178023338317871094 6.50528717041015625 6.2833523750305175781 6.0449304580688476563 5.694385528564453125 5.3117418289184570313 4.9852294921875 4.7318210601806640625 4.5984206199645996094 4.4657220840454101563 3.2889208793640136719 4.59600067138671875 4.8118581771850585938 4.9578924179077148438 4.8463802337646484375 4.7966256141662597656 2.4699900150299072266 4.9861049652099609375 5.10227203369140625 5.1756834983825683594 5.1862139701843261719 5.1950960159301757813 5.2864537239074707031 5.41828155517578125 5.5082521438598632813 5.5419712066650390625 5.4671463966369628906 5.34348297119140625 5.4814090728759765625 5.7808203697204589844 6.3527092933654785156 6.7120490074157714844 7.0093741416931152344 7.4890413284301757813 8.1332368850708007813 8.82863616943359375 9.4158639907836914063 9.85726165771484375 10.226930618286132813 11.003648757934570313 11.824047088623046875 12.350886344909667969 13.027972221374511719 14.040442466735839844 15.208673477172851563 16.394968032836914063 17.620830535888671875 18.239215850830078125 18.378444671630859375 17.46161651611328125 16.8852996826171875 17.182664871215820313 18.218770980834960938 19.6175994873046875 20.3604278564453125 20.227895736694335938 20.077976226806640625 -9999 -9999 -9999 -9999
 -9999 -9999 -9999 -9999 -9999 -9999 -9999 18.386026382446289063 18.070234298706054688 17.622533798217773438 17.493261337280273438 17.334295272827148438 16.441936492919921875 14.805277824401855469 13.9336090087890625 13.112505912780761719 12.298963546752929688 11.941013336181640625 11.838039398193359375 11.794137001037597656 11.882191658020019531 10.81780242919921875 11.727807998657226563 11.633645057678222656 11.545436859130859375 11.39521026611328125 11.233943939208984375 11.226253509521484375 11.521966934204101563 12.129590988159179688 13.037056922912597656 14.411040306091308594 15.004061698913574219 15.007669448852539063 14.3329620361328125 13.394457817077636719 12.673841476440429688 12.217271804809570313 12.06571197509765625 11.813576698303222656 11.3940887451171875 11.135214805603027344 10.843905448913574219 10.649457931518554688 10.529478073120117188 10.402899742126464844 10.376068115234375 10.324863433837890625 10.222775459289550781 10.222799301147460938 8.8799381256103515625 10.336262702941894531 10.536015510559082031 10.766131401062011719 11.063008308410644531 11.507593154907226563 12.027070999145507813 12.898820877075195313 14.101904869079589844 14.8188323974609375 15.452505111694335938 15.197062492370605469 14.011998176574707031 12.801476478576660156 11.7537384033203125 10.860930442810058594 10.170994758605957031 9.6177234649658203125 9.3174753189086914063 8.9911794662475585938 8.7709903717041015625 8.4954309463500976563 8.072845458984375 7.578311920166015625 7.2215304374694824219 6.97051239013671875 6.5741910934448242188 6.3229455947875976563 6.022480010986328125 5.646091461181640625 5.2145533561706542969 4.8771367073059082031 4.6195220947265625 4.4726243019104003906 4.4250054359436035156 3.2889208793640136719 4.6095032691955566406 4.8039455413818359375 4.8880848884582519531 4.8044810295104980469 2.3581969738006591797 5.0715227127075195313 5.1399898529052734375 5.0987839698791503906 4.9755387306213378906 4.935699462890625 5.0153837203979492188 5.2251543998718261719 5.3918275833129882813 5.4724569320678710938 5.4708890914916992188 5.4260554313659667969 5.4702534675598144531 5.6753406524658203125 5.9303722381591796875 6.3770413398742675781 6.643085479736328125 6.9179835319519042969 7.528026580810546875 8.2095499038696289063 8.79805755615234375 9.3660669326782226563 9.7796001434326171875 10.171007156372070313 11.064429283142089844 11.986639022827148438 12.597187995910644531 13.422891616821289063 14.703252792358398438 16.153263092041015625 17.302089691162109375 18.21782684326171875 18.864313125610351563 19.561391830444335938 19.126384735107421875 18.153543472290039063 17.873300552368164063 18.503549575805664063 19.469408035278320313 20.146152496337890625 -9999 -9999 -9999 -9999 -9999 -9999
 -9999 -9999 -9999 -9999 -9999 -9999 18.48566436767578125 18.476024627685546875 18.327198028564453125 17.789030075073242188 17.405599594116210938 17.1107330322265625 16.099420547485351563 14.295241355895996094 13.498950004577636719 13.058893203735351563 12.48431396484375 12.170317649841308594 12.119310379028320313 12.047308921813964844 11.977244377136230469 10.902779579162597656 11.799556732177734375 11.759547233581542969 11.694000244140625 11.468830108642578125 11.235854148864746094 11.240426063537597656 11.647200584411621094 12.312654495239257813 13.285668373107910156 14.569427490234375 15.091307640075683594 15.062424659729003906 14.423096656799316406 13.617556571960449219 13.095362663269042969 12.798917770385742188 12.72727203369140625 12.617077827453613281 12.171480178833007813 11.8241729736328125 11.371908187866210938 11.016736984252929688 10.814574241638183594 10.647581100463867188 10.520857810974121094 10.306349754333496094 10.123289108276367188 9.0413503646850585938 10.293059349060058594 10.488054275512695313 10.756517410278320313 11.029822349548339844 11.304521560668945313 11.759250640869140625 12.318234443664550781 13.156847953796386719 14.229460716247558594 14.815486907958984375 15.241086006164550781 14.970493316650390625 14.015860557556152344 12.790365219116210938 11.661378860473632813 10.746492385864257813 10.027170181274414063 9.3486766815185546875 9.0370492935180664063 8.801311492919921875 8.6058645248413085938 8.4044189453125 8.0229711532592773438 7.5319437980651855469 7.1514582633972167969 6.8494081497192382813 6.5406365394592285156 6.2829732894897460938 5.8306522369384765625 5.414630889892578125 5.1112880706787109375 4.871166229248046875 4.6587781906127929688 4.5103912353515625 3.2889208793640136719 4.5559568405151367188 4.6631793975830078125 4.7553968429565429688 4.6781778335571289063 4.6269965171813964844 2.2806832790374755859 5.0494394302368164063 5.0378899574279785156 4.8831171989440917969 4.7069535255432128906 4.681491851806640625 4.8207836151123046875 5.1004648208618164063 5.3493714332580566406 5.3711733818054199219 5.3678221702575683594 5.5076704025268554688 5.7697844505310058594 6.0354294776916503906 6.2032175064086914063 6.5024018287658691406 6.86901092529296875 7.1939740180969238281 7.76711273193359375 8.3171224594116210938 8.7560682296752929688 9.214298248291015625 9.694293975830078125 10.324723243713378906 11.655202865600585938 12.638079643249511719 13.183524131774902344 13.905844688415527344 15.167624473571777344 16.804738998413085938 17.979526519775390625 18.839647293090820313 19.425466537475585938 20.132547378540039063 20.058429718017578125 19.358264923095703125 18.8466033935546875 18.799871444702148438 19.243646621704101563 19.823358535766601563 -9999 -9999 -9999 -9999 -9999 -9999
 -9999 -9999 -9999 -9999 -9999 -9999 18.492418289184570313 18.421512603759765625 18.298185348510742188 17.81410980224609375 17.088865280151367188 16.476221084594726563 15.521936416625976563 13.927675247192382813 13.268758773803710938 13.046536445617675781 12.72464752197265625 12.501017570495605469 12.380333900451660156 12.24861907958984375 12.079545974731445313 10.98612213134765625 11.969659805297851563 11.949184417724609375 11.81375885009765625 11.528262138366699219 11.349599838256835938 11.416905403137207031 11.857222557067871094 12.607453346252441406 13.683489799499511719 14.817173957824707031 15.232314109802246094 15.160364151000976563 14.5454254150390625 13.851924896240234375 13.553126335144042969 13.488152503967285156 13.431521415710449219 13.340928077697753906 12.96488189697265625 12.61243438720703125 12.034801483154296875 11.442899703979492188 11.001471519470214844 10.77159881591796875 10.580571174621582031 10.274641990661621094 10.070363998413085938 9.1100435256958007813 10.239566802978515625 10.531383514404296875 10.883447647094726563 11.231669425964355469 11.597586631774902344 12.113954544067382813 12.70604705810546875 13.454648971557617188 14.339298248291015625 14.814011573791503906 15.165369987487792969 14.956511497497558594 14.045568466186523438 12.718791961669921875 11.581938743591308594 10.723596572875976563 10.044933319091796875 9.380161285400390625 9.0855340957641601563 8.8758096694946289063 8.631992340087890625 8.3220853805541992188 7.9117579460144042969 7.5086660385131835938 7.1111540794372558594 6.671993255615234375 6.3923516273498535156 6.1685004234313964844 5.7056212425231933594 5.2973127365112304688 5.0315136909484863281 4.8067255020141601563 4.6286911964416503906 3.2889208793640136719 3.2889208793640136719 4.5588154792785644531 4.6340694427490234375 4.5868101119995117188 4.4234247207641601563 2.1822476387023925781 4.8664426803588867188 4.9034609794616699219 4.7053699493408203125 4.5418028831481933594 4.4581899642944335938 4.5277204513549804688 4.7916550636291503906 5.0436453819274902344 5.2743468284606933594 5.37909698486328125 5.4890484809875488281 5.7238869667053222656 5.9880375862121582031 6.2425551414489746094 6.4092621803283691406 6.7685589790344238281 7.298892974853515625 7.6433563232421875 8.1063833236694335938 8.5352678298950195313 8.9440927505493164063 9.3835430145263671875 9.9439029693603515625 10.638857841491699219 12.051293373107910156 13.157522201538085938 13.788487434387207031 14.456662178039550781 15.577588081359863281 17.102254867553710938 18.397981643676757813 19.521596908569335938 20.091279983520507813 20.532693862915039063 20.483486175537109375 20.040540695190429688 19.608404159545898438 19.34844207763671875 19.390020370483398438 -9999 -9999 -9999 -9999 -9999 -9999 -9999
 -9999 -9999 -9999 -9999 -9999 -9999 18.562900543212890625 18.293806076049804688 17.975114822387695313 17.557941436767578125 16.681421279907226563 15.832498550415039063 14.981660842895507813 13.796864509582519531 13.320691108703613281 13.20024871826171875 13.036812782287597656 12.801405906677246094 12.517354965209960938 12.327372550964355469 12.164514541625976563 11.1162109375 12.072207450866699219 12.005880355834960938 11.85691070556640625 11.629193305969238281 11.512461662292480469 11.689954757690429688 12.144185066223144531 12.920673370361328125 14.018889427185058594 15.175634384155273438 15.541594505310058594 15.334952354431152344 14.723778724670410156 14.159871101379394531 14.074240684509277344 14.258131027221679688 14.286257743835449219 14.07486724853515625 13.582204818725585938 13.124425888061523438 12.345550537109375 11.605216026306152344 11.029713630676269531 10.7287445068359375 10.543047904968261719 10.257425308227539063 9.1580209732055664063 9.1338605880737304688 10.356884956359863281 10.609271049499511719 10.992254257202148438 11.409214973449707031 11.884455680847167969 12.485966682434082031 13.114539146423339844 13.749578475952148438 14.451630592346191406 14.806100845336914063 15.000163078308105469 14.663657188415527344 13.693628311157226563 12.481494903564453125 11.462630271911621094 10.712483406066894531 10.073095321655273438 9.456912994384765625 9.195587158203125 8.9843845367431640625 8.6423807144165039063 8.2538290023803710938 7.90035247802734375 7.5500502586364746094 7.1143107414245605469 6.5293850898742675781 6.153545379638671875 5.9236845970153808594 5.5253720283508300781 5.1995787620544433594 4.94045257568359375 4.7362837791442871094 4.5752558708190917969 3.2889208793640136719 3.2889208793640136719 4.4495115280151367188 4.5108537673950195313 4.4427537918090820313 4.2313437461853027344 4.3280744552612304688 2.0951907634735107422 4.5263190269470214844 4.4431071281433105469 4.4051480293273925781 4.3839964866638183594 4.4918103218078613281 4.802978515625 5.0364174842834472656 5.2505440711975097656 5.52193450927734375 5.7662000656127929688 5.9741349220275878906 6.1647152900695800781 6.4065256118774414063 6.6085615158081054688 7.0568408966064453125 7.6661672592163085938 8.041110992431640625 8.4529581069946289063 8.888580322265625 9.2998552322387695313 9.7562360763549804688 10.263759613037109375 10.901092529296875 12.29723358154296875 13.597743988037109375 14.459023475646972656 15.152614593505859375 16.143751144409179688 17.20253753662109375 18.327526092529296875 19.550235748291015625 20.17940521240234375 20.657810211181640625 20.703836441040039063 -9999 -9999 -9999 -9999 -9999 -9999 -9999 -9999 -9999 -9999 -9999
 -9999 -9999 -9999 -9999 -9999 -9999 18.678300857543945313 18.215061187744140625 17.6252593994140625 17.219072341918945313 16.293016433715820313 15.367608070373535156 14.608765602111816406 13.724179267883300781 13.399182319641113281 13.383148193359375 13.295408248901367188 12.964575767517089844 12.560438156127929688 12.295408248901367188 11.193985939025878906 12.228879928588867188 12.119181632995605469 12.015291213989257813 11.857644081115722656 11.642301559448242188 11.616089820861816406 11.934764862060546875 12.393739700317382813 13.139704704284667969 14.349360466003417969 15.654367446899414063 16.004108428955078125 15.577276229858398438 14.810550689697265625 14.469555854797363281 14.625973701477050781 14.886252403259277344 15.059383392333984375 14.702431678771972656 13.771341323852539063 13.119950294494628906 12.2681121826171875 11.499407768249511719 10.952493667602539063 10.59864044189453125 10.444407463073730469 9.2737178802490234375 9.3277921676635742188 10.401071548461914063 10.481282234191894531 10.736386299133300781 11.128615379333496094 11.551324844360351563 12.047715187072753906 12.711712837219238281 13.279503822326660156 13.84836578369140625 14.564686775207519531 14.820690155029296875 14.690057754516601563 14.133428573608398438 13.228133201599121094 12.2656402587890625 11.437418937683105469 10.755796432495117188 10.163844108581542969 9.63946533203125 9.4051637649536132813 9.1481332778930664063 8.746433258056640625 8.3660268783569335938 8.0042238235473632813 7.6192502975463867188 7.1955761909484863281 6.6310796737670898438 6.1845269203186035156 5.8526730537414550781 5.3365240097045898438 5.075756072998046875 4.8576674461364746094 4.6443209648132324219 3.3820168972015380859 3.2889208793640136719 4.2851428985595703125 4.3681998252868652344 4.3534612655639648438 4.2151403427124023438 4.0978989601135253906 4.1474261283874511719 2.0369248390197753906 4.1686606407165527344 4.241634368896484375 4.3935046195983886719 4.4592251777648925781 4.5611400604248046875 4.8057894706726074219 5.0055894851684570313 5.2889466285705566406 5.6728992462158203125 5.9459505081176757813 6.1248393058776855469 6.3518624305725097656 6.5731830596923828125 6.7770876884460449219 7.2329664230346679688 7.7841954231262207031 8.2284450531005859375 8.6532278060913085938 9.1549739837646484375 9.6165094375610351563 10.014263153076171875 10.397090911865234375 11.010621070861816406 12.475457191467285156 13.884958267211914063 14.935997962951660156 15.74370574951171875 16.609256744384765625 17.296884536743164063 18.071613311767578125 19.005985260009765625 19.65552520751953125 20.426248550415039063 -9999 -9999 -9999 -9999 -9999 -9999 -9999 -9999 -9999 -9999 -9999 -9999
 -9999 -9999 -9999 -9999 -9999 -9999 18.6258544921875 18.0649566650390625 17.302154541015625 16.806104660034179688 15.994739532470703125 15.219258308410644531 14.577315330505371094 13.841739654541015625 13.578104019165039063 13.599280357360839844 13.572567939758300781 13.222748756408691406 12.741311073303222656 12.404651641845703125 10.2920684814453125 10.402933120727539063 12.211170196533203125 12.1183624267578125 11.954638481140136719 11.709413528442382813 11.753116607666015625 12.209444046020507813 12.684895515441894531 13.419336318969726563 14.674393653869628906 15.976749420166015625 16.298521041870117188 15.812366485595703125 15.017271041870117188 14.782901763916015625 15.079850196838378906 15.438040733337402344 15.631552696228027344 15.034205436706542969 13.61798095703125 12.811960220336914063 12.05109405517578125 11.377472877502441406 10.897503852844238281 9.5951223373413085938 9.5582571029663085938 9.5117397308349609375 10.609317779541015625 10.63190460205078125 10.6754302978515625 10.916325569152832031 11.327547073364257813 11.742941856384277344 12.207244873046875 12.819610595703125 13.324815750122070313 13.877141952514648438 14.577801704406738281 14.779603004455566406 14.511270523071289063 13.861921310424804688 13.004627227783203125 12.199559211730957031 11.573667526245117188 10.957819938659667969 10.280192375183105469 9.7710828781127929688 9.5618143081665039063 9.3032665252685546875 8.8929309844970703125 8.4901056289672851563 8.0814599990844726563 7.6462311744689941406 7.2262330055236816406 6.7044277191162109375 6.2470555305480957031 5.8969259262084960938 5.339542388916015625 5.0088329315185546875 4.7942838668823242188 4.5817999839782714844 3.3953833580017089844 4.2933592796325683594 4.3021688461303710938 4.3527393341064453125 4.2986369132995605469 4.1311025619506835938 4.0975785255432128906 4.1117582321166992188 3.0369248390197753906 3.0369248390197753906 4.2103013992309570313 4.390850067138671875 4.4824857711791992188 4.5699167251586914063 4.7778935432434082031 5.0364408493041992188 5.3648767471313476563 5.7630939483642578125 6.055400848388671875 6.1979546546936035156 6.3982501029968261719 6.5885686874389648438 6.8035855293273925781 7.3179907798767089844 7.9069981575012207031 8.4151849746704101563 8.9185581207275390625 9.5305156707763671875 10.060581207275390625 10.403510093688964844 10.680986404418945313 11.221971511840820313 12.608758926391601563 14.056178092956542969 15.297499656677246094 16.349498748779296875 17.311021804809570313 17.935169219970703125 18.485059738159179688 19.07098388671875 19.5815887451171875 20.320552825927734375 -9999 -9999 -9999 -9999 -9999 -9999 -9999 -9999 -9999 -9999 -9999 -9999
 -9999 -9999 -9999 -9999 -9999 -9999 18.298002243041992188 17.661157608032226563 16.7138214111328125 16.06443023681640625 15.638550758361816406 15.293025016784667969 14.902635574340820313 14.358216285705566406 14.142099380493164063 14.134411811828613281 14.124318122863769531 13.778713226318359375 13.191142082214355469 12.738289833068847656 12.528944015502929688 10.565816879272460938 12.420408248901367188 12.369194984436035156 12.18494415283203125 11.916195869445800781 12.041893959045410156 12.668142318725585938 13.235931396484375 13.999451637268066406 15.214516639709472656 16.379497528076171875 16.664417266845703125 16.284116744995117188 15.669916152954101563 15.5116424560546875 15.900539398193359375 16.384687423706054688 16.403108596801757813 15.320208549499511719 13.191495895385742188 12.183722496032714844 11.630504608154296875 10.116708755493164063 9.8986463546752929688 10.773350715637207031 11.003623008728027344 11.182513236999511719 11.236200332641601563 11.171212196350097656 11.168065071105957031 11.359333038330078125 11.768276214599609375 12.150898933410644531 12.535336494445800781 12.98467254638671875 13.431364059448242188 13.996731758117675781 14.634396553039550781 14.791909217834472656 14.46024322509765625 13.707291603088378906 12.85778045654296875 12.198843002319335938 11.824837684631347656 11.354487419128417969 10.538519859313964844 9.9988470077514648438 9.8193502426147460938 9.59691619873046875 9.1939039230346679688 8.7124347686767578125 8.2109622955322265625 7.6825237274169921875 7.2460284233093261719 6.7572984695434570313 6.2992472648620605469 6.0009512901306152344 5.495250701904296875 4.9725680351257324219 4.7167425155639648438 3.4455862045288085938 4.5141701698303222656 4.4344434738159179688 4.3557190895080566406 4.3284497261047363281 4.2747883796691894531 4.180370330810546875 4.2203564643859863281 4.2030558586120605469 4.0860490798950195313 3.0770735740661621094 3.1825985908508300781 4.3844408988952636719 4.4372396469116210938 4.507503509521484375 4.7390594482421875 5.1466627120971679688 5.4947733879089355469 5.83519744873046875 6.1591305732727050781 6.2162828445434570313 6.2815713882446289063 6.4470572471618652344 6.735408782958984375 7.4681396484375 8.33264923095703125 9.1433668136596679688 9.8956699371337890625 10.62538909912109375 11.189161300659179688 11.4790802001953125 11.617831230163574219 11.951650619506835938 12.958658218383789063 14.322108268737792969 15.831617355346679688 17.329864501953125 18.7372894287109375 19.540189743041992188 19.844678878784179688 19.93619537353515625 20.103395462036132813 20.463586807250976563 -9999 -9999 -9999 -9999 -9999 -9999 -9999 -9999 -9999 -9999 -9999 -9999
 -9999 -9999 -9999 -9999 18.565462112426757813 18.371479034423828125 17.871667861938476563 17.194316864013671875 16.297998428344726563 15.825531005859375 15.755273818969726563 15.707736015319824219 15.545742988586425781 15.128842353820800781 14.923124313354492188 14.78955078125 14.518195152282714844 14.038769721984863281 13.452116966247558594 12.935776710510253906 12.676239013671875 12.563104629516601563 10.817076683044433594 12.463854789733886719 12.221331596374511719 12.030859947204589844 12.215916633605957031 12.807224273681640625 13.500609397888183594 14.301484107971191406 15.438849449157714844 16.58089447021484375 16.934154510498046875 16.782670974731445313 16.435834884643554688 16.381587982177734375 16.643678665161132813 16.78221893310546875 16.416767120361328125 15.145203590393066406 12.899384498596191406 11.872471809387207031 11.405292510986328125 10.178621292114257813 11.130398750305175781 11.100475311279296875 11.408413887023925781 11.748644828796386719 11.759449005126953125 11.648941993713378906 11.661756515502929688 11.853533744812011719 12.144604682922363281 12.440155982971191406 12.766124725341796875 13.176373481750488281 13.646323204040527344 14.288947105407714844 15.064668655395507813 15.25571441650390625 14.807204246520996094 13.852894783020019531 12.949237823486328125 12.238835334777832031 11.745022773742675781 11.354825973510742188 10.814194679260253906 10.3672027587890625 10.1707000732421875 9.910858154296875 9.501678466796875 9.007526397705078125 8.4297885894775390625 7.8356571197509765625 7.3746581077575683594 6.8869090080261230469 6.4278879165649414063 6.1283702850341796875 5.6203556060791015625 5.0632319450378417969 4.7426395416259765625 4.6497645378112792969 3.4998304843902587891 4.532520294189453125 4.4167022705078125 4.3043050765991210938 4.2716832160949707031 4.290279388427734375 4.3076877593994140625 4.2049593925476074219 4.0286755561828613281 4.0825905799865722656 3.2381076812744140625 3.264251708984375 4.3947172164916992188 4.4760150909423828125 4.7348418235778808594 5.0707707405090332031 5.4045457839965820313 5.6607842445373535156 5.893268585205078125 5.93994140625 6.0452380180358886719 6.2874574661254882813 6.6945466995239257813 7.6859612464904785156 8.947017669677734375 10.442685127258300781 11.494310379028320313 12.060931205749511719 12.490411758422851563 12.8811492919921875 13.030254364013671875 13.1746673583984375 13.655271530151367188 14.540987014770507813 15.857602119445800781 17.399200439453125 19.181852340698242188 20.3184356689453125 20.614910125732421875 20.647798538208007813 20.682542800903320313 20.765666961669921875 -9999 -9999 -9999 -9999 -9999 -9999 -9999 -9999 -9999 -9999 -9999 -9999
 -9999 -9999 -9999 -9999 18.334535598754882813 18.094999313354492188 17.403528213500976563 16.7011566162109375 16.167812347412109375 16.098560333251953125 16.303705215454101563 16.4584808349609375 16.364263534545898438 15.862589836120605469 15.581012725830078125 15.301905632019042969 14.770078659057617188 14.120930671691894531 13.591984748840332031 13.103743553161621094 12.864735603332519531 12.743964195251464844 10.979961395263671875 12.401442527770996094 12.177336692810058594 12.070338249206542969 12.352736473083496094 12.956271171569824219 13.608324050903320313 14.348392486572265625 15.393487930297851563 16.562780380249023438 17.028415679931640625 17.112951278686523438 16.950695037841796875 16.96976470947265625 17.010332107543945313 16.675275802612304688 15.946550369262695313 14.661128044128417969 12.610181808471679688 11.721296310424804688 11.41204071044921875 10.330803871154785156 11.490061759948730469 11.543955802917480469 11.748004913330078125 12.042319297790527344 12.077692031860351563 11.986674308776855469 11.995028495788574219 12.145738601684570313 12.377465248107910156 12.660990715026855469 12.996462821960449219 13.445920944213867188 13.9812469482421875 14.723696708679199219 15.626854896545410156 15.845181465148925781 15.317110061645507813 14.257307052612304688 13.263718605041503906 12.308984756469726563 11.64864349365234375 11.227772712707519531 10.903130531311035156 10.626288414001464844 10.451430320739746094 10.154397010803222656 9.746456146240234375 9.2777662277221679688 8.723052978515625 8.1196088790893554688 7.5311179161071777344 6.995426177978515625 6.5964136123657226563 6.3295984268188476563 5.8456783294677734375 5.2962779998779296875 4.8815679550170898438 4.6950516700744628906 3.5246663093566894531 3.548236846923828125 4.533527374267578125 4.4703135490417480469 4.4255819320678710938 4.3837103843688964844 4.3609952926635742188 4.2957463264465332031 4.1602048873901367188 4.1459889411926269531 4.18701171875 3.2761578559875488281 3.2783763408660888672 4.447540283203125 4.5572800636291503906 4.7397594451904296875 5.0052189826965332031 5.2066287994384765625 5.3523592948913574219 5.569217681884765625 5.9607663154602050781 6.3208303451538085938 6.8070993423461914063 7.9792108535766601563 9.4844465255737304688 11.362252235412597656 12.59041595458984375 13.223878860473632813 13.690386772155761719 14.291819572448730469 14.537184715270996094 14.54917144775390625 14.5679931640625 14.85895538330078125 15.657617568969726563 16.967388153076171875 18.682279586791992188 19.98846435546875 20.56829833984375 20.78597259521484375 20.859432220458984375 20.915071487426757813 20.923162460327148438 -9999 -9999 -9999 -9999 -9999 -9999 -9999 -9999 -9999 -9999 -9999
 -9999 -9999 -9999 -9999 18.070741653442382813 17.834959030151367188 17.148454666137695313 16.570154190063476563 16.500539779663085938 16.81316375732421875 17.236215591430664063 17.435831069946289063 17.151823043823242188 16.441234588623046875 16.06041717529296875 15.62964630126953125 14.8824920654296875 14.119777679443359375 13.591813087463378906 13.238074302673339844 13.034757614135742188 12.885077476501464844 12.553229331970214844 11.231221199035644531 12.145789146423339844 12.134140968322753906 12.515189170837402344 13.15891265869140625 13.807318687438964844 14.498484611511230469 15.432206153869628906 16.542299270629882813 17.0655670166015625 17.358448028564453125 17.3863677978515625 17.425729751586914063 17.266416549682617188 16.694383621215820313 15.774572372436523438 14.412546157836914063 12.558089256286621094 11.785601615905761719 11.529455184936523438 10.493632316589355469 11.746410369873046875 11.988417625427246094 12.103015899658203125 12.175175666809082031 12.143723487854003906 12.108084678649902344 12.134348869323730469 12.270018577575683594 12.533144950866699219 12.91109466552734375 13.369325637817382813 13.8960418701171875 14.455050468444824219 15.22661590576171875 16.11562347412109375 16.31324005126953125 15.75722503662109375 14.663776397705078125 13.579343795776367188 12.445700645446777344 11.74213409423828125 11.333252906799316406 11.013354301452636719 10.812256813049316406 10.708230018615722656 10.5135955810546875 10.177141189575195313 9.7085809707641601563 9.122066497802734375 8.4490337371826171875 7.73114013671875 7.111812591552734375 6.7282190322875976563 6.4924941062927246094 6.0992035865783691406 5.6736907958984375 5.1461801528930664063 4.7274160385131835938 4.5425581932067871094 3.5523838996887207031 4.6067185401916503906 4.5866446495056152344 4.5129742622375488281 4.4005789756774902344 4.4187235832214355469 4.3785104751586914063 4.24378204345703125 4.2001819610595703125 4.2262897491455078125 4.2918910980224609375 3.2848896980285644531 4.4428262710571289063 4.4660739898681640625 4.545337677001953125 4.603809356689453125 4.7796664237976074219 5.0725178718566894531 5.4783792495727539063 6.0161843299865722656 6.5423865318298339844 7.1630988121032714844 8.5088129043579101563 10.060977935791015625 11.968137741088867188 13.365686416625976563 14.25495147705078125 14.800087928771972656 15.294206619262695313 15.489659309387207031 15.456796646118164063 15.319334983825683594 15.323446273803710938 15.68399810791015625 16.578899383544921875 17.971460342407226563 19.188547134399414063 20.001119613647460938 20.273834228515625 20.352626800537109375 20.465494155883789063 20.470306396484375 20.380743026733398438 -9999 -9999 -9999 -9999 -9999 -9999 -9999 -9999 -9999 -9999
 -9999 -9999 -9999 -9999 17.947551727294921875 17.7540283203125 17.212480545043945313 16.859914779663085938 17.120374679565429688 17.471963882446289063 17.84047698974609375 17.894006729125976563 17.450498580932617188 16.77545166015625 16.37386322021484375 15.764039039611816406 14.888150215148925781 14.1215972900390625 13.574536323547363281 13.278993606567382813 13.064050674438476563 12.853868484497070313 12.547572135925292969 11.341610908508300781 12.149025917053222656 12.253931045532226563 12.7207794189453125 13.378621101379394531 14.129273414611816406 14.862393379211425781 15.738352775573730469 16.799394607543945313 17.341304779052734375 17.754499435424804688 17.918630599975585938 17.903402328491210938 17.560884475708007813 16.8521270751953125 15.813836097717285156 14.465978622436523438 12.7548675537109375 11.977160453796386719 11.617549896240234375 10.68663787841796875 12.051176071166992188 12.356412887573242188 12.402984619140625 12.298036575317382813 12.174779891967773438 12.186962127685546875 12.262079238891601563 12.442684173583984375 12.752063751220703125 13.265600204467773438 13.860363960266113281 14.470855712890625 15.138151168823242188 15.910533905029296875 16.65668487548828125 16.707950592041015625 15.962413787841796875 14.745385169982910156 13.492044448852539063 12.557353973388671875 11.955584526062011719 11.574533462524414063 11.264939308166503906 11.068349838256835938 11.01345062255859375 11.001341819763183594 10.915493965148925781 10.504041671752929688 9.7412652969360351563 8.970432281494140625 8.1306934356689453125 7.3428797721862792969 6.8823122978210449219 6.6401386260986328125 6.3247666358947753906 6.0802407264709472656 5.555271148681640625 4.9912352561950683594 4.7569675445556640625 4.6859631538391113281 3.6410608291625976563 4.6183724403381347656 4.532047271728515625 4.3780617713928222656 4.4254336357116699219 4.3909173011779785156 4.2577466964721679688 4.3041095733642578125 4.4281239509582519531 4.4695658683776855469 3.2893555164337158203 3.2936115264892578125 4.4621105194091796875 4.419361114501953125 4.4132785797119140625 4.5358700752258300781 4.9385805130004882813 5.3964276313781738281 5.9739389419555664063 6.7064790725708007813 7.4850902557373046875 9.0503244400024414063 10.744066238403320313 12.594969749450683594 14.110358238220214844 14.992798805236816406 15.577581405639648438 16.027355194091796875 16.092920303344726563 16.004991531372070313 15.84747314453125 15.799777984619140625 15.945004463195800781 16.4261932373046875 17.395071029663085938 18.371187210083007813 19.109592437744140625 19.343906402587890625 19.373630523681640625 19.354593276977539063 19.276189804077148438 19.324609756469726563 -9999 -9999 -9999 -9999 -9999 -9999 -9999 -9999 -9999 -9999
 -9999 -9999 -9999 -9999 17.899076461791992188 17.725549697875976563 17.350862503051757813 17.16534423828125 17.577808380126953125 17.97525787353515625 18.270315170288085938 18.006772994995117188 17.23482513427734375 16.4490203857421875 16.008115768432617188 15.410765647888183594 14.759102821350097656 14.128551483154296875 13.596642494201660156 13.276559829711914063 13.050384521484375 12.82903289794921875 12.530552864074707031 12.339484214782714844 11.184934616088867188 12.396541595458984375 13.046861648559570313 13.794247627258300781 14.605426788330078125 15.522459030151367188 16.53524017333984375 17.570018768310546875 18.0348052978515625 18.336267471313476563 18.444982528686523438 18.274454116821289063 17.752378463745117188 16.912240982055664063 15.835957527160644531 14.532167434692382813 12.911311149597167969 12.160483360290527344 11.805483818054199219 10.922724723815917969 12.315242767333984375 12.588748931884765625 12.613362312316894531 12.465203285217285156 12.316850662231445313 12.347075462341308594 12.449018478393554688 12.683746337890625 13.074292182922363281 13.676375389099121094 14.323035240173339844 15.095095634460449219 15.907544136047363281 16.542528152465820313 17.122419357299804688 17.040567398071289063 16.091085433959960938 14.772711753845214844 13.415143966674804688 12.584084510803222656 12.061733245849609375 11.722078323364257813 11.490420341491699219 11.325479507446289063 11.322240829467773438 11.51691436767578125 11.746823310852050781 11.440672874450683594 10.465526580810546875 9.5116558074951171875 8.4734821319580078125 7.5397171974182128906 7.0053253173828125 6.7899150848388671875 6.559368133544921875 6.3138780593872070313 5.8904109001159667969 5.3867993354797363281 5.0597701072692871094 4.9131479263305664063 3.6442520618438720703 4.646320343017578125 4.5822839736938476563 4.4958581924438476563 4.5928401947021484375 4.5585484504699707031 4.4214472770690917969 4.4747438430786132813 4.6102495193481445313 4.6389589309692382813 4.5395064353942871094 3.296825408935546875 3.3045489788055419922 3.3076343536376953125 4.4406905174255371094 4.5459570884704589844 4.8125104904174804688 5.2426981925964355469 5.9228496551513671875 6.7383818626403808594 7.5360231399536132813 9.1879091262817382813 11.072086334228515625 12.86895751953125 14.430156707763671875 15.45470428466796875 16.066518783569335938 16.412311553955078125 16.426326751708984375 16.261140823364257813 15.981109619140625 16.009168624877929688 16.141963958740234375 16.4468536376953125 17.046596527099609375 17.574213027954101563 17.920501708984375 18.164342880249023438 18.162824630737304688 17.933794021606445313 17.862735748291015625 18.210294723510742188 18.544582366943359375 -9999 -9999 -9999 -9999 -9999 -9999 -9999 -9999 -9999
 -9999 -9999 -9999 -9999 17.846418380737304688 17.669794082641601563 17.480804443359375 17.433229446411132813 17.952096939086914063 18.387971878051757813 18.494512557983398438 17.950199127197265625 16.960607528686523438 15.992877006530761719 15.499588966369628906 14.967060089111328125 14.477494239807128906 14.007017135620117188 13.593595504760742188 13.257184028625488281 12.998005867004394531 12.774645805358886719 12.428701400756835938 12.250668525695800781 11.221714019775390625 12.582266807556152344 13.387856483459472656 14.355011940002441406 15.280613899230957031 16.319723129272460938 17.416072845458984375 18.445667266845703125 18.840749740600585938 18.978216171264648438 18.969858169555664063 18.749982833862304688 18.07623291015625 16.827259063720703125 15.736594200134277344 14.581843376159667969 13.097931861877441406 12.405550003051757813 11.074208259582519531 11.195484161376953125 12.567744255065917969 12.830297470092773438 12.884871482849121094 12.733080863952636719 12.574105262756347656 12.595414161682128906 12.699758529663085938 12.968110084533691406 13.406457901000976563 13.994256973266601563 14.658535003662109375 15.519450187683105469 16.306993484497070313 16.901906967163085938 17.423101425170898438 17.303863525390625 16.252439498901367188 14.799161911010742188 13.534732818603515625 12.66564178466796875 12.146741867065429688 11.881983757019042969 11.774237632751464844 11.768024444580078125 11.819852828979492188 12.114075660705566406 12.686755180358886719 12.501122474670410156 11.070601463317871094 9.7658872604370117188 8.6875438690185546875 7.7034354209899902344 7.1202602386474609375 6.9184756278991699219 6.7029981613159179688 6.3699374198913574219 6.0057873725891113281 5.663440704345703125 5.3294024467468261719 5.0716261863708496094 4.7626824378967285156 3.6652455329895019531 4.6953077316284179688 4.7746815681457519531 4.9896979331970214844 4.958942413330078125 4.7825441360473632813 4.7167873382568359375 4.710357666015625 4.6782712936401367188 4.5982336997985839844 4.5314912796020507813 4.4120297431945800781 4.3455572128295898438 3.4170126914978027344 4.6391215324401855469 4.7615299224853515625 5.2106747627258300781 5.9093060493469238281 6.5629515647888183594 7.2669515609741210938 8.8622531890869140625 10.714658737182617188 12.495599746704101563 14.051005363464355469 15.256791114807128906 15.874288558959960938 16.19814300537109375 16.29369354248046875 16.094860076904296875 15.662343025207519531 15.710324287414550781 15.888906478881835938 16.07157135009765625 16.424129486083984375 16.616128921508789063 16.630472183227539063 16.848985671997070313 16.995740890502929688 17.130559921264648438 17.432079315185546875 18.118200302124023438 18.8117828369140625 -9999 -9999 -9999 -9999 -9999 -9999 -9999 -9999 -9999
 -9999 -9999 -9999 -9999 17.890048980712890625 17.777414321899414063 17.65470123291015625 17.698089599609375 18.319538116455078125 18.705839157104492188 18.5899658203125 17.909336090087890625 16.826681137084960938 15.739678382873535156 15.235367774963378906 14.736847877502441406 14.208003044128417969 13.873369216918945313 13.548395156860351563 13.183142662048339844 12.909243583679199219 12.669833183288574219 12.346485137939453125 12.220681190490722656 10.967844963073730469 10.832175254821777344 13.750303268432617188 14.936937332153320313 15.926914215087890625 16.817150115966796875 17.902667999267578125 19.06665802001953125 19.456415176391601563 19.448665618896484375 19.410535812377929688 19.2904815673828125 18.5648651123046875 16.825326919555664063 15.690089225769042969 14.593169212341308594 13.099478721618652344 11.462635040283203125 12.268945693969726563 12.405508995056152344 12.75565338134765625 13.044856071472167969 13.10164642333984375 12.955258369445800781 12.803465843200683594 12.808954238891601563 12.93173980712890625 13.271387100219726563 13.753462791442871094 14.340870857238769531 14.956510543823242188 15.746463775634765625 16.415201187133789063 17.04137420654296875 17.5867767333984375 17.443716049194335938 16.3836212158203125 15.031592369079589844 13.737111091613769531 12.692805290222167969 12.235144615173339844 12.138971328735351563 12.155609130859375 12.383548736572265625 12.516576766967773438 12.835775375366210938 13.594876289367675781 13.466970443725585938 11.709049224853515625 9.9210233688354492188 8.7025156021118164063 7.7517747879028320313 7.2418713569641113281 7.05803680419921875 6.803585052490234375 6.4287919998168945313 6.0811924934387207031 5.8410868644714355469 5.5990099906921386719 5.2613949775695800781 4.9190669059753417969 3.9028773307800292969 4.9749774932861328125 5.0496983528137207031 5.1934633255004882813 5.1975665092468261719 5.07061004638671875 4.9259095191955566406 4.8244805335998535156 4.7290215492248535156 4.6912512779235839844 4.691555023193359375 4.632106781005859375 4.4415464401245117188 3.4513187408447265625 4.6837987899780273438 4.8484454154968261719 5.2127017974853515625 5.8709058761596679688 6.4508295059204101563 7.0724287033081054688 8.4041547775268554688 9.8351430892944335938 11.56104278564453125 13.106998443603515625 14.047170639038085938 14.725947380065917969 15.509601593017578125 15.825892448425292969 15.664667129516601563 15.198184013366699219 15.103192329406738281 15.214741706848144531 15.222832679748535156 15.42754364013671875 15.59658050537109375 15.533503532409667969 15.512142181396484375 15.911297798156738281 16.990039825439453125 17.912841796875 18.945842742919921875 19.769863128662109375 -9999 -9999 -9999 -9999 -9999 -9999 -9999 -9999 -9999
 -9999 -9999 -9999 -9999 18.047061920166015625 17.97216796875 17.866268157958984375 17.954481124877929688 18.498897552490234375 18.756723403930664063 18.420606613159179688 17.603914260864257813 16.532928466796875 15.516913414001464844 15.061959266662597656 14.620977401733398438 14.127576828002929688 13.825089454650878906 13.499529838562011719 13.120454788208007813 12.842454910278320313 12.646967887878417969 11.368768692016601563 11.2155609130859375 12.707071304321289063 13.304106712341308594 14.246535301208496094 15.444029808044433594 16.38716888427734375 17.101514816284179688 18.099531173706054688 19.321872711181640625 19.712938308715820313 19.631998062133789063 19.554487228393554688 19.351728439331054688 18.526796340942382813 16.72475433349609375 15.573361396789550781 14.453900337219238281 13.082991600036621094 12.524432182312011719 11.354401588439941406 12.470440864562988281 12.823389053344726563 13.121819496154785156 13.188432693481445313 13.105382919311523438 13.019530296325683594 13.038683891296386719 13.167061805725097656 13.528372764587402344 14.019600868225097656 14.596027374267578125 15.180593490600585938 15.848794937133789063 16.447383880615234375 17.076837539672851563 17.614978790283203125 17.45468902587890625 16.394380569458007813 15.114022254943847656 13.866187095642089844 12.851260185241699219 12.457936286926269531 12.444421768188476563 12.555934906005859375 12.893839836120605469 13.052919387817382813 13.270463943481445313 13.752630233764648438 13.386721611022949219 11.622786521911621094 9.8375654220581054688 8.6555957794189453125 7.7811999320983886719 7.3047652244567871094 7.1232628822326660156 6.8729567527770996094 6.5243730545043945313 6.2037858963012695313 6.0178446769714355469 5.8523159027099609375 4.6002717018127441406 4.4852514266967773438 5.5530743598937988281 5.4262738227844238281 5.326900482177734375 5.3497519493103027344 5.3524541854858398438 5.2632431983947753906 5.1345624923706054688 5.0161542892456054688 4.8744478225708007813 4.8223733901977539063 4.8258261680603027344 4.7975916862487792969 3.6418313980102539063 3.5639805793762207031 4.7516565322875976563 4.9029812812805175781 5.176849365234375 5.7236666679382324219 6.2261152267456054688 6.7903838157653808594 7.9618706703186035156 9.0924463272094726563 10.50864410400390625 11.782197952270507813 12.485321044921875 13.166736602783203125 14.043690681457519531 14.402736663818359375 14.294038772583007813 13.926082611083984375 13.842471122741699219 13.981005668640136719 14.070680618286132813 14.385176658630371094 14.707159996032714844 14.801436424255371094 14.850861549377441406 15.528323173522949219 17.291990280151367188 18.537603378295898438 19.587575912475585938 20.325857162475585938 -9999 -9999 -9999 -9999 -9999 -9999 -9999 -9999 -9999
 -9999 -9999 -9999 -9999 18.431871414184570313 18.369556427001953125 18.284763336181640625 18.394842147827148438 18.579175949096679688 18.461412429809570313 17.765344619750976563 16.763940811157226563 15.864411354064941406 15.119755744934082031 14.7728729248046875 14.442548751831054688 14.113727569580078125 13.776513099670410156 13.393644332885742188 13.047449111938476563 12.8235321044921875 11.616484642028808594 13.095179557800292969 13.313245773315429688 13.678112030029296875 14.351894378662109375 15.302323341369628906 16.414554595947265625 17.241014480590820313 17.73387908935546875 18.439319610595703125 19.507518768310546875 19.839002609252929688 19.682889938354492188 19.46695709228515625 18.850688934326171875 17.720088958740234375 16.15984344482421875 15.109142303466796875 14.108428955078125 13.158391952514648438 12.749772071838378906 11.489218711853027344 11.505156517028808594 12.82857513427734375 13.123166084289550781 13.2396087646484375 13.312237739562988281 13.388671875 13.464856147766113281 13.596149444580078125 13.973093986511230469 14.496378898620605469 15.045422554016113281 15.588479042053222656 16.008111953735351563 16.5148162841796875 17.061048507690429688 17.432596206665039063 17.236532211303710938 16.224943161010742188 14.98984527587890625 13.991779327392578125 13.267306327819824219 12.991408348083496094 13.032914161682128906 13.267163276672363281 13.662242889404296875 13.763165473937988281 13.600726127624511719 13.227122306823730469 12.236935615539550781 10.732316017150878906 9.466278076171875 8.5853357315063476563 7.8874111175537109375 7.4155483245849609375 7.2064213752746582031 6.965831756591796875 6.6949310302734375 6.4417214393615722656 5.3322167396545410156 5.261264801025390625 6.1245999336242675781 6.0995817184448242188 6.1436104774475097656 6.0235967636108398438 5.8160338401794433594 5.6991000175476074219 5.6581740379333496094 5.5828876495361328125 5.5037207603454589844 5.4065079689025878906 5.2465801239013671875 5.0959596633911132813 5.0223979949951171875 3.9356164932250976563 3.849483489990234375 4.8359723091125488281 4.9090094566345214844 4.9552645683288574219 5.1107249259948730469 5.4232845306396484375 5.7761340141296386719 6.2355756759643554688 7.1968274116516113281 7.9873704910278320313 8.6798553466796875 9.2761468887329101563 9.7211208343505859375 10.277256965637207031 10.885390281677246094 11.200619697570800781 11.205120086669921875 11.099064826965332031 11.223801612854003906 11.513318061828613281 11.952313423156738281 12.609986305236816406 13.226119041442871094 13.733873367309570313 14.2480926513671875 15.349593162536621094 17.83303070068359375 19.416673660278320313 20.266630172729492188 20.718523025512695313 -9999 -9999 -9999 -9999 -9999 -9999 -9999 -9999 -9999
 -9999 -9999 -9999 -9999 18.783727645874023438 18.724277496337890625 18.604799270629882813 18.586797714233398438 18.414510726928710938 17.866039276123046875 17.054906845092773438 16.214292526245117188 15.597711563110351563 14.97898101806640625 14.65657806396484375 14.357420921325683594 14.052581787109375 13.676270484924316406 13.26680755615234375 12.014066696166992188 11.864200592041015625 13.253551483154296875 13.751122474670410156 14.078094482421875 14.526387214660644531 15.177660942077636719 16.160310745239257813 17.382974624633789063 18.257543563842773438 18.688358306884765625 18.956027984619140625 19.506662368774414063 19.646730422973632813 19.399738311767578125 18.987409591674804688 17.954080581665039063 16.546115875244140625 15.267578125 14.661276817321777344 14.182433128356933594 13.446080207824707031 13.055393218994140625 12.758702278137207031 11.643613815307617188 12.788959503173828125 13.074032783508300781 13.267675399780273438 13.416733741760253906 13.59711456298828125 13.768109321594238281 13.944058418273925781 14.404752731323242188 15.071079254150390625 15.6763153076171875 16.141988754272460938 16.31939697265625 16.649038314819335938 16.959543228149414063 16.962751388549804688 16.704662322998046875 15.867961883544921875 14.73950958251953125 13.97417449951171875 13.512465476989746094 13.387455940246582031 13.52179718017578125 13.787508010864257813 14.147027015686035156 14.080217361450195313 13.414235115051269531 12.462704658508300781 11.263588905334472656 9.1096134185791015625 9.2004060745239257813 8.5044403076171875 7.9881887435913085938 7.6216888427734375 7.3743457794189453125 7.007511138916015625 6.7770905494689941406 5.6281042098999023438 5.5347399711608886719 6.5053181648254394531 6.470821380615234375 6.447475433349609375 6.4002089500427246094 6.3026185035705566406 6.1051335334777832031 5.9759106636047363281 5.8936977386474609375 5.7888431549072265625 5.6753897666931152344 5.6377224922180175781 5.5780129432678222656 5.3218636512756347656 5.18096160888671875 3.9462401866912841797 4.9714612960815429688 4.952831268310546875 4.9997181892395019531 5.0368719100952148438 5.1447057723999023438 5.385410308837890625 5.7508907318115234375 6.1147794723510742188 6.7750616073608398438 7.31168365478515625 7.6711764335632324219 7.9725208282470703125 8.2352342605590820313 8.625988006591796875 9.2187747955322265625 9.6838445663452148438 9.8392839431762695313 9.967151641845703125 10.208525657653808594 10.492783546447753906 10.985466957092285156 11.653749465942382813 12.294762611389160156 13.007024765014648438 13.747828483581542969 14.891034126281738281 17.421953201293945313 19.344203948974609375 20.37863922119140625 20.729852676391601563 -9999 -9999 -9999 -9999 -9999 -9999 -9999 -9999 -9999
 -9999 -9999 -9999 -9999 19.05870819091796875 19.004598617553710938 18.823369979858398438 18.575983047485351563 18.197515487670898438 17.488245010375976563 16.69012451171875 16.06720733642578125 15.662092208862304688 15.143594741821289063 14.8446807861328125 14.483865737915039063 13.99811553955078125 12.418332099914550781 12.194752693176269531 13.018954277038574219 13.260598182678222656 13.691568374633789063 14.221457481384277344 14.595759391784667969 15.213389396667480469 15.957085609436035156 16.828739166259765625 18.100864410400390625 19.059200286865234375 19.432413101196289063 19.36248779296875 19.374914169311523438 19.298482894897460938 18.8769073486328125 18.11042022705078125 16.969491958618164063 15.755391120910644531 15.185278892517089844 15.293776512145996094 15.068734169006347656 14.073742866516113281 13.511720657348632813 13.102534294128417969 12.855933189392089844 11.883021354675292969 13.121885299682617188 13.396569252014160156 13.571016311645507813 13.830403327941894531 14.189871788024902344 14.438268661499023438 14.903111457824707031 15.628430366516113281 16.356458663940429688 16.83158111572265625 16.849496841430664063 16.873859405517578125 16.946634292602539063 16.717832565307617188 16.382534027099609375 15.575367927551269531 14.530714988708496094 13.956777572631835938 13.735601425170898438 13.717302322387695313 13.962354660034179688 14.339090347290039063 14.552882194519042969 14.300073623657226563 13.256615638732910156 11.917615890502929688 10.827704429626464844 9.920169830322265625 7.989192962646484375 8.3338527679443359375 7.9751658439636230469 7.7738885879516601563 7.5534534454345703125 6.1344232559204101563 5.9743447303771972656 6.9576888084411621094 6.7952189445495605469 6.692852020263671875 6.6498084068298339844 6.6156358718872070313 6.5319266319274902344 6.4328603744506835938 6.2736907005310058594 6.1747770309448242188 6.0345253944396972656 5.8821024894714355469 5.8085155487060546875 5.8087830543518066406 5.7437524795532226563 5.4976224899291992188 5.3250341415405273438 5.1316127777099609375 3.9648849964141845703 5.0017538070678710938 5.0361118316650390625 5.0885024070739746094 5.2470564842224121094 5.5014390945434570313 5.7918200492858886719 6.0852079391479492188 6.6385416984558105469 7.0940117835998535156 7.4139165878295898438 7.6364598274230957031 7.9138641357421875 8.3459835052490234375 8.98003387451171875 9.5176115036010742188 9.807247161865234375 10.186020851135253906 10.468806266784667969 10.645873069763183594 10.988559722900390625 11.471406936645507813 11.968909263610839844 12.611866950988769531 13.315991401672363281 14.355432510375976563 16.647958755493164063 18.547376632690429688 19.833160400390625 20.321847915649414063 20.27919769287109375 -9999 -9999 -9999 -9999 -9999 -9999 -9999 -9999
 -9999 -9999 -9999 -9999 19.40053558349609375 19.3313446044921875 19.08617401123046875 18.66797637939453125 18.026533126831054688 17.222942352294921875 16.532009124755859375 16.116146087646484375 15.938190460205078125 15.635729789733886719 15.325636863708496094 14.713044166564941406 14.010588645935058594 11.51284027099609375 13.216580390930175781 13.213716506958007813 13.580118179321289063 14.026240348815917969 14.496117591857910156 14.908930778503417969 15.716381072998046875 16.6266937255859375 17.567594528198242188 18.7635955810546875 19.596311569213867188 19.793943405151367188 19.6332244873046875 19.294981002807617188 19.042266845703125 18.397439956665039063 17.20829010009765625 16.379007339477539063 16.00395965576171875 16.250133514404296875 16.727533340454101563 16.19115447998046875 14.653746604919433594 13.858198165893554688 13.318981170654296875 13.005475997924804688 12.029772758483886719 13.254102706909179688 13.504276275634765625 13.722777366638183594 14.094069480895996094 14.620471954345703125 14.951587677001953125 15.463489532470703125 16.257993698120117188 17.159986495971679688 17.664785385131835938 17.546689987182617188 17.32784271240234375 17.211627960205078125 16.82369232177734375 16.352827072143554688 15.434619903564453125 14.589746475219726563 14.158720970153808594 13.976016044616699219 14.044764518737792969 14.433320045471191406 15.134138107299804688 15.271808624267578125 14.8551483154296875 13.476992607116699219 11.676500320434570313 10.589412689208984375 9.7989721298217773438 8.8365993499755859375 7.2180795669555664063 7.9249625205993652344 7.7668313980102539063 6.2323465347290039063 6.1824655532836914063 7.4160604476928710938 7.3297877311706542969 7.0937066078186035156 6.902984619140625 6.7900633811950683594 6.77288055419921875 6.7304167747497558594 6.635540008544921875 6.4510250091552734375 6.3357024192810058594 6.2040152549743652344 6.0860972404479980469 6.0559258460998535156 6.0363893508911132813 5.9196925163269042969 5.6918621063232421875 5.4657087326049804688 5.1050062179565429688 3.9708461761474609375 5.0720434188842773438 5.1442861557006835938 5.20871734619140625 5.4079661369323730469 5.6662721633911132813 5.8070836067199707031 6.0187983512878417969 6.5135731697082519531 6.8984251022338867188 7.2321124076843261719 7.4767479896545410156 7.8734598159790039063 8.4337482452392578125 9.078052520751953125 9.6129741668701171875 9.9669923782348632813 10.514316558837890625 10.897965431213378906 11.095599174499511719 11.432011604309082031 11.798443794250488281 12.137963294982910156 12.548971176147460938 13.051449775695800781 13.909626960754394531 15.880426406860351563 17.5745849609375 18.829858779907226563 19.601230621337890625 19.796525955200195313 19.903009414672851563 20.140621185302734375 -9999 -9999 -9999 -9999 -9999 -9999
 -9999 -9999 -9999 -9999 19.678340911865234375 19.578294754028320313 19.242334365844726563 18.655620574951171875 17.859073638916015625 17.1066436767578125 16.615789413452148438 16.493261337280273438 16.477626800537109375 16.04691314697265625 15.59871673583984375 14.85126495361328125 14.123255729675292969 11.773457527160644531 11.878015518188476563 13.616921424865722656 13.939530372619628906 14.327931404113769531 14.79878997802734375 15.231169700622558594 16.088365554809570313 17.13808441162109375 18.29248046875 19.383367538452148438 20.020549774169921875 20.100942611694335938 19.826829910278320313 19.178096771240234375 18.739007949829101563 18.001276016235351563 16.976169586181640625 16.636157989501953125 17.032411575317382813 17.741024017333984375 17.872325897216796875 16.848541259765625 14.898688316345214844 13.967130661010742188 13.425398826599121094 13.127835273742675781 12.21009063720703125 12.300171852111816406 13.638921737670898438 13.944277763366699219 14.456665992736816406 15.058360099792480469 15.433454513549804688 16.067874908447265625 17.099695205688476563 18.208543777465820313 18.665021896362304688 18.377071380615234375 18.015298843383789063 17.676639556884765625 17.166126251220703125 16.650007247924804688 15.657800674438476563 14.746512413024902344 14.299755096435546875 14.174860954284667969 14.399367332458496094 15.074237823486328125 16.1108551025390625 16.40059661865234375 15.857758522033691406 13.934872627258300781 11.555150032043457031 10.399197578430175781 9.6633853912353515625 8.7631597518920898438 8.1526975631713867188 6.7487530708312988281 7.4915003776550292969 6.3693995475769042969 7.6801805496215820313 7.6491918563842773438 7.4960451126098632813 7.2877106666564941406 7.0657176971435546875 6.9571781158447265625 6.9652676582336425781 6.9335727691650390625 6.8072366714477539063 6.5770173072814941406 6.5431165695190429688 6.4523625373840332031 6.2908797264099121094 6.2447562217712402344 6.2400889396667480469 6.12664031982421875 5.9036841392517089844 5.6466379165649414063 5.1928758621215820313 5.0139670372009277344 4.0222268104553222656 5.2434167861938476563 5.3264217376708984375 5.6079859733581542969 5.9422450065612792969 6.0283446311950683594 6.1643052101135253906 6.5512742996215820313 6.8340921401977539063 7.0665926933288574219 7.3875660896301269531 7.8795261383056640625 8.4575624465942382813 9.125194549560546875 9.5839691162109375 9.930759429931640625 10.585205078125 11.117939949035644531 11.532209396362304688 12.037137031555175781 12.4414825439453125 12.699075698852539063 12.909496307373046875 13.157164573669433594 13.685683250427246094 14.99600982666015625 16.350694656372070313 17.71966552734375 18.6716156005859375 19.13018035888671875 19.496725082397460938 19.832658767700195313 19.980987548828125 20.010396957397460938 -9999 -9999 -9999 -9999
 -9999 -9999 -9999 -9999 19.692533493041992188 19.563480377197265625 19.18682861328125 18.54467010498046875 17.812402725219726563 17.294780731201171875 17.017675399780273438 16.986886978149414063 16.933584213256835938 16.357831954956054688 15.790591239929199219 14.912587165832519531 14.17899322509765625 13.722707748413085938 12.048649787902832031 13.974462509155273438 14.283185005187988281 14.592949867248535156 15.090001106262207031 15.566026687622070313 16.455125808715820313 17.5032501220703125 18.659418106079101563 19.614896774291992188 20.179273605346679688 20.288433074951171875 19.898029327392578125 19.019124984741210938 18.41522979736328125 17.655233383178710938 17.148801803588867188 17.423666000366210938 18.267091751098632813 18.6772613525390625 18.3411865234375 17.07269287109375 14.937815666198730469 13.978445053100585938 13.542482376098632813 13.302372932434082031 13.345267295837402344 12.582500457763671875 13.836268424987792969 14.281537055969238281 15.001978874206542969 15.658734321594238281 15.980504035949707031 16.508192062377929688 17.531728744506835938 18.669599533081054688 19.191061019897460938 18.98007965087890625 18.554874420166015625 18.18718719482421875 17.761053085327148438 17.228389739990234375 16.028139114379882813 14.869917869567871094 14.392307281494140625 14.426390647888183594 14.93167877197265625 15.912259101867675781 16.901086807250976563 17.048608779907226563 16.377668380737304688 14.142694473266601563 11.434971809387207031 10.178242683410644531 9.3798694610595703125 8.6525049209594726563 8.1469821929931640625 5.6431636810302734375 2.4100518226623535156 7.4742283821105957031 7.7919330596923828125 7.7972283363342285156 7.5905337333679199219 7.37401580810546875 7.1766757965087890625 7.102848052978515625 7.0874018669128417969 7.0317707061767578125 6.9212779998779296875 6.732757568359375 6.6860742568969726563 6.5750527381896972656 6.4318189620971679688 6.4049234390258789063 6.4295797348022460938 6.3780407905578613281 6.2285046577453613281 5.9667010307312011719 5.4484095573425292969 5.2333197593688964844 4.0222268104553222656 5.3274111747741699219 5.4118013381958007813 5.7917113304138183594 6.2770552635192871094 6.5247735977172851563 6.6250658035278320313 6.7781500816345214844 6.9179430007934570313 7.0602259635925292969 7.3887929916381835938 7.8973674774169921875 8.4145288467407226563 8.9198389053344726563 9.2585382461547851563 9.5979890823364257813 10.352915763854980469 11.073401451110839844 11.666848182678222656 12.315820693969726563 12.985709190368652344 13.531003952026367188 13.767894744873046875 13.714135169982910156 13.877259254455566406 14.499146461486816406 15.29544830322265625 16.45470428466796875 17.46660614013671875 18.29599761962890625 18.94162750244140625 19.496557235717773438 19.8841705322265625 20.003025054931640625 -9999 -9999 -9999 -9999
 -9999 -9999 -9999 -9999 19.65203857421875 19.47222900390625 19.046865463256835938 18.489389419555664063 17.971935272216796875 17.717418670654296875 17.650506973266601563 17.696544647216796875 17.342821121215820313 16.443653106689453125 15.756772041320800781 14.830567359924316406 14.166335105895996094 13.825292587280273438 13.766803741455078125 12.323842048645019531 14.514590263366699219 14.910443305969238281 15.413651466369628906 15.848387718200683594 16.602703094482421875 17.464429855346679688 18.468265533447265625 19.367511749267578125 19.99950408935546875 20.206150054931640625 19.760034561157226563 18.780294418334960938 18.186651229858398438 17.659358978271484375 17.596807479858398438 18.123813629150390625 18.890819549560546875 18.956995010375976563 18.341648101806640625 16.891260147094726563 14.90240478515625 14.066012382507324219 13.6976318359375 13.45243072509765625 13.461168289184570313 12.7564544677734375 14.1332550048828125 14.715924263000488281 15.597146034240722656 16.322704315185546875 16.568851470947265625 16.854307174682617188 17.677824020385742188 18.703174591064453125 19.219623565673828125 19.055925369262695313 18.699682235717773438 18.3916473388671875 17.914012908935546875 17.334451675415039063 16.1133575439453125 14.997882843017578125 14.602616310119628906 14.857134819030761719 15.72464752197265625 16.708829879760742188 17.2177886962890625 16.804391860961914063 15.916509628295898438 13.590221405029296875 10.818524360656738281 9.5283975601196289063 8.8881072998046875 8.4772043228149414063 8.310291290283203125 7.0708208084106445313 6.859355926513671875 7.9196538925170898438 8.1532001495361328125 8.0366697311401367188 7.7757172584533691406 7.5541968345642089844 7.4049172401428222656 7.3142566680908203125 7.2105236053466796875 7.2059564590454101563 7.1323060989379882813 6.8865332603454589844 6.7153325080871582031 6.6292653083801269531 6.5602369308471679688 6.5384883880615234375 6.4817023277282714844 6.3769741058349609375 6.19368743896484375 6.0395932197570800781 5.8025732040405273438 5.6085662841796875 4.0222268104553222656 5.4383630752563476563 5.4663090705871582031 5.8282222747802734375 6.36502838134765625 6.7552061080932617188 6.8922495841979980469 6.9722814559936523438 7.0277347564697265625 7.1132349967956542969 7.3569674491882324219 7.779911041259765625 8.244029998779296875 8.6524524688720703125 8.910617828369140625 9.19858551025390625 9.9229593276977539063 10.755910873413085938 11.463823318481445313 12.332548141479492188 13.495417594909667969 14.46903228759765625 15.079237937927246094 15.121171951293945313 15.040101051330566406 14.971767425537109375 15.192996025085449219 16.008817672729492188 16.735364913940429688 17.44448089599609375 18.437549591064453125 19.28948211669921875 19.86815643310546875 20.082265853881835938 -9999 -9999 -9999 -9999
 -9999 -9999 -9999 -9999 19.6375579833984375 19.46643829345703125 19.126195907592773438 18.641582489013671875 18.266294479370117188 18.249116897583007813 18.35398101806640625 18.5579681396484375 17.818357467651367188 16.422891616821289063 15.648717880249023438 14.859523773193359375 14.230259895324707031 13.951963424682617188 13.909482955932617188 12.648707389831542969 14.690014839172363281 15.176580429077148438 15.688152313232421875 16.027963638305664063 16.568601608276367188 17.30223846435546875 18.149953842163085938 19.007661819458007813 19.699838638305664063 19.960407257080078125 19.528238296508789063 18.501615524291992188 17.984350204467773438 17.782030105590820313 18.044454574584960938 18.588682174682617188 19.060909271240234375 18.93010711669921875 18.160882949829101563 16.607837677001953125 15.035493850708007813 14.364596366882324219 13.8754119873046875 13.565018653869628906 13.567763328552246094 12.891759872436523438 14.435976982116699219 15.144593238830566406 16.093610763549804688 16.943208694458007813 17.140201568603515625 17.125759124755859375 17.723749160766601563 18.697704315185546875 19.152070999145507813 19.0301513671875 18.740423202514648438 18.1950225830078125 17.150762557983398438 16.50339508056640625 15.755252838134765625 15.05298614501953125 14.787333488464355469 15.14809417724609375 16.187749862670898438 17.107320785522460938 17.092111587524414063 16.046155929565429688 14.784676551818847656 12.190301895141601563 9.6949853897094726563 8.7075262069702148438 7.3622417449951171875 7.1677598953247070313 8.3033609390258789063 7.0997834205627441406 8.100307464599609375 7.1593255996704101563 8.432155609130859375 8.18566131591796875 7.9574437141418457031 7.7864127159118652344 7.6253619194030761719 7.509555816650390625 7.3773040771484375 7.3218545913696289063 7.2406721115112304688 6.9760394096374511719 6.7088007926940917969 6.6750049591064453125 6.6660814285278320313 6.5998501777648925781 6.4040508270263671875 6.1830930709838867188 5.9796061515808105469 5.9532256126403808594 5.9708528518676757813 5.7539048194885253906 5.6032748222351074219 4.0222268104553222656 4.0222268104553222656 5.7489709854125976563 6.2903017997741699219 6.7002015113830566406 6.8993477821350097656 7.1061711311340332031 7.1323103904724121094 7.0902414321899414063 7.2580752372741699219 7.6651134490966796875 8.1110830307006835938 8.4944219589233398438 8.6972932815551757813 8.9375867843627929688 9.6149644851684570313 10.493915557861328125 11.34654998779296875 12.4146270751953125 13.752554893493652344 15.000277519226074219 16.169149398803710938 16.850940704345703125 16.793062210083007813 16.141923904418945313 15.780933380126953125 16.144435882568359375 16.510007858276367188 17.06745147705078125 18.1671905517578125 19.137546539306640625 19.904773712158203125 20.239105224609375 20.475778579711914063 -9999 -9999 -9999
 -9999 -9999 -9999 -9999 19.697038650512695313 19.575021743774414063 19.335369110107421875 18.915441513061523438 18.611986160278320313 18.662235260009765625 18.768323898315429688 18.903028488159179688 17.981935501098632813 16.416652679443359375 15.614393234252929688 14.879533767700195313 14.287762641906738281 14.083462715148925781 12.924550056457519531 12.754974365234375 14.809648513793945313 15.294788360595703125 15.784300804138183594 16.087938308715820313 16.56256103515625 17.207544326782226563 17.912029266357421875 18.687154769897460938 19.4192047119140625 19.76325225830078125 19.465167999267578125 18.562046051025390625 18.141963958740234375 18.09108734130859375 18.39069366455078125 18.779928207397460938 18.990125656127929688 18.783130645751953125 17.984766006469726563 16.47876739501953125 15.111695289611816406 14.522237777709960938 14.007216453552246094 13.662823677062988281 13.702239036560058594 13.126989364624023438 14.795421600341796875 15.570279121398925781 16.463298797607421875 17.267469406127929688 17.450159072875976563 17.404415130615234375 17.946575164794921875 18.863218307495117188 19.2491607666015625 19.10988616943359375 18.775659561157226563 18.086919784545898438 16.8166961669921875 16.154438018798828125 15.626383781433105469 15.14517974853515625 14.980531692504882813 15.356903076171875 16.30780792236328125 16.914831161499023438 16.277791976928710938 14.75624847412109375 13.423306465148925781 11.15756988525390625 8.291698455810546875 7.6262989044189453125 8.4040927886962890625 8.226696014404296875 7.1557512283325195313 8.4786128997802734375 8.296054840087890625 8.3345594406127929688 7.567249298095703125 8.3395843505859375 8.133716583251953125 7.9810376167297363281 7.8200159072875976563 7.6860489845275878906 7.5318531990051269531 7.4197144508361816406 7.3273663520812988281 7.0899586677551269531 6.810855865478515625 6.7315354347229003906 6.675174713134765625 6.5719666481018066406 6.3561091423034667969 6.1288151741027832031 5.9552679061889648438 5.9786272048950195313 6.0853242874145507813 5.8930144309997558594 5.7152156829833984375 5.6487374305725097656 5.5248036384582519531 4.0222268104553222656 6.1935939788818359375 6.6274218559265136719 6.8453860282897949219 7.1018934249877929688 7.1703591346740722656 7.1308469772338867188 7.2798438072204589844 7.666748046875 8.079532623291015625 8.4634466171264648438 8.7004899978637695313 8.9123353958129882813 9.4742059707641601563 10.301495552062988281 11.243552207946777344 12.42043304443359375 13.709463119506835938 15.104864120483398438 16.499568939208984375 17.520965576171875 17.652353286743164063 17.103116989135742188 16.616146087646484375 16.669088363647460938 16.732746124267578125 17.1734771728515625 18.096179962158203125 18.905078887939453125 19.663654327392578125 20.035078048706054688 20.267751693725585938 -9999 -9999 -9999
 -9999 -9999 -9999 -9999 19.95269012451171875 19.91127777099609375 19.768115997314453125 19.431829452514648438 19.17726898193359375 19.148500442504882813 19.134241104125976563 18.938198089599609375 17.847894668579101563 16.359296798706054688 15.60466766357421875 14.888667106628417969 13.376633644104003906 13.200391769409179688 14.530577659606933594 14.741456985473632813 15.029592514038085938 15.442429542541503906 15.877144813537597656 16.1859130859375 16.676446914672851563 17.146722793579101563 17.595073699951171875 18.170257568359375 18.923023223876953125 19.478895187377929688 19.5627593994140625 19.083354949951171875 18.850519180297851563 18.846559524536132813 18.920835494995117188 18.905986785888671875 18.7114105224609375 18.363035202026367188 17.546514511108398438 16.271154403686523438 15.117534637451171875 14.625420570373535156 14.193922996520996094 13.843577384948730469 13.994843482971191406 13.706873893737792969 15.520735740661621094 16.31027984619140625 17.059637069702148438 17.65787506103515625 17.840295791625976563 17.981599807739257813 18.563390731811523438 19.294912338256835938 19.5568389892578125 19.34009552001953125 18.90241241455078125 18.170816421508789063 17.015956878662109375 16.39423370361328125 15.847078323364257813 15.449120521545410156 15.435072898864746094 15.805338859558105469 16.319492340087890625 16.0070343017578125 14.064053535461425781 11.971920013427734375 10.929638862609863281 9.9012823104858398438 8.3138475418090820313 9.1548223495483398438 9.0154066085815429688 8.9049358367919921875 8.9040269851684570313 8.9276895523071289063 8.8288440704345703125 8.7769689559936523438 8.7448682785034179688 7.6272954940795898438 8.4570674896240234375 8.3225908279418945313 8.1998414993286132813 8.0220251083374023438 7.810703277587890625 7.6496801376342773438 7.5444512367248535156 7.3401689529418945313 7.0810341835021972656 6.8516168594360351563 6.6532692909240722656 6.5065121650695800781 6.3413677215576171875 6.1977190971374511719 6.0990781784057617188 6.1453447341918945313 6.30029296875 6.2187910079956054688 6.0158514976501464844 5.9176936149597167969 5.6842455863952636719 5.563167572021484375 4.0222268104553222656 6.5122685432434082031 6.7257246971130371094 6.9706368446350097656 7.1590027809143066406 7.2416744232177734375 7.3979563713073730469 7.7290196418762207031 8.0940494537353515625 8.5189666748046875 8.8493909835815429688 9.0208101272583007813 9.3424196243286132813 9.9405651092529296875 10.919588088989257813 12.288206100463867188 13.483452796936035156 15.04729461669921875 16.451295852661132813 17.546186447143554688 18.064937591552734375 18.386091232299804688 18.24730682373046875 18.012462615966796875 17.655788421630859375 17.823637008666992188 18.198354721069335938 18.47527313232421875 18.945465087890625 19.321783065795898438 19.744581222534179688 19.94820404052734375 20.032842636108398438 -9999
 -9999 -9999 -9999 -9999 20.30844879150390625 20.285524368286132813 20.136938095092773438 19.752145767211914063 19.339824676513671875 19.084384918212890625 18.904277801513671875 18.496372222900390625 17.345170974731445313 16.110277175903320313 15.542035102844238281 14.971990585327148438 13.46358489990234375 13.518110275268554688 14.774568557739257813 15.030339241027832031 15.314463615417480469 15.720556259155273438 16.201040267944335938 16.56452178955078125 17.086168289184570313 17.393833160400390625 17.60288238525390625 17.954349517822265625 18.553058624267578125 19.272552490234375 19.744731903076171875 19.681659698486328125 19.556461334228515625 19.407415390014648438 19.2034759521484375 18.93700408935546875 18.507181167602539063 17.832733154296875 16.926916122436523438 15.948818206787109375 15.096932411193847656 14.7018585205078125 14.327425956726074219 14.055275917053222656 14.270028114318847656 14.171555519104003906 16.016845703125 16.723684310913085938 17.51180267333984375 18.084659576416015625 18.255651473999023438 18.447389602661132813 18.996587753295898438 19.501068115234375 19.703371047973632813 19.531646728515625 19.151830673217773438 18.39705657958984375 17.354017257690429688 16.790767669677734375 16.238073348999023438 15.88634490966796875 16.030857086181640625 16.360788345336914063 16.214853286743164063 14.97081756591796875 12.189760208129882813 10.120526313781738281 9.492034912109375 7.3252725601196289063 9.4726667404174804688 9.5139904022216796875 9.491352081298828125 9.519077301025390625 9.4796924591064453125 9.4090013504028320313 9.3061990737915039063 9.1674718856811523438 8.8998470306396484375 7.6506505012512207031 7.6665029525756835938 8.6122217178344726563 8.5200710296630859375 8.2948131561279296875 8.0612030029296875 7.8779959678649902344 7.7443804740905761719 7.5012416839599609375 7.220539093017578125 6.9444966316223144531 6.7336931228637695313 6.5673017501831054688 6.4159579277038574219 6.34229278564453125 6.2914891242980957031 6.3082323074340820313 6.3818135261535644531 6.3705854415893554688 6.3004412651062011719 6.1430125236511230469 5.9020290374755859375 5.7440295219421386719 5.0222268104553222656 6.4009251594543457031 6.6084957122802734375 6.8667244911193847656 7.0741896629333496094 7.2066226005554199219 7.4038782119750976563 7.76351165771484375 8.189533233642578125 8.6463680267333984375 8.9113903045654296875 9.0699453353881835938 9.3592319488525390625 9.6920566558837890625 10.515372276306152344 12.039890289306640625 13.268147468566894531 14.749530792236328125 16.032756805419921875 16.977361679077148438 17.70989227294921875 18.839159011840820313 19.36081695556640625 19.32314300537109375 19.008268356323242188 18.912096023559570313 18.721353530883789063 18.468784332275390625 18.531644821166992188 18.829153060913085938 19.459505081176757813 19.944864273071289063 -9999 -9999
 -9999 -9999 -9999 -9999 20.490507125854492188 20.49591827392578125 20.42120361328125 20.028245925903320313 19.402727127075195313 18.83687591552734375 18.223474502563476563 17.587184906005859375 16.687841415405273438 15.791109085083007813 15.383172988891601563 14.978732109069824219 14.594793319702148438 13.583696365356445313 14.846590995788574219 15.122364044189453125 15.494005203247070313 16.080190658569335938 16.807584762573242188 17.296529769897460938 17.87497711181640625 18.033050537109375 17.932422637939453125 18.043355941772460938 18.397970199584960938 19.107921600341796875 19.8344268798828125 20.065286636352539063 20.019029617309570313 19.794902801513671875 19.450832366943359375 19.054544448852539063 18.478677749633789063 17.611812591552734375 16.7390594482421875 15.96103668212890625 15.110167503356933594 14.71906280517578125 14.49956512451171875 14.393403053283691406 14.538517951965332031 14.402224540710449219 16.258783340454101563 17.072021484375 17.952997207641601563 18.4448089599609375 18.556209564208984375 18.688367843627929688 19.09746551513671875 19.463619232177734375 19.675275802612304688 19.604648590087890625 19.228267669677734375 18.411840438842773438 17.258470535278320313 16.72191619873046875 16.406900405883789063 16.383375167846679688 16.797115325927734375 16.978399276733398438 16.132961273193359375 14.132291793823242188 11.479302406311035156 9.6590166091918945313 8.2606229782104492188 8.0425872802734375 9.683742523193359375 9.7759313583374023438 9.8651828765869140625 9.9978094100952148438 9.9117488861083984375 9.7147092819213867188 9.5561199188232421875 9.41782379150390625 9.1407594680786132813 8.902973175048828125 7.7347159385681152344 7.7896060943603515625 8.717670440673828125 8.502685546875 8.2732973098754882813 8.0588808059692382813 7.8849244117736816406 7.5849766731262207031 7.2960948944091796875 7.0298614501953125 6.8272013664245605469 6.6657915115356445313 6.6024618148803710938 6.6162972450256347656 6.5523171424865722656 6.4874672889709472656 6.4338827133178710938 6.4656219482421875 6.473297119140625 6.3853068351745605469 6.1986742019653320313 5.0513710975646972656 5.0460724830627441406 6.44751739501953125 6.6179914474487304688 6.8434529304504394531 6.9871373176574707031 7.2457175254821777344 7.5715222358703613281 7.9441704750061035156 8.3788204193115234375 8.76500701904296875 8.96935272216796875 9.1388378143310546875 9.4719219207763671875 9.7622814178466796875 10.417585372924804688 11.684769630432128906 12.794818878173828125 13.934073448181152344 15.192640304565429688 16.291170120239257813 17.181203842163085938 18.7007293701171875 19.783121109008789063 20.283069610595703125 20.297594070434570313 20.02812957763671875 19.4941864013671875 18.843736648559570313 18.597316741943359375 18.69435882568359375 -9999 -9999 -9999 -9999
 -9999 -9999 -9999 -9999 -9999 -9999 20.708881378173828125 20.3797454833984375 19.729949951171875 18.89905548095703125 17.961040496826171875 17.069818496704101563 16.226779937744140625 15.573777198791503906 15.304392814636230469 15.0478515625 14.769921302795410156 14.710066795349121094 13.920939445495605469 15.169591903686523438 15.530477523803710938 16.263738632202148438 17.369960784912109375 18.002332687377929688 18.587732315063476563 18.772451400756835938 18.53359222412109375 18.421770095825195313 18.567594528198242188 19.09308624267578125 19.901287078857421875 20.327060699462890625 20.371221542358398438 20.201251983642578125 19.851703643798828125 19.39766693115234375 18.7512969970703125 17.821676254272460938 16.843034744262695313 16.03134918212890625 15.179690361022949219 14.833397865295410156 14.758727073669433594 14.742302894592285156 14.791812896728515625 14.565252304077148438 16.482707977294921875 17.57855224609375 18.523569107055664063 18.864572525024414063 18.906057357788085938 18.958080291748046875 19.175699234008789063 19.452592849731445313 19.62938690185546875 19.556735992431640625 19.133653640747070313 18.31000518798828125 17.167776107788085938 16.692247390747070313 16.629003524780273438 16.986116409301757813 17.527158737182617188 17.463647842407226563 15.95189666748046875 13.157794952392578125 10.992312431335449219 9.83939361572265625 8.630550384521484375 9.8741044998168945313 10.041904449462890625 10.153853416442871094 10.247490882873535156 10.266648292541503906 10.097254753112792969 9.9011545181274414063 9.8134832382202148438 9.6967382431030273438 9.4292383193969726563 9.2166299819946289063 9.0104961395263671875 7.8833956718444824219 8.9005641937255859375 8.72918701171875 8.5251626968383789063 8.2996149063110351563 8.0998811721801757813 7.7453122138977050781 7.4365887641906738281 7.212032318115234375 7.0153403282165527344 6.8719806671142578125 6.8173227310180664063 6.8095335960388183594 6.7172336578369140625 6.6519188880920410156 6.6106271743774414063 6.6687626838684082031 6.7987270355224609375 6.7112665176391601563 6.3683404922485351563 5.2373032569885253906 6.4807391166687011719 6.6630725860595703125 6.7558379173278808594 6.8969640731811523438 7.0493621826171875 7.428951263427734375 7.8908905982971191406 8.1930942535400390625 8.498867034912109375 8.8781032562255859375 9.1721811294555664063 9.3935365676879882813 9.7805938720703125 10.161573410034179688 10.737321853637695313 11.528673171997070313 12.345675468444824219 13.170153617858886719 14.332272529602050781 15.54170989990234375 16.598878860473632813 18.424970626831054688 19.733724594116210938 20.508314132690429688 20.764270782470703125 20.593505859375 20.1414337158203125 -9999 -9999 -9999 -9999 -9999 -9999 -9999
 -9999 -9999 -9999 -9999 21.545873641967773438 21.266263961791992188 21.000474929809570313 20.814603805541992188 20.3027496337890625 19.329479217529296875 18.247343063354492188 17.122102737426757813 16.106073379516601563 15.577763557434082031 15.383270263671875 15.14263916015625 14.941987037658691406 14.935916900634765625 14.099732398986816406 15.368781089782714844 15.720986366271972656 16.502691268920898438 17.74700927734375 18.423246383666992188 19.046342849731445313 19.469396591186523438 19.40621185302734375 19.112146377563476563 19.069887161254882813 19.428226470947265625 20.129144668579101563 20.644586563110351563 20.745588302612304688 20.610895156860351563 20.33895111083984375 19.837381362915039063 18.961538314819335938 17.82314300537109375 16.706502914428710938 15.881106376647949219 15.219607353210449219 14.989691734313964844 14.977254867553710938 14.969960212707519531 14.003777503967285156 14.712769508361816406 16.73012542724609375 17.92406463623046875 19.01172637939453125 19.450927734375 19.456562042236328125 19.361515045166015625 19.485357284545898438 19.642263412475585938 19.667104721069335938 19.468122482299804688 18.976566314697265625 18.09339141845703125 17.143863677978515625 16.851558685302734375 17.056020736694335938 17.588441848754882813 17.897413253784179688 17.366926193237304688 15.064026832580566406 11.720949172973632813 10.202726364135742188 8.718158721923828125 8.670635223388671875 10.337981224060058594 10.584633827209472656 10.668986320495605469 10.623971939086914063 10.504304885864257813 10.28839111328125 10.0887298583984375 10.029402732849121094 9.9321842193603515625 9.6804819107055664063 9.4991779327392578125 9.3452358245849609375 9.2603015899658203125 8.1667795181274414063 9.0334043502807617188 8.8287324905395507813 8.667339324951171875 8.483612060546875 8.0684671401977539063 7.7045145034790039063 7.4736161231994628906 7.2811989784240722656 7.1299076080322265625 7.0628609657287597656 7.0625376701354980469 7.0191016197204589844 6.9608187675476074219 6.8939385414123535156 6.9363412857055664063 6.9801416397094726563 6.8410844802856445313 5.5795726776123046875 6.5564694404602050781 6.7322978973388671875 6.7875590324401855469 6.8208498954772949219 6.9459834098815917969 7.1769037246704101563 7.6220850944519042969 8.0996618270874023438 8.4119501113891601563 8.6768169403076171875 9.0591259002685546875 9.5334405899047851563 9.8759946823120117188 10.358015060424804688 10.719511032104492188 11.047684669494628906 11.4555816650390625 12.066446304321289063 12.767237663269042969 13.720688819885253906 14.637159347534179688 15.717892646789550781 17.8531646728515625 19.264188766479492188 20.109470367431640625 20.543331146240234375 20.566707611083984375 20.355493545532226563 -9999 -9999 -9999 -9999 -9999 -9999 -9999
 -9999 -9999 -9999 -9999 21.615184783935546875 21.4348907470703125 21.279720306396484375 21.251560211181640625 20.806837081909179688 19.634805679321289063 18.543426513671875 17.427309036254882813 16.30384063720703125 15.676847457885742188 15.4429473876953125 15.203733444213867188 15.113378524780273438 15.227267265319824219 14.326336860656738281 15.76674652099609375 16.085836410522460938 16.773822784423828125 17.964006423950195313 18.6370697021484375 19.37773895263671875 20.144132614135742188 20.368997573852539063 20.072139739990234375 19.738811492919921875 19.712268829345703125 20.172328948974609375 20.778247833251953125 20.951686859130859375 20.835330963134765625 20.527498245239257813 19.800222396850585938 18.68802642822265625 17.49906158447265625 16.546222686767578125 15.829615592956542969 15.405388832092285156 15.233860015869140625 15.076673507690429688 12.981374740600585938 15.116725921630859375 15.829558372497558594 16.8923797607421875 17.988809585571289063 19.203144073486328125 19.811855316162109375 19.845508575439453125 19.67484283447265625 19.689607620239257813 19.77945709228515625 19.681026458740234375 19.337886810302734375 18.80450439453125 17.943449020385742188 17.203386306762695313 17.11114501953125 17.497053146362304688 17.802631378173828125 17.634824752807617188 16.3197784423828125 13.105751991271972656 10.442247390747070313 9.8115072250366210938 8.7882165908813476563 10.484637260437011719 10.814907073974609375 11.096785545349121094 11.126697540283203125 10.999235153198242188 10.899179458618164063 10.676614761352539063 10.385748863220214844 10.252619743347167969 10.149038314819335938 9.9195652008056640625 9.7581005096435546875 9.7044038772583007813 9.6709547042846679688 9.5382719039916992188 9.4125642776489257813 9.2668743133544921875 9.1614713668823242188 8.9743480682373046875 8.5151004791259765625 8.1146135330200195313 7.8090004920959472656 7.6313791275024414063 7.4651517868041992188 7.3419065475463867188 7.3075203895568847656 7.2137289047241210938 7.1414589881896972656 7.0970020294189453125 7.1458287239074707031 7.1098666191101074219 6.8791456222534179688 5.7107152938842773438 6.7575941085815429688 6.8167600631713867188 6.7587680816650390625 6.8223562240600585938 7.1009435653686523438 7.3864231109619140625 7.7618641853332519531 8.1931848526000976563 8.6053628921508789063 8.9687471389770507813 9.4316091537475585938 9.9388246536254882813 10.280314445495605469 10.773411750793457031 11.139060020446777344 11.303181648254394531 11.499048233032226563 11.882189750671386719 12.551931381225585938 13.340186119079589844 13.938595771789550781 14.804539680480957031 16.7396087646484375 18.135822296142578125 18.963708877563476563 19.646959304809570313 20.012735366821289063 20.087110519409179688 -9999 -9999 -9999 -9999 -9999 -9999 -9999
 -9999 -9999 22.123685836791992188 21.836454391479492188 21.735210418701171875 21.691461563110351563 21.640867233276367188 21.538839340209960938 21.00211334228515625 19.824850082397460938 18.700422286987304688 17.601146697998046875 16.53194427490234375 15.846343040466308594 15.609728813171386719 15.493466377258300781 15.579259872436523438 15.826776504516601563 16.06276702880859375 14.99721527099609375 16.525146484375 16.959804534912109375 17.815713882446289063 18.406576156616210938 19.3665924072265625 20.590528488159179688 21.156818389892578125 21.037837982177734375 20.577543258666992188 20.270374298095703125 20.3899383544921875 20.689319610595703125 20.7547760009765625 20.575626373291015625 20.107015609741210938 19.244359970092773438 18.2816619873046875 17.25279998779296875 16.485992431640625 15.948838233947753906 15.57180023193359375 15.388926506042480469 15.15314483642578125 13.769207954406738281 15.278554916381835938 16.025331497192382813 17.021108627319335938 17.972311019897460938 19.074636459350585938 19.8408355712890625 19.9864044189453125 19.840030670166015625 19.746187210083007813 19.685199737548828125 19.426599502563476563 18.937665939331054688 18.448060989379882813 17.857999801635742188 17.48270416259765625 17.53447723388671875 17.846830368041992188 17.6733856201171875 16.78945159912109375 15.033254623413085938 12.102320671081542969 10.240096092224121094 9.1521234512329101563 10.75974273681640625 11.068793296813964844 11.259408950805664063 11.360411643981933594 11.385618209838867188 11.282824516296386719 11.185616493225097656 10.982743263244628906 10.70790863037109375 10.52068328857421875 10.404376029968261719 10.205325126647949219 10.063952445983886719 10.067644119262695313 10.062598228454589844 9.9903135299682617188 9.95880126953125 9.89838409423828125 9.88880157470703125 9.7442159652709960938 9.26885986328125 8.7525205612182617188 8.3342657089233398438 8.1144695281982421875 7.938983917236328125 7.7030367851257324219 7.547008514404296875 7.3785510063171386719 7.2871761322021484375 7.2505316734313964844 7.2867279052734375 7.1674051284790039063 6.9005870819091796875 5.7876138687133789063 6.8190860748291015625 6.8830657005310058594 6.9270715713500976563 7.0388879776000976563 7.3330707550048828125 7.6146087646484375 7.9405984878540039063 8.4023160934448242188 8.8730306625366210938 9.32067108154296875 9.8456439971923828125 10.225901603698730469 10.5380401611328125 11.16144561767578125 11.646883964538574219 11.796483993530273438 11.906184196472167969 12.12194061279296875 12.65891265869140625 13.29135894775390625 13.706117630004882813 14.186243057250976563 15.384309768676757813 16.631883621215820313 17.56927490234375 18.670871734619140625 19.444234848022460938 19.813615798950195313 -9999 -9999 -9999 -9999 -9999 -9999 -9999
 -9999 22.259309768676757813 22.134866714477539063 21.898912429809570313 21.944553375244140625 22.002733230590820313 21.947725296020507813 21.69579315185546875 21.081716537475585938 19.9136199951171875 18.673183441162109375 17.645709991455078125 16.61621856689453125 16.037191390991210938 15.918422698974609375 16.0618438720703125 16.530826568603515625 16.970172882080078125 17.070507049560546875 16.054731369018554688 17.032316207885742188 17.201358795166015625 17.729417800903320313 18.164602279663085938 19.046237945556640625 20.333034515380859375 21.131072998046875 21.4561004638671875 21.44586181640625 21.193027496337890625 20.89556121826171875 20.480524063110351563 20.265016555786132813 19.918653488159179688 19.182641983032226563 18.528057098388671875 17.959543228149414063 17.320856094360351563 16.713043212890625 16.134923934936523438 15.623480796813964844 15.391291618347167969 15.205639839172363281 13.571336746215820313 15.653285980224609375 16.315553665161132813 17.097715377807617188 17.886632919311523438 18.753116607666015625 19.704319000244140625 20.006769180297851563 19.907684326171875 19.705911636352539063 19.4077911376953125 19.001300811767578125 18.460103988647460938 18.096973419189453125 17.96640777587890625 18.150440216064453125 18.2747650146484375 18.177297592163085938 17.447919845581054688 15.942188262939453125 13.812390327453613281 11.781292915344238281 10.638566017150878906 9.1968441009521484375 11.440100669860839844 11.674083709716796875 11.776549339294433594 11.739435195922851563 11.670648574829101563 11.497415542602539063 11.383978843688964844 11.219411849975585938 11.002338409423828125 10.814373016357421875 10.712336540222167969 10.541303634643554688 10.325832366943359375 10.274884223937988281 10.347235679626464844 10.498714447021484375 10.679457664489746094 10.712757110595703125 10.759016990661621094 10.631317138671875 10.1374969482421875 9.5427789688110351563 8.99498748779296875 8.6812648773193359375 8.3784275054931640625 8.0721864700317382813 7.8498888015747070313 7.6741504669189453125 7.5554256439208984375 7.4089527130126953125 7.2935280799865722656 7.0269856452941894531 6.8301491737365722656 5.8523440361022949219 6.9512133598327636719 7.0622053146362304688 7.1359806060791015625 7.2449154853820800781 7.5191006660461425781 7.8237471580505371094 8.2353801727294921875 8.769561767578125 9.1762256622314453125 9.5752058029174804688 10.08670806884765625 10.451848983764648438 10.821490287780761719 11.628674507141113281 12.27931976318359375 12.515919685363769531 12.55278778076171875 12.635239601135253906 12.944370269775390625 13.411059379577636719 13.750291824340820313 13.955463409423828125 14.463959693908691406 15.437656402587890625 16.834978103637695313 18.615886688232421875 19.615858078002929688 20.11519622802734375 20.550996780395507813 -9999 -9999 -9999 -9999 -9999 -9999
 -9999 22.2562255859375 22.129091262817382813 21.909280776977539063 21.963327407836914063 22.028425216674804688 21.975797653198242188 21.704774856567382813 21.07595062255859375 19.862880706787109375 18.610391616821289063 17.6463775634765625 16.666004180908203125 16.119817733764648438 16.078672409057617188 16.42461395263671875 17.097728729248046875 17.718769073486328125 17.865167617797851563 16.32125091552734375 17.323476791381835938 17.342922210693359375 17.750192642211914063 18.132694244384765625 18.947332382202148438 20.140415191650390625 21.003948211669921875 21.565576553344726563 21.794647216796875 21.622915267944335938 21.179487228393554688 20.4393768310546875 20.052778244018554688 19.580921173095703125 18.8331451416015625 18.355718612670898438 17.98712921142578125 17.581562042236328125 16.937013626098632813 16.277589797973632813 15.678903579711914063 15.421271324157714844 15.2801666259765625 14.378404617309570313 15.887546539306640625 16.549570083618164063 17.243318557739257813 17.961091995239257813 18.730195999145507813 19.679655075073242188 19.994792938232421875 19.863214492797851563 19.579044342041015625 19.224733352661132813 18.810800552368164063 18.311565399169921875 18.025621414184570313 18.11428070068359375 18.501638412475585938 18.6137237548828125 18.24358367919921875 17.109060287475585938 15.293330192565917969 13.210580825805664063 11.724600791931152344 10.940420150756835938 10.213129997253417969 11.726156234741210938 11.922488212585449219 12.002696037292480469 11.974826812744140625 11.892740249633789063 11.732281684875488281 11.628582000732421875 11.485835075378417969 11.233526229858398438 11.011157035827636719 10.904952049255371094 10.722266197204589844 10.465209007263183594 10.432930946350097656 10.573065757751464844 10.85019683837890625 11.097525596618652344 11.167425155639648438 11.2111053466796875 11.106958389282226563 10.670015335083007813 10.029878616333007813 9.372882843017578125 8.94052886962890625 8.5431118011474609375 8.2238588333129882813 8.0198192596435546875 7.8801240921020507813 7.7300143241882324219 7.4495210647583007813 7.23291778564453125 6.9632825851440429688 6.8667988777160644531 5.9999876022338867188 7.1021151542663574219 7.1709313392639160156 7.22298431396484375 7.3256726264953613281 7.6151127815246582031 7.9764924049377441406 8.4060678482055664063 8.9096097946166992188 9.2751398086547851563 9.6717786788940429688 10.227018356323242188 10.639384269714355469 11.033430099487304688 11.878437042236328125 12.582184791564941406 12.849331855773925781 12.881218910217285156 12.949625968933105469 13.241771697998046875 13.616037368774414063 13.893355369567871094 14.003489494323730469 14.243855476379394531 14.994655609130859375 16.499176025390625 18.576025009155273438 19.718509674072265625 20.312694549560546875 20.728452682495117188 -9999 -9999 -9999 -9999 -9999 -9999
 -9999 22.3307037353515625 22.13909912109375 21.861202239990234375 21.735935211181640625 21.71352386474609375 21.6597137451171875 21.4692230224609375 20.89983367919921875 19.658716201782226563 18.512744903564453125 17.56711578369140625 16.739879608154296875 16.24111175537109375 16.281421661376953125 16.885099411010742188 17.790479660034179688 18.72342681884765625 19.063627243041992188 16.804174423217773438 17.721649169921875 17.521028518676757813 17.81427764892578125 18.201663970947265625 19.053615570068359375 20.157693862915039063 21.050317764282226563 21.710973739624023438 21.988759994506835938 21.880971908569335938 21.408721923828125 20.544290542602539063 20.048492431640625 19.5310821533203125 19.031215667724609375 18.71915435791015625 18.493150711059570313 18.1837158203125 17.281473159790039063 16.504213333129882813 15.882015228271484375 15.627686500549316406 15.497226715087890625 14.509918212890625 16.103740692138671875 16.916179656982421875 17.717775344848632813 18.3970794677734375 19.09085845947265625 19.80730438232421875 19.986131668090820313 19.733171463012695313 19.34149169921875 19.02175140380859375 18.70485687255859375 18.360498428344726563 18.204202651977539063 18.3924102783203125 18.68093109130859375 18.673856735229492188 18.010801315307617188 16.289171218872070313 14.184203147888183594 12.667569160461425781 11.826446533203125 10.396696090698242188 10.371267318725585938 11.974671363830566406 12.144552230834960938 12.203560829162597656 12.306319236755371094 12.366898536682128906 12.373826980590820313 12.342874526977539063 12.132841110229492188 11.701855659484863281 11.360073089599609375 11.200977325439453125 10.936197280883789063 10.665736198425292969 10.788988113403320313 11.032375335693359375 11.405411720275878906 11.654732704162597656 11.810476303100585938 11.86133575439453125 11.782916069030761719 11.414592742919921875 10.661177635192871094 9.7656040191650390625 9.1122646331787109375 8.6304864883422851563 8.3288822174072265625 8.1968097686767578125 8.1272954940795898438 7.9290928840637207031 7.4519371986389160156 7.1554427146911621094 7.0753931999206542969 7.1957483291625976563 7.3129811286926269531 6.3059124946594238281 7.2629084587097167969 7.3220839500427246094 7.4650464057922363281 7.8255167007446289063 8.2210397720336914063 8.5207796096801757813 8.8871593475341796875 9.26807403564453125 9.7568883895874023438 10.479028701782226563 11.043917655944824219 11.476621627807617188 12.291592597961425781 12.930208206176757813 13.154990196228027344 13.260691642761230469 13.451379776000976563 13.914137840270996094 14.266867637634277344 14.519054412841796875 14.554404258728027344 14.517948150634765625 14.903544425964355469 16.09603118896484375 18.014087677001953125 19.3647918701171875 20.37482452392578125 20.982149124145507813 -9999 -9999 -9999 -9999 -9999 -9999
 22.505292892456054688 22.415605545043945313 22.189767837524414063 21.79828643798828125 21.442049026489257813 21.270206451416015625 21.077913284301757813 20.877660751342773438 20.416433334350585938 19.361326217651367188 18.312440872192382813 17.316768646240234375 16.67584228515625 16.484493255615234375 16.661481857299804688 17.4467315673828125 18.708299636840820313 19.817148208618164063 19.992828369140625 19.081029891967773438 17.156595230102539063 17.727535247802734375 17.862798690795898438 18.241619110107421875 19.17194366455078125 20.341093063354492188 21.340463638305664063 21.950841903686523438 22.214841842651367188 22.108198165893554688 21.562366485595703125 20.681301116943359375 20.267328262329101563 19.995975494384765625 19.7173004150390625 19.463003158569335938 19.2152557373046875 18.658351898193359375 17.617055892944335938 16.731710433959960938 16.186712265014648438 15.964647293090820313 15.756831169128417969 13.676027297973632813 16.277879714965820313 17.312810897827148438 18.464685440063476563 19.153642654418945313 19.632976531982421875 19.970533370971679688 19.991533279418945313 19.719102859497070313 19.313104629516601563 18.9437713623046875 18.711917877197265625 18.57598114013671875 18.623828887939453125 18.729040145874023438 18.604143142700195313 18.333395004272460938 17.3611907958984375 15.347564697265625 13.334452629089355469 12.319062232971191406 11.926310539245605469 10.841958045959472656 11.999165534973144531 12.339600563049316406 12.507437705993652344 12.654459953308105469 12.926320075988769531 13.251551628112792969 13.4800567626953125 13.514458656311035156 13.00054168701171875 12.294468879699707031 11.836475372314453125 11.601202964782714844 11.201507568359375 10.896572113037109375 11.144417762756347656 11.525926589965820313 12.03710174560546875 12.437775611877441406 12.810612678527832031 12.930399894714355469 12.745931625366210938 12.119348526000976563 11.178464889526367188 10.017225265502929688 9.252681732177734375 8.7423839569091796875 8.452281951904296875 8.3215503692626953125 8.2331666946411132813 8.037227630615234375 7.5740103721618652344 7.2762446403503417969 7.2581262588500976563 7.4393706321716308594 7.5105657577514648438 7.3856172561645507813 6.3171687126159667969 7.4791026115417480469 7.7190070152282714844 8.1327829360961914063 8.3398685455322265625 8.4628629684448242188 8.8129396438598632813 9.3049364089965820313 9.8862657546997070313 10.735306739807128906 11.515667915344238281 12.114719390869140625 13.066180229187011719 13.572427749633789063 13.707075119018554688 13.870682716369628906 14.250643730163574219 14.81720733642578125 15.32239532470703125 15.732484817504882813 15.705968856811523438 15.319856643676757813 15.363458633422851563 16.143550872802734375 17.29187774658203125 18.585784912109375 20.187541961669921875 21.150007247924804688 21.527372360229492188 21.710092544555664063 -9999 -9999 -9999 -9999
 22.618829727172851563 22.551715850830078125 22.293317794799804688 21.811351776123046875 21.271505355834960938 20.994937896728515625 20.688678741455078125 20.317962646484375 19.796319961547851563 18.96759796142578125 18.017465591430664063 17.119741439819335938 16.55995941162109375 16.674495697021484375 17.074445724487304688 18.066356658935546875 19.386724472045898438 20.394367218017578125 20.346971511840820313 19.332612991333007813 17.325719833374023438 17.853624343872070313 17.97655487060546875 18.361019134521484375 19.264188766479492188 20.398443222045898438 21.609827041625976563 22.267465591430664063 22.430988311767578125 22.2704925537109375 21.729867935180664063 20.991754531860351563 20.68775177001953125 20.572099685668945313 20.454076766967773438 20.154500961303710938 19.608638763427734375 18.770853042602539063 17.785491943359375 16.929887771606445313 16.347795486450195313 16.10655975341796875 15.910736083984375 14.949349403381347656 16.636819839477539063 18.030216217041015625 19.4300994873046875 20.166433334350585938 20.288198471069335938 20.097650527954101563 19.9563751220703125 19.738676071166992188 19.401689529418945313 19.12319183349609375 18.981670379638671875 18.993570327758789063 19.11949920654296875 18.986146926879882813 18.276968002319335938 17.592803955078125 16.248521804809570313 14.428698539733886719 12.880688667297363281 12.090045928955078125 10.842259407043457031 10.842159271240234375 12.265680313110351563 12.607628822326660156 12.842569351196289063 13.206768989562988281 13.67230224609375 14.234254837036132813 14.734557151794433594 14.701893806457519531 13.9136810302734375 12.819675445556640625 12.23303985595703125 11.962514877319335938 11.470548629760742188 11.116567611694335938 11.41416168212890625 11.976207733154296875 12.709277153015136719 13.312000274658203125 13.732305526733398438 13.809988021850585938 13.532021522521972656 12.634297370910644531 11.398441314697265625 10.171854972839355469 9.4002847671508789063 8.8804721832275390625 8.5416612625122070313 8.3520050048828125 8.1600141525268554688 7.9937176704406738281 7.7299642562866210938 7.5432329177856445313 7.4951276779174804688 7.6530766487121582031 7.6749701499938964844 7.4278750419616699219 7.3567061424255371094 6.6113257408142089844 7.8465542793273925781 8.1333913803100585938 8.2561006546020507813 8.43601226806640625 8.8736896514892578125 9.4530344009399414063 10.077475547790527344 10.915709495544433594 11.699268341064453125 12.445797920227050781 13.742144584655761719 14.347478866577148438 14.416331291198730469 14.530025482177734375 15.0286407470703125 15.726716041564941406 16.401277542114257813 16.876544952392578125 16.865736007690429688 16.470674514770507813 16.3147125244140625 16.574901580810546875 17.026979446411132813 18.0373382568359375 19.829952239990234375 21.13604736328125 21.635606765747070313 21.760961532592773438 -9999 -9999 -9999 -9999
 -9999 22.6215667724609375 22.39170074462890625 21.886240005493164063 21.310224533081054688 21.018680572509765625 20.665027618408203125 20.185253143310546875 19.625057220458984375 18.898530960083007813 18.10340118408203125 17.2412109375 16.66844940185546875 16.988267898559570313 17.519266128540039063 18.525852203369140625 19.667072296142578125 20.488468170166015625 20.346466064453125 19.396190643310546875 17.499574661254882813 18.14190673828125 18.332990646362304688 18.651508331298828125 19.29077911376953125 20.184495925903320313 21.455230712890625 22.392333984375 22.5616912841796875 22.313472747802734375 21.823270797729492188 21.362613677978515625 21.210165023803710938 21.1293792724609375 20.887462615966796875 20.395196914672851563 19.581546783447265625 18.671667098999023438 17.783552169799804688 16.943918228149414063 16.268491744995117188 16.027864456176757813 15.988427162170410156 15.003629684448242188 17.202480316162109375 19.020872116088867188 20.5085601806640625 21.15120697021484375 20.94886016845703125 20.37763214111328125 20.098602294921875 19.84514617919921875 19.551858901977539063 19.403804779052734375 19.2014923095703125 19.068849563598632813 19.168615341186523438 18.785169601440429688 17.6405029296875 16.703897476196289063 15.238797187805175781 13.728519439697265625 12.500226974487304688 11.831533432006835938 10.842473030090332031 12.276757240295410156 12.594849586486816406 12.825367927551269531 13.046111106872558594 13.56481170654296875 14.248217582702636719 14.93268585205078125 15.685036659240722656 15.637052536010742188 14.72515869140625 13.374691009521484375 12.581037521362304688 12.250487327575683594 11.754487991333007813 11.443688392639160156 11.865940093994140625 12.657751083374023438 13.557559013366699219 14.160306930541992188 14.417516708374023438 14.424799919128417969 14.153361320495605469 13.122943878173828125 11.511122703552246094 10.261689186096191406 9.4858150482177734375 8.9537153244018554688 8.6104736328125 8.4188938140869140625 8.1832942962646484375 8.03330230712890625 7.8667659759521484375 7.7385039329528808594 7.7115612030029296875 7.8330264091491699219 7.8437609672546386719 7.6048450469970703125 7.4879517555236816406 6.7031583786010742188 7.8680620193481445313 8.0723934173583984375 8.3511257171630859375 8.6650114059448242188 9.123775482177734375 9.6324682235717773438 10.2046356201171875 10.972588539123535156 11.695766448974609375 12.523618698120117188 14.138226509094238281 15.047307968139648438 15.186563491821289063 15.223049163818359375 15.640629768371582031 16.504545211791992188 17.534168243408203125 18.28255462646484375 18.36998748779296875 18.067232131958007813 17.837329864501953125 17.42185211181640625 17.160356521606445313 17.804468154907226563 19.353092193603515625 20.840051651000976563 21.558492660522460938 21.719150543212890625 -9999 -9999 -9999 -9999
 -9999 -9999 22.439161300659179688 21.952444076538085938 21.47425079345703125 21.214879989624023438 20.814798355102539063 20.298299789428710938 19.7078399658203125 18.9700469970703125 18.2244720458984375 17.3082427978515625 16.949054718017578125 17.433374404907226563 17.974023818969726563 18.929592132568359375 19.97605133056640625 20.552692413330078125 20.271448135375976563 19.457721710205078125 17.758935928344726563 18.53202056884765625 18.727453231811523438 18.953363418579101563 19.375135421752929688 20.01407623291015625 21.073436737060546875 22.346723556518554688 22.643995285034179688 22.296602249145507813 21.907444000244140625 21.670232772827148438 21.603994369506835938 21.444871902465820313 20.9282989501953125 20.205999374389648438 19.165151596069335938 18.338642120361328125 17.579868316650390625 16.72837066650390625 16.086675643920898438 15.924406051635742188 15.035396575927734375 15.051920890808105469 17.567966461181640625 19.524164199829101563 21.031892776489257813 21.612501144409179688 21.300067901611328125 20.643571853637695313 20.35323333740234375 20.121377944946289063 19.7965850830078125 19.551483154296875 19.105560302734375 18.553691864013671875 18.406726837158203125 17.77425384521484375 16.375665664672851563 15.517765998840332031 14.443944931030273438 13.153342247009277344 12.241654396057128906 10.998135566711425781 10.943353652954101563 12.882976531982421875 13.0854034423828125 13.124996185302734375 13.258130073547363281 13.747311592102050781 14.540914535522460938 15.602212905883789063 16.742258071899414063 16.452505111694335938 15.220872879028320313 13.966405868530273438 13.023334503173828125 12.550191879272460938 12.016994476318359375 11.825089454650878906 12.415669441223144531 13.567483901977539063 14.600228309631347656 14.953183174133300781 14.900970458984375 14.728487968444824219 14.339060783386230469 13.126509666442871094 11.461017608642578125 10.247195243835449219 9.4792346954345703125 8.9748659133911132813 8.6567277908325195313 8.4470224380493164063 8.2328157424926757813 8.1170225143432617188 7.9899845123291015625 7.9032359123229980469 7.9880261421203613281 8.1201887130737304688 8.0986919403076171875 7.8271579742431640625 7.7072238922119140625 6.7599387168884277344 7.9138507843017578125 8.1507425308227539063 8.479587554931640625 8.8405017852783203125 9.2789859771728515625 9.787815093994140625 10.351077079772949219 11.103686332702636719 11.695942878723144531 12.476556777954101563 14.199059486389160156 15.402108192443847656 15.834026336669921875 15.907640457153320313 16.145544052124023438 16.957981109619140625 18.1556549072265625 18.92977142333984375 19.109640121459960938 19.127511978149414063 19.145338058471679688 18.735807418823242188 18.083726882934570313 18.179117202758789063 19.139951705932617188 20.470914840698242188 21.232635498046875 21.416046142578125 -9999 -9999 -9999 -9999
 -9999 -9999 22.538225173950195313 22.121377944946289063 21.557817459106445313 21.280027389526367188 20.96728515625 20.465990066528320313 19.836080551147460938 19.135599136352539063 18.179355621337890625 17.072668075561523438 17.000257492065429688 17.679840087890625 18.291284561157226563 19.358366012573242188 20.39746856689453125 20.7664794921875 20.328464508056640625 19.573476791381835938 17.970712661743164063 18.867504119873046875 19.262908935546875 19.510168075561523438 19.775081634521484375 20.226129531860351563 21.001644134521484375 22.178495407104492188 22.747739791870117188 22.531085968017578125 22.234426498413085938 22.136079788208007813 22.0494842529296875 21.669834136962890625 20.888458251953125 19.941583633422851563 18.858791351318359375 17.93218994140625 17.072378158569335938 16.527118682861328125 16.210435867309570313 15.171428680419921875 16.376661300659179688 16.79308319091796875 17.737283706665039063 19.352735519409179688 20.764438629150390625 21.4182891845703125 21.289632797241210938 20.855501174926757813 20.641082763671875 20.438447952270507813 20.119266510009765625 19.665765762329101563 18.997232437133789063 18.095335006713867188 17.418903350830078125 16.645998001098632813 15.425891876220703125 14.690107345581054688 13.770917892456054688 12.7320556640625 12.154827117919921875 11.274587631225585938 12.900445938110351563 13.404918670654296875 13.575121879577636719 13.516789436340332031 13.579740524291992188 13.959813117980957031 14.684062957763671875 15.9753875732421875 17.227939605712890625 16.868608474731445313 15.483614921569824219 14.330084800720214844 13.379171371459960938 12.881937980651855469 12.393515586853027344 12.219124794006347656 12.922520637512207031 14.594973564147949219 15.63116455078125 15.791080474853515625 15.402642250061035156 14.772519111633300781 14.136539459228515625 12.848131179809570313 11.422566413879394531 10.179156303405761719 9.4028367996215820313 8.9503374099731445313 8.65602874755859375 8.4445333480834960938 8.2485485076904296875 8.1510295867919921875 8.0771551132202148438 8.1124258041381835938 8.3115863800048828125 8.440746307373046875 8.2608823776245117188 7.9708476066589355469 7.8443078994750976563 6.7687883377075195313 7.8525357246398925781 8.178279876708984375 8.5275316238403320313 8.9715585708618164063 9.4489183425903320313 10.020090103149414063 10.672360420227050781 11.367739677429199219 11.780157089233398438 12.4095611572265625 13.996168136596679688 15.458560943603515625 16.41031646728515625 16.721090316772460938 16.865825653076171875 17.43492889404296875 18.529417037963867188 19.164495468139648438 19.356218338012695313 19.638689041137695313 20.0494232177734375 20.054676055908203125 19.676980972290039063 19.427957534790039063 19.62589263916015625 20.434694290161132813 21.124355316162109375 21.326158523559570313 -9999 -9999 -9999 -9999
 -9999 -9999 22.647718429565429688 22.345903396606445313 21.958654403686523438 21.776336669921875 21.554430007934570313 21.047037124633789063 20.240400314331054688 19.28734588623046875 17.910863876342773438 16.977399826049804688 17.200246810913085938 17.980358123779296875 18.68874359130859375 19.92662811279296875 20.900156021118164063 21.076364517211914063 20.563262939453125 19.839982986450195313 18.195064544677734375 19.231782913208007813 20.01619720458984375 20.403461456298828125 20.639331817626953125 21.034536361694335938 21.483442306518554688 22.14252471923828125 22.734388351440429688 22.788564682006835938 22.64589691162109375 22.526975631713867188 22.384088516235351563 21.952047348022460938 21.096647262573242188 19.9016265869140625 18.77402496337890625 17.640010833740234375 16.763978958129882813 16.5732269287109375 16.782449722290039063 15.9086151123046875 17.091085433959960938 17.478765487670898438 18.006086349487304688 18.967317581176757813 20.062707901000976563 20.73439788818359375 21.030416488647460938 21.016086578369140625 20.9200592041015625 20.75580596923828125 20.477170944213867188 19.849500656127929688 19.219583511352539063 18.503698348999023438 17.61454010009765625 16.58962249755859375 15.099559783935546875 14.270818710327148438 13.441921234130859375 12.698967933654785156 11.520416259765625 12.903539657592773438 13.478575706481933594 13.884319305419921875 14.147640228271484375 14.286045074462890625 14.355385780334472656 14.50304412841796875 14.921353340148925781 15.914357185363769531 16.884450912475585938 16.674480438232421875 15.636031150817871094 14.529706001281738281 13.600372314453125 13.192095756530761719 12.904404640197753906 12.899371147155761719 13.747445106506347656 15.630978584289550781 16.615139007568359375 16.438421249389648438 15.604474067687988281 14.524447441101074219 13.707013130187988281 12.4088134765625 11.157497406005859375 10.043038368225097656 9.366619110107421875 8.9482049942016601563 8.6993665695190429688 8.5472822189331054688 8.4498300552368164063 8.3976192474365234375 8.3289594650268554688 8.343074798583984375 8.4656667709350585938 8.3839807510375976563 8.156665802001953125 7.9868063926696777344 7.9403867721557617188 6.8563323020935058594 7.9383883476257324219 8.2995691299438476563 8.700809478759765625 9.2229928970336914063 9.78389739990234375 10.3227386474609375 10.969761848449707031 11.605608940124511719 12.018480300903320313 12.565056800842285156 13.913107872009277344 15.368043899536132813 16.665121078491210938 17.4548797607421875 17.852720260620117188 18.273740768432617188 18.989383697509765625 19.400728225708007813 19.574213027954101563 19.830270767211914063 20.269678115844726563 20.461511611938476563 20.32501220703125 20.117025375366210938 -9999 -9999 -9999 -9999 -9999 -9999 -9999 -9999
 -9999 -9999 22.871845245361328125 22.617181777954101563 22.149366378784179688 21.893306732177734375 21.582881927490234375 20.9535064697265625 19.9756622314453125 18.947208404541015625 17.868438720703125 17.3213653564453125 17.579103469848632813 18.420728683471679688 19.258771896362304688 20.708324432373046875 21.63263702392578125 21.494344711303710938 21.010225296020507813 20.329441070556640625 18.468679428100585938 19.511320114135742188 20.479272842407226563 21.085718154907226563 21.671689987182617188 22.128322601318359375 22.397809982299804688 22.580045700073242188 22.726224899291992188 22.86016845703125 22.89525604248046875 22.791528701782226563 22.5839996337890625 22.031949996948242188 21.106431961059570313 19.834554672241210938 18.7108917236328125 17.442346572875976563 16.747623443603515625 16.835569381713867188 16.036998748779296875 15.956891059875488281 17.879831314086914063 18.209272384643554688 18.425838470458984375 18.78240203857421875 19.361417770385742188 20.15221405029296875 20.874002456665039063 21.202152252197265625 21.271257400512695313 21.271272659301757813 21.069032669067382813 20.46424102783203125 19.85101318359375 19.333425521850585938 18.59012603759765625 17.330244064331054688 15.161091804504394531 14.043202400207519531 13.285589218139648438 12.891508102416992188 11.838348388671875 13.594669342041015625 14.167966842651367188 14.577794075012207031 15.000939369201660156 15.52356719970703125 15.688372611999511719 15.544571876525878906 15.362488746643066406 15.727941513061523438 16.352445602416992188 16.36269378662109375 15.831171035766601563 14.896472930908203125 13.847889900207519531 13.444402694702148438 13.37660980224609375 13.674791336059570313 14.597832679748535156 16.00199127197265625 16.72721099853515625 16.231081008911132813 15.023122787475585938 13.856495857238769531 13.047942161560058594 11.767464637756347656 10.662538528442382813 9.84874725341796875 9.3281068801879882813 8.9674081802368164063 8.7531995773315429688 8.6448793411254882813 8.6589756011962890625 8.6809377670288085938 8.6214895248413085938 7.4625349044799804688 7.3713235855102539063 8.0768527984619140625 7.8642125129699707031 7.9205989837646484375 8.093967437744140625 7.0380449295043945313 8.22711181640625 8.5295152664184570313 8.9226446151733398438 9.4034519195556640625 9.9078588485717773438 10.420637130737304688 11.18822479248046875 11.880457878112792969 12.365465164184570313 12.835676193237304688 13.867802619934082031 15.1248321533203125 16.60797119140625 18.002218246459960938 18.93128204345703125 19.35626220703125 19.550067901611328125 19.64231109619140625 19.837831497192382813 20.077856063842773438 -9999 -9999 -9999 -9999 -9999 -9999 -9999 -9999 -9999 -9999 -9999 -9999
 -9999 -9999 22.946058273315429688 22.662893295288085938 22.102331161499023438 21.784822463989257813 21.399560928344726563 20.689212799072265625 19.66104888916015625 18.710018157958984375 17.960910797119140625 17.592851638793945313 17.802799224853515625 18.637601852416992188 19.50923919677734375 21.027898788452148438 21.986785888671875 21.779666900634765625 21.240030288696289063 20.562173843383789063 18.690160751342773438 19.705743789672851563 20.639631271362304688 21.289585113525390625 22.0072784423828125 22.508955001831054688 22.779827117919921875 22.84096527099609375 22.801198959350585938 22.889499664306640625 22.902862548828125 22.699968338012695313 22.451173782348632813 21.878160476684570313 20.91411590576171875 19.681077957153320313 18.5630340576171875 17.370538711547851563 15.88893890380859375 16.122117996215820313 17.680126190185546875 18.000661849975585938 18.345834732055664063 18.650205612182617188 18.772571563720703125 18.910890579223632813 19.212652206420898438 19.974903106689453125 20.794525146484375 21.214630126953125 21.324615478515625 21.349283218383789063 21.199497222900390625 20.7376556396484375 20.145544052124023438 19.6549530029296875 19.005641937255859375 17.670709609985351563 15.274680137634277344 14.071142196655273438 13.340501785278320313 12.018059730529785156 13.199061393737792969 13.837111473083496094 14.470660209655761719 14.9492950439453125 15.45749664306640625 16.125926971435546875 16.321903228759765625 16.060186386108398438 15.650390625 15.751252174377441406 16.202671051025390625 16.3450164794921875 16.0144195556640625 15.150389671325683594 14.062891006469726563 13.649331092834472656 13.647655487060546875 14.095890045166015625 15.0442657470703125 16.099359512329101563 16.499319076538085938 15.774468421936035156 14.480159759521484375 13.378060340881347656 12.622631072998046875 11.407227516174316406 10.414258003234863281 9.741943359375 9.3272256851196289063 9.029827117919921875 8.83991241455078125 8.7644338607788085938 8.85552215576171875 8.8941526412963867188 8.7898578643798828125 8.561420440673828125 8.3806629180908203125 7.0644388198852539063 6.8467183113098144531 6.5673546791076660156 7.1193032264709472656 8.2744626998901367188 8.3804836273193359375 8.6538190841674804688 9.035717010498046875 9.5024461746215820313 10.004662513732910156 10.544470787048339844 11.357896804809570313 12.106113433837890625 12.60748291015625 13.026027679443359375 13.906481742858886719 15.020297050476074219 16.487569808959960938 18.180963516235351563 19.444091796875 19.963277816772460938 19.994901657104492188 19.969686508178710938 20.062406539916992188 20.229686737060546875 -9999 -9999 -9999 -9999 -9999 -9999 -9999 -9999 -9999 -9999 -9999 -9999
 -9999 22.996847152709960938 22.89920806884765625 22.542798995971679688 21.970651626586914063 21.6337127685546875 21.152647018432617188 20.34624481201171875 19.376268386840820313 18.65139007568359375 18.2197113037109375 17.960958480834960938 18.118900299072265625 18.848768234252929688 19.622663497924804688 21.0164642333984375 22.064928054809570313 22.048208236694335938 21.37088775634765625 20.66339111328125 18.99413299560546875 20.03076171875 20.81430816650390625 21.3599090576171875 21.985136032104492188 22.551050186157226563 22.913326263427734375 23.02452850341796875 23.017553329467773438 22.998418807983398438 22.756917953491210938 22.16779327392578125 21.830793380737304688 21.3411102294921875 20.376482009887695313 19.301433563232421875 18.21427154541015625 17.32492828369140625 16.18863677978515625 17.63582611083984375 18.218601226806640625 18.575273513793945313 19.038204193115234375 19.387165069580078125 19.50527191162109375 19.49469757080078125 19.513082504272460938 19.947139739990234375 20.628107070922851563 21.039537429809570313 21.101165771484375 20.970951080322265625 20.782030105590820313 20.51093292236328125 19.956485748291015625 19.416326522827148438 18.79438018798828125 17.48212432861328125 15.266497611999511719 14.208492279052734375 13.593720436096191406 12.018442153930664063 13.315725326538085938 13.927814483642578125 14.67223358154296875 15.336897850036621094 15.970916748046875 16.589630126953125 16.753236770629882813 16.512538909912109375 16.115203857421875 16.087158203125 16.339559555053710938 16.637025833129882813 16.431667327880859375 15.597252845764160156 14.635577201843261719 14.233858108520507813 14.137846946716308594 14.616220474243164063 15.543474197387695313 16.168760299682617188 15.91689300537109375 14.834389686584472656 13.642487525939941406 12.738201141357421875 12.099164962768554688 11.059695243835449219 10.229517936706542969 9.643207550048828125 9.3529338836669921875 9.184413909912109375 9.0664339065551757813 9.0137271881103515625 9.1326770782470703125 9.1274271011352539063 8.9303379058837890625 8.7410459518432617188 8.5479869842529296875 8.2876834869384765625 7.9908213615417480469 7.9339957237243652344 7.1316776275634765625 8.3908052444458007813 8.5553131103515625 8.82256317138671875 9.1982021331787109375 9.6811580657958984375 10.264738082885742188 10.880309104919433594 11.671151161193847656 12.505322456359863281 13.04671478271484375 13.416337966918945313 14.135842323303222656 15.002010345458984375 16.204006195068359375 17.97010040283203125 19.66257476806640625 20.437255859375 20.429086685180664063 20.343561172485351563 20.335260391235351563 -9999 -9999 -9999 -9999 -9999 -9999 -9999 -9999 -9999 -9999 -9999 -9999 -9999
 -9999 23.054964065551757813 22.889373779296875 22.516178131103515625 21.938495635986328125 21.564159393310546875 20.946430206298828125 20.033525466918945313 19.304012298583984375 18.91225433349609375 18.659364700317382813 18.442548751831054688 18.532817840576171875 19.1166534423828125 19.686147689819335938 20.743923187255859375 21.801881790161132813 21.980058670043945313 21.359296798706054688 19.25397491455078125 19.193996429443359375 20.258342742919921875 21.017608642578125 21.509281158447265625 22.062395095825195313 22.685659408569335938 23.071231842041015625 23.210279464721679688 23.211675643920898438 23.140981674194335938 22.704126358032226563 21.84998321533203125 21.369052886962890625 20.759954452514648438 19.827426910400390625 18.90006256103515625 17.9323272705078125 17.299730300903320313 16.361753463745117188 18.031253814697265625 18.7827606201171875 19.24648284912109375 19.888902664184570313 20.39688873291015625 20.559434890747070313 20.342998504638671875 20.080087661743164063 20.092132568359375 20.546173095703125 20.893747329711914063 20.884412765502929688 20.550794601440429688 20.098232269287109375 19.63958740234375 18.990457534790039063 18.348188400268554688 17.68042755126953125 16.510583877563476563 14.800144195556640625 14.034631729125976563 13.65665435791015625 12.018854141235351563 13.553497314453125 14.063908576965332031 14.945475578308105469 15.930295944213867188 16.767171859741210938 17.229122161865234375 17.364501953125 17.279811859130859375 16.874094009399414063 16.662750244140625 16.749135971069335938 17.109395980834960938 17.039340972900390625 16.314645767211914063 15.547365188598632813 15.154040336608886719 14.840870857238769531 15.12073516845703125 15.797008514404296875 15.785001754760742188 14.940382957458496094 13.705043792724609375 12.689785003662109375 12.05487060546875 11.586198806762695313 10.750107765197753906 10.06305694580078125 9.59444427490234375 9.3397722244262695313 9.251605987548828125 9.2416124343872070313 9.1387586593627929688 9.0797376632690429688 9.0200529098510742188 8.89324188232421875 8.80570220947265625 8.6117124557495117188 8.2613134384155273438 7.8390355110168457031 6.8394246101379394531 6.8394246101379394531 8.6420202255249023438 8.8630132675170898438 9.1489057540893554688 9.5287570953369140625 9.9951238632202148438 10.539540290832519531 11.153248786926269531 12.035692214965820313 13.146552085876464844 13.92328643798828125 14.262452125549316406 14.642793655395507813 15.072974205017089844 15.842702865600585938 17.167901992797851563 18.967493057250976563 20.041210174560546875 20.409450531005859375 -9999 -9999 -9999 -9999 -9999 -9999 -9999 -9999 -9999 -9999 -9999 -9999 -9999 -9999 -9999
 -9999 23.258274078369140625 23.001325607299804688 22.550977706909179688 21.885522842407226563 21.442979812622070313 20.747255325317382813 19.905923843383789063 19.484378814697265625 19.387767791748046875 19.230657577514648438 18.919078826904296875 18.715383529663085938 19.258691787719726563 19.78874969482421875 20.694528579711914063 21.743322372436523438 21.957780838012695313 19.34145355224609375 19.287754058837890625 20.321088790893554688 20.471874237060546875 21.316411972045898438 21.825929641723632813 22.319576263427734375 22.849725723266601563 23.253973007202148438 23.38050079345703125 23.297519683837890625 23.15216827392578125 22.73749542236328125 22.086803436279296875 21.546339035034179688 20.639444351196289063 19.705413818359375 18.692531585693359375 16.729511260986328125 16.390468597412109375 17.593166351318359375 18.269489288330078125 19.130550384521484375 19.725698471069335938 20.5639190673828125 21.1657257080078125 21.34393310546875 21.131284713745117188 20.793474197387695313 20.60167694091796875 20.783452987670898438 20.865512847900390625 20.706235885620117188 20.217061996459960938 19.608312606811523438 18.891529083251953125 18.157228469848632813 17.351024627685546875 16.640783309936523438 15.680644989013671875 14.54925537109375 14.021348953247070313 13.656006813049316406 13.521370887756347656 12.019372940063476563 14.161463737487792969 15.234096527099609375 16.70540618896484375 17.665868759155273438 18.01676177978515625 18.110326766967773438 18.035814285278320313 17.606695175170898438 17.332742691040039063 17.417791366577148438 17.63278961181640625 17.459016799926757813 16.71762847900390625 15.957521438598632813 15.587208747863769531 15.301546096801757813 15.440957069396972656 15.655020713806152344 15.0590972900390625 13.996587753295898438 12.867734909057617188 11.989439010620117188 11.415396690368652344 11.042400360107421875 10.435595512390136719 9.93975067138671875 9.654384613037109375 9.426662445068359375 9.2178258895874023438 9.220966339111328125 9.1507244110107421875 9.0077142715454101563 8.951824188232421875 8.9278926849365234375 8.8657312393188476563 8.668193817138671875 8.2592487335205078125 7.8829088211059570313 7.0555410385131835938 8.557872772216796875 8.9476938247680664063 9.1854658126831054688 9.575321197509765625 10.008386611938476563 10.5291748046875 11.035268783569335938 11.633556365966796875 12.686221122741699219 14.176680564880371094 15.142719268798828125 15.461691856384277344 15.615103721618652344 15.578415870666503906 15.823676109313964844 16.566335678100585938 17.522195816040039063 18.522737503051757813 19.779195785522460938 20.4663543701171875 20.61626434326171875 -9999 -9999 -9999 -9999 -9999 -9999 -9999 -9999 -9999 -9999 -9999 -9999 -9999
 -9999 23.40122222900390625 23.155933380126953125 22.530269622802734375 21.58203887939453125 21.014860153198242188 20.39836883544921875 19.950786590576171875 19.82709503173828125 19.950838088989257813 19.915685653686523438 19.4147796630859375 18.773122787475585938 19.37408447265625 20.071592330932617188 21.072015762329101563 19.482629776000976563 19.42893218994140625 21.882226943969726563 21.133220672607421875 20.616100311279296875 20.868724822998046875 21.732892990112304688 22.225919723510742188 22.663347244262695313 23.096282958984375 23.53183746337890625 23.603534698486328125 23.345193862915039063 23.027515411376953125 22.56360626220703125 22.010498046875 21.510316848754882813 20.573610305786132813 19.581050872802734375 18.552555084228515625 16.791570663452148438 17.566802978515625 17.799076080322265625 18.478128433227539063 19.464397430419921875 20.093339920043945313 20.893970489501953125 21.531351089477539063 21.745885848999023438 21.607374191284179688 21.308000564575195313 21.113788604736328125 21.057371139526367188 20.881122589111328125 20.681806564331054688 20.273447036743164063 19.66063690185546875 18.89304351806640625 18.137857437133789063 17.319559097290039063 16.626897811889648438 15.863366127014160156 14.954779624938964844 14.485413551330566406 14.036224365234375 13.708477020263671875 12.019762992858886719 14.164625167846679688 15.379852294921875 17.517581939697265625 18.599073410034179688 18.682386398315429688 18.643070220947265625 18.51663970947265625 18.146684646606445313 17.96492767333984375 18.037370681762695313 18.044198989868164063 17.594371795654296875 16.685934066772460938 15.979876518249511719 15.691938400268554688 15.56067657470703125 15.788738250732421875 15.577651023864746094 14.398622512817382813 13.312221527099609375 12.384425163269042969 11.581043243408203125 10.94893646240234375 10.637484550476074219 10.296170234680175781 10.005292892456054688 9.8296194076538085938 9.641071319580078125 9.3361949920654296875 9.2598981857299804688 9.19487762451171875 9.0628261566162109375 9.0290613174438476563 9.048770904541015625 9.0126085281372070313 8.8912439346313476563 8.5393171310424804688 8.2166614532470703125 7.3580999374389648438 8.8980970382690429688 9.2940340042114257813 9.5562906265258789063 10.016149520874023438 10.431810379028320313 10.971193313598632813 11.693729400634765625 12.514974594116210938 13.69513702392578125 15.012785911560058594 15.774667739868164063 16.222116470336914063 16.810819625854492188 16.757984161376953125 16.537893295288085938 16.668666839599609375 16.883359909057617188 17.573282241821289063 19.05545806884765625 19.812295913696289063 19.949831008911132813 -9999 -9999 -9999 -9999 -9999 -9999 -9999 -9999 -9999 -9999 -9999 -9999 -9999
 -9999 23.454193115234375 23.22675323486328125 22.307809829711914063 20.766557693481445313 20.045156478881835938 19.842802047729492188 19.984373092651367188 20.265264511108398438 20.543300628662109375 20.549457550048828125 20.083951950073242188 19.388011932373046875 19.738958358764648438 20.345020294189453125 19.570108413696289063 22.157962799072265625 22.31786346435546875 21.99761962890625 21.331325531005859375 20.874620437622070313 21.10984039306640625 21.990358352661132813 22.501523971557617188 22.946176528930664063 23.295648574829101563 23.499746322631835938 23.478759765625 23.206777572631835938 22.823068618774414063 22.216831207275390625 21.572065353393554688 21.121501922607421875 20.348911285400390625 19.391407012939453125 18.42348480224609375 17.925901412963867188 16.86071014404296875 18.071563720703125 18.678167343139648438 19.651662826538085938 20.246995925903320313 21.000200271606445313 21.736742019653320313 22.022678375244140625 21.881402969360351563 21.620649337768554688 21.424213409423828125 21.28334808349609375 21.044231414794921875 20.889194488525390625 20.626478195190429688 20.083436965942382813 19.382970809936523438 18.802373886108398438 18.251298904418945313 17.527078628540039063 16.694288253784179688 15.660492897033691406 15.125172615051269531 14.577023506164550781 14.015135765075683594 12.020105361938476563 14.332566261291503906 15.770628929138183594 18.267450332641601563 19.358394622802734375 19.28128814697265625 19.176044464111328125 19.061511993408203125 18.809345245361328125 18.673797607421875 18.543653488159179688 18.277370452880859375 17.603929519653320313 16.644710540771484375 16.004547119140625 15.717967033386230469 15.558157920837402344 15.767486572265625 15.197339057922363281 13.700457572937011719 12.734477996826171875 12.045727729797363281 11.297928810119628906 10.749422073364257813 10.552714347839355469 10.406344413757324219 10.195013999938964844 9.93419647216796875 9.7012891769409179688 9.4585018157958984375 9.3157062530517578125 9.237888336181640625 9.1846027374267578125 9.1757841110229492188 9.1967897415161132813 9.1886606216430664063 9.0378818511962890625 8.7373113632202148438 8.52324676513671875 7.6179895401000976563 9.126651763916015625 9.5714902877807617188 9.87812042236328125 10.389448165893554688 10.810627937316894531 11.348345756530761719 12.172550201416015625 13.072435379028320313 14.188686370849609375 15.466928482055664063 16.191619873046875 16.81058502197265625 17.935955047607421875 18.242605209350585938 17.871768951416015625 17.338312149047851563 17.03839874267578125 17.446962356567382813 18.549039840698242188 19.074140548706054688 19.200246810913085938 -9999 -9999 -9999 -9999 -9999 -9999 -9999 -9999 -9999 -9999 -9999 -9999 -9999
 -9999 23.472949981689453125 23.247156143188476563 22.273092269897460938 20.65348052978515625 19.92652130126953125 19.986347198486328125 20.466638565063476563 21.089359283447265625 21.505582809448242188 21.39650726318359375 20.7382354736328125 20.021236419677734375 19.134782791137695313 19.645505905151367188 21.663654327392578125 22.3304595947265625 22.34987640380859375 21.992898941040039063 21.430208206176757813 21.120157241821289063 21.426031112670898438 22.410673141479492188 22.934234619140625 23.284734725952148438 23.474750518798828125 23.359216690063476563 23.102626800537109375 22.828119277954101563 22.473949432373046875 21.729261398315429688 20.8433685302734375 20.374216079711914063 19.776231765747070313 18.9893951416015625 18.370492935180664063 16.303112030029296875 15.995395660400390625 18.497308731079101563 18.93035888671875 19.689561843872070313 20.244274139404296875 21.04172515869140625 21.757852554321289063 22.1066741943359375 22.053812026977539063 21.835691452026367188 21.6259307861328125 21.495573043823242188 21.317651748657226563 21.198490142822265625 20.979906082153320313 20.5027923583984375 19.900363922119140625 19.506931304931640625 19.017055511474609375 18.260919570922851563 17.379762649536132813 16.351385116577148438 15.70986175537109375 14.8872222900390625 14.25356292724609375 13.02024078369140625 14.797165870666503906 16.443719863891601563 18.66748809814453125 19.685178756713867188 19.769741058349609375 19.7144012451171875 19.603155136108398438 19.408197402954101563 19.165685653686523438 18.843677520751953125 18.323240280151367188 17.495923995971679688 16.701513290405273438 16.140539169311523438 15.757734298706054688 15.288614273071289063 15.037045478820800781 14.075441360473632813 12.88777923583984375 12.2024078369140625 11.692183494567871094 11.179068565368652344 10.817442893981933594 10.668081283569335938 10.479590415954589844 10.193857192993164063 9.9138164520263671875 9.670742034912109375 9.47440338134765625 9.3379316329956054688 9.2990980148315429688 9.269336700439453125 9.2704181671142578125 9.2981996536254882813 9.2488050460815429688 9.063510894775390625 8.8333721160888671875 8.7371797561645507813 7.8728399276733398438 9.3935632705688476563 9.8677043914794921875 10.194366455078125 10.732893943786621094 11.191180229187011719 11.720116615295410156 12.447558403015136719 13.272775650024414063 14.213507652282714844 15.572037696838378906 16.596393585205078125 17.399005889892578125 18.75981903076171875 19.323284149169921875 18.976701736450195313 18.14740753173828125 17.586132049560546875 17.781744003295898438 18.511690139770507813 18.862323760986328125 18.967756271362304688 -9999 -9999 -9999 -9999 -9999 -9999 -9999 -9999 -9999 -9999 -9999 -9999 -9999
 -9999 -9999 23.2099151611328125 22.432796478271484375 21.416090011596679688 21.075422286987304688 21.292001724243164063 21.716310501098632813 22.082384109497070313 22.085214614868164063 21.692089080810546875 19.83855438232421875 19.171932220458984375 20.407451629638671875 20.935329437255859375 21.916860580444335938 22.56546783447265625 22.537769317626953125 22.246442794799804688 21.705827713012695313 21.460363388061523438 21.92279815673828125 22.88622283935546875 23.2736358642578125 23.3868865966796875 23.499364852905273438 23.281444549560546875 22.816516876220703125 22.430675506591796875 21.991456985473632813 21.155454635620117188 20.1726837158203125 19.6610107421875 19.093677520751953125 18.597383499145507813 16.828748703002929688 18.732456207275390625 18.891561508178710938 19.020910263061523438 19.221513748168945313 19.592489242553710938 20.004785537719726563 20.78372955322265625 21.445146560668945313 21.845516204833984375 21.954929351806640625 21.849071502685546875 21.749782562255859375 21.692182540893554688 21.53874969482421875 21.4074554443359375 21.1665191650390625 20.76445770263671875 20.304731369018554688 19.957715988159179688 19.319623947143554688 18.309480667114257813 17.328197479248046875 16.3368072509765625 15.718211174011230469 14.965101242065429688 13.02024078369140625 13.02024078369140625 15.222017288208007813 16.48137664794921875 18.16638946533203125 19.113176345825195313 19.515407562255859375 19.60910797119140625 19.600482940673828125 19.589704513549804688 19.376935958862304688 19.004245758056640625 18.364749908447265625 17.504285812377929688 16.748382568359375 16.1990814208984375 15.664981842041015625 14.681496620178222656 13.877541542053222656 12.922922134399414063 12.320047378540039063 11.949183464050292969 11.545175552368164063 11.213250160217285156 10.982079505920410156 10.812684059143066406 10.485811233520507813 10.133144378662109375 9.8704471588134765625 9.6480770111083984375 9.5118770599365234375 9.4262018203735351563 9.416820526123046875 9.4101934432983398438 9.3924093246459960938 9.3465728759765625 9.249584197998046875 9.0625429153442382813 8.8709573745727539063 8.9203500747680664063 7.9072508811950683594 10.023354530334472656 10.610527992248535156 10.993971824645996094 11.588226318359375 12.018430709838867188 12.302242279052734375 12.755370140075683594 13.411198616027832031 14.286555290222167969 15.807117462158203125 17.292003631591796875 18.231336593627929688 19.491735458374023438 20.0847320556640625 19.89144134521484375 19.355981826782226563 18.84564971923828125 18.428033828735351563 18.681537628173828125 18.920444488525390625 18.979888916015625 -9999 -9999 -9999 -9999 -9999 -9999 -9999 -9999 -9999 -9999 -9999 -9999 -9999
 -9999 -9999 23.215444564819335938 22.625898361206054688 22.0238494873046875 21.916936874389648438 22.143039703369140625 22.344770431518554688 22.443094253540039063 22.236654281616210938 21.692224502563476563 20.909452438354492188 19.292779922485351563 20.816308975219726563 21.373279571533203125 22.240087509155273438 22.995578765869140625 22.995452880859375 22.632581710815429688 22.00110626220703125 21.81374359130859375 22.383113861083984375 23.0735931396484375 23.251680374145507813 23.24472808837890625 23.388727188110351563 23.170316696166992188 22.649000167846679688 22.040647506713867188 21.493000030517578125 20.628164291381835938 19.551225662231445313 19.041528701782226563 17.721960067749023438 17.354387283325195313 19.125017166137695313 19.433124542236328125 19.501211166381835938 19.478092193603515625 19.484821319580078125 19.478931427001953125 19.646053314208984375 20.218402862548828125 20.882116317749023438 21.36046600341796875 21.587057113647460938 21.693155288696289063 21.765756607055664063 21.78922271728515625 21.696348190307617188 21.57326507568359375 21.332071304321289063 21.012586593627929688 20.561710357666015625 20.083637237548828125 19.291082382202148438 18.05991363525390625 16.906171798706054688 15.812993049621582031 15.259302139282226563 14.854421615600585938 13.02024078369140625 15.286710739135742188 15.754076004028320313 16.295589447021484375 17.040998458862304688 17.801744461059570313 18.452239990234375 18.72472381591796875 19.031358718872070313 19.447374343872070313 19.382104873657226563 18.9058074951171875 18.15305328369140625 17.36029052734375 16.650136947631835938 15.873963356018066406 15.122600555419921875 13.790377616882324219 12.831648826599121094 12.376042366027832031 12.232091903686523438 12.025633811950683594 11.58438873291015625 11.0987701416015625 10.823060989379882813 10.695460319519042969 10.464913368225097656 10.150417327880859375 9.90412139892578125 9.76021575927734375 9.6525659561157226563 9.581859588623046875 9.589229583740234375 9.4969768524169921875 9.4267683029174804688 9.34970855712890625 9.2285757064819335938 9.0598287582397460938 8.9102783203125 8.0887823104858398438 9.8145627975463867188 10.857110023498535156 11.742140769958496094 12.247252464294433594 12.936174392700195313 13.323563575744628906 13.126283645629882813 13.096729278564453125 13.549622535705566406 14.545831680297851563 16.363651275634765625 18.134836196899414063 19.124727249145507813 20.2717132568359375 20.83916473388671875 20.91783905029296875 20.89313507080078125 20.74085235595703125 -9999 -9999 -9999 -9999 -9999 -9999 -9999 -9999 -9999 -9999 -9999 -9999 -9999 -9999 -9999 -9999 -9999
 -9999 -9999 23.368574142456054688 22.99225616455078125 22.391271591186523438 22.23639678955078125 22.406347274780273438 22.4787445068359375 22.496307373046875 22.255075454711914063 21.641666412353515625 20.903440475463867188 19.470491409301757813 19.953512191772460938 21.724138259887695313 22.50173187255859375 23.240594863891601563 23.248659133911132813 22.8552398681640625 22.197286605834960938 22.026697158813476563 22.592123031616210938 23.119182586669921875 23.20540618896484375 23.155378341674804688 23.278532028198242188 23.075864791870117188 22.572721481323242188 21.869840621948242188 21.203517913818359375 20.301729202270507813 19.238922119140625 18.791368484497070313 17.652585983276367188 17.742305755615234375 19.498706817626953125 19.795703887939453125 19.774654388427734375 19.654779434204101563 19.590440750122070313 19.466218948364257813 19.541229248046875 20.004323959350585938 20.622205734252929688 21.09250640869140625 21.366472244262695313 21.59111785888671875 21.731594085693359375 21.780275344848632813 21.71640777587890625 21.608114242553710938 21.376506805419921875 21.071233749389648438 20.636442184448242188 20.138273239135742188 19.319837570190429688 18.003374099731445313 16.75421142578125 15.542089462280273438 15.014338493347167969 13.02024078369140625 15.145163536071777344 15.741247177124023438 16.183277130126953125 16.47284698486328125 16.945919036865234375 17.5531158447265625 18.116943359375 18.400342941284179688 18.82094573974609375 19.338329315185546875 19.2777862548828125 18.728174209594726563 17.946765899658203125 17.170476913452148438 16.451526641845703125 15.54709625244140625 14.737235069274902344 13.404449462890625 12.519227027893066406 12.258180618286132813 12.156056404113769531 11.973051071166992188 11.596764564514160156 11.116922378540039063 10.827318191528320313 10.701367378234863281 10.509324073791503906 10.269208908081054688 10.04120635986328125 9.8823986053466796875 9.7618665695190429688 9.6964702606201171875 9.6764898300170898438 9.5368013381958007813 9.4539937973022460938 9.3865203857421875 9.269756317138671875 9.1085329055786132813 8.9991321563720703125 8.2457103729248046875 10.036864280700683594 11.304957389831542969 12.419459342956542969 13.019708633422851563 13.743551254272460938 14.011852264404296875 13.585195541381835938 13.342721939086914063 13.682676315307617188 14.703258514404296875 16.506574630737304688 18.249835968017578125 19.298976898193359375 20.59740447998046875 21.219015121459960938 21.42760467529296875 21.63774871826171875 21.746076583862304688 -9999 -9999 -9999 -9999 -9999 -9999 -9999 -9999 -9999 -9999 -9999 -9999 -9999 -9999 -9999 -9999 -9999
 -9999 -9999 -9999 23.215768814086914063 22.763994216918945313 22.617450714111328125 22.67787933349609375 22.618677139282226563 22.559286117553710938 22.222934722900390625 21.475126266479492188 20.729795455932617188 20.562314987182617188 20.356405258178710938 22.10654449462890625 22.773721694946289063 23.3768157958984375 23.415262222290039063 23.07906341552734375 22.490453720092773438 22.296543121337890625 22.7359161376953125 23.167324066162109375 23.24048614501953125 23.16201019287109375 23.1658172607421875 22.975696563720703125 22.504253387451171875 21.779211044311523438 20.877752304077148438 19.9131622314453125 19.012941360473632813 18.7136383056640625 17.774433135986328125 17.758539199829101563 19.96916961669921875 20.178209304809570313 20.017086029052734375 19.788665771484375 19.683347702026367188 19.585988998413085938 19.658636093139648438 20.031633377075195313 20.471582412719726563 20.82044219970703125 21.127857208251953125 21.446140289306640625 21.63748931884765625 21.71031951904296875 21.661912918090820313 21.593294143676757813 21.433254241943359375 21.141469955444335938 20.75540924072265625 20.288469314575195313 19.469884872436523438 17.998247146606445313 16.679521560668945313 15.390834808349609375 14.919594764709472656 13.02024078369140625 15.535940170288085938 16.41053009033203125 16.941152572631835938 17.263439178466796875 17.957698822021484375 18.414203643798828125 18.636602401733398438 18.7892608642578125 19.101409912109375 19.370759963989257813 19.080595016479492188 18.364015579223632813 17.578222274780273438 16.740892410278320313 15.948500633239746094 15.068821907043457031 14.356078147888183594 13.265818595886230469 12.564029693603515625 12.191558837890625 11.859430313110351563 11.698030471801757813 11.574467658996582031 11.338716506958007813 11.128780364990234375 10.965237617492675781 10.712443351745605469 10.570631027221679688 10.356312751770019531 10.083077430725097656 9.9222898483276367188 9.84046173095703125 9.7099590301513671875 9.5549592971801757813 9.5045261383056640625 9.4925298690795898438 9.4079713821411132813 9.2236480712890625 9.1505327224731445313 8.261959075927734375 10.18561553955078125 11.676474571228027344 13.14420318603515625 13.902054786682128906 14.645037651062011719 14.716982841491699219 14.213830947875976563 13.882695198059082031 14.082263946533203125 14.922686576843261719 16.261976242065429688 17.6843109130859375 18.863443374633789063 20.671031951904296875 21.509939193725585938 21.767993927001953125 22.028078079223632813 -9999 -9999 -9999 -9999 -9999 -9999 -9999 -9999 -9999 -9999 -9999 -9999 -9999 -9999 -9999 -9999 -9999 -9999
 -9999 -9999 -9999 23.352853775024414063 23.126529693603515625 23.020526885986328125 22.939104080200195313 22.773817062377929688 22.622617721557617188 22.167093276977539063 21.307405471801757813 20.595813751220703125 20.551746368408203125 21.398044586181640625 20.999256134033203125 22.687808990478515625 23.298997879028320313 23.454275131225585938 23.164171218872070313 22.698650360107421875 22.535076141357421875 22.822784423828125 23.166845321655273438 23.306491851806640625 23.351499557495117188 23.241708755493164063 22.991413116455078125 22.45851898193359375 21.724473953247070313 20.72216796875 19.763227462768554688 18.9968719482421875 17.805063247680664063 17.78461456298828125 20.03173065185546875 20.677045822143554688 20.653821945190429688 20.26807403564453125 19.972110748291015625 19.869449615478515625 19.870992660522460938 19.957767486572265625 20.193897247314453125 20.41461181640625 20.617036819458007813 20.896976470947265625 21.231782913208007813 21.5251312255859375 21.716314315795898438 21.736669540405273438 21.749919891357421875 21.783662796020507813 21.645471572875976563 21.257806777954101563 20.656114578247070313 19.600553512573242188 17.7386016845703125 16.400960922241210938 15.342081069946289063 14.02024078369140625 15.313420295715332031 16.13826751708984375 17.187774658203125 17.899465560913085938 18.316143035888671875 18.971258163452148438 19.409849166870117188 19.568300247192382813 19.640682220458984375 19.769021987915039063 19.770372390747070313 19.171861648559570313 18.076768875122070313 17.097705841064453125 16.13483428955078125 15.337058067321777344 14.717408180236816406 14.182611465454101563 13.2618560791015625 12.604702949523925781 12.060969352722167969 11.679271697998046875 11.617609024047851563 11.606003761291503906 11.471589088439941406 11.355791091918945313 11.221123695373535156 10.957615852355957031 10.782979965209960938 10.521928787231445313 10.226334571838378906 10.02884674072265625 9.8582372665405273438 9.6480531692504882813 9.4817132949829101563 9.471355438232421875 9.5474100112915039063 9.4857616424560546875 9.287105560302734375 9.2281274795532226563 8.299152374267578125 10.200781822204589844 11.766880035400390625 13.517652511596679688 14.423452377319335938 15.281314849853515625 15.546189308166503906 15.212670326232910156 14.835230827331542969 14.847779273986816406 15.347063064575195313 16.162395477294921875 17.200403213500976563 18.339435577392578125 20.357973098754882813 21.44654083251953125 21.839075088500976563 22.1153411865234375 -9999 -9999 -9999 -9999 -9999 -9999 -9999 -9999 -9999 -9999 -9999 -9999 -9999 -9999 -9999 -9999 -9999 -9999
 -9999 -9999 -9999 23.470441818237304688 23.430189132690429688 23.369703292846679688 23.200441360473632813 22.972486495971679688 22.720256805419921875 22.152292251586914063 21.264966964721679688 20.607732772827148438 20.515316009521484375 21.028470993041992188 21.563306808471679688 22.426309585571289063 23.08460235595703125 23.323947906494140625 23.133703231811523438 22.812498092651367188 22.798883438110351563 23.063707351684570313 23.157245635986328125 23.285921096801757813 23.502315521240234375 23.292623519897460938 22.942998886108398438 22.327663421630859375 21.58489227294921875 20.691251754760742188 19.73583984375 19.085544586181640625 18.029996871948242188 18.021806716918945313 20.722455978393554688 21.283107757568359375 21.026105880737304688 20.449665069580078125 20.157100677490234375 20.160421371459960938 20.276563644409179688 20.395587921142578125 20.56249237060546875 20.598857879638671875 20.6595001220703125 20.838705062866210938 21.092815399169921875 21.447935104370117188 21.78937530517578125 21.902204513549804688 21.951700210571289063 22.068340301513671875 22.108966827392578125 21.870777130126953125 21.123262405395507813 19.55701446533203125 17.443861007690429688 16.185192108154296875 15.407681465148925781 14.241382598876953125 15.768613815307617188 16.938350677490234375 18.009185791015625 18.829181671142578125 19.340831756591796875 19.759487152099609375 20.059270858764648438 20.048187255859375 20.033336639404296875 20.087171554565429688 19.959283828735351563 19.27800750732421875 17.995426177978515625 16.742795944213867188 15.646716117858886719 14.826564788818359375 14.433009147644042969 14.065133094787597656 13.250422477722167969 12.554036140441894531 12.069169998168945313 11.837388992309570313 11.763484001159667969 11.684161186218261719 11.529790878295898438 11.423299789428710938 11.292407035827636719 11.009745597839355469 10.763369560241699219 10.430806159973144531 10.101944923400878906 9.7956113815307617188 9.6730861663818359375 9.5701856613159179688 9.4667539596557617188 9.4792327880859375 9.56970977783203125 9.5072755813598632813 9.2873067855834960938 9.1044330596923828125 8.3033466339111328125 10.137288093566894531 11.66345977783203125 13.253017425537109375 14.204759597778320313 15.39179229736328125 16.10236358642578125 16.200193405151367188 15.909086227416992188 15.683030128479003906 15.985478401184082031 16.71775054931640625 17.473981857299804688 18.280055999755859375 19.850666046142578125 20.982509613037109375 21.575267791748046875 21.854600906372070313 -9999 -9999 -9999 -9999 -9999 -9999 -9999 -9999 -9999 -9999 -9999 -9999 -9999 -9999 -9999 -9999 -9999 -9999
 -9999 -9999 -9999 -9999 23.6626434326171875 23.625698089599609375 23.480501174926757813 23.258657455444335938 22.834970474243164063 22.143796920776367188 21.3147430419921875 20.769563674926757813 20.614833831787109375 20.750951766967773438 21.140478134155273438 21.996883392333984375 22.578245162963867188 22.969625473022460938 23.117137908935546875 22.992053985595703125 23.030855178833007813 23.221227645874023438 23.20462799072265625 23.276851654052734375 23.448705673217773438 23.17950439453125 22.717283248901367188 22.130544662475585938 21.370363235473632813 20.563802719116210938 19.76519012451171875 18.305974960327148438 18.1795806884765625 20.272552490234375 21.23578643798828125 21.672166824340820313 21.276943206787109375 20.693584442138671875 20.483987808227539063 20.5709381103515625 20.758878707885742188 20.8583831787109375 20.897504806518554688 20.826383590698242188 20.823198318481445313 20.901182174682617188 21.079143524169921875 21.439474105834960938 21.770170211791992188 21.860059738159179688 21.82306671142578125 21.76245880126953125 21.780719757080078125 21.48772430419921875 20.37581634521484375 18.462980270385742188 16.831600189208984375 15.94899749755859375 14.317891120910644531 15.745330810546875 16.39621734619140625 17.793521881103515625 18.843372344970703125 19.64022064208984375 20.19989776611328125 20.4417877197265625 20.436788558959960938 20.109567642211914063 19.9111328125 19.70265960693359375 19.261692047119140625 18.485200881958007813 17.441667556762695313 16.21393585205078125 15.056933403015136719 14.265778541564941406 13.928594589233398438 13.665563583374023438 13.081809043884277344 12.55649566650390625 12.226536750793457031 12.081294059753417969 11.997659683227539063 11.800881385803222656 11.558053016662597656 11.411204338073730469 11.271283149719238281 10.943673133850097656 10.56691741943359375 10.187856674194335938 9.7320127487182617188 9.2373476028442382813 9.4087810516357421875 9.507694244384765625 9.4632320404052734375 9.4960908889770507813 9.5867605209350585938 9.5058841705322265625 9.2279481887817382813 7.8293256759643554688 7.9013652801513671875 9.8856067657470703125 11.294861793518066406 12.527857780456542969 13.50849151611328125 15.141103744506835938 16.256776809692382813 16.826480865478515625 16.779142379760742188 16.484409332275390625 16.812915802001953125 17.706426620483398438 18.329498291015625 18.83753204345703125 19.912403106689453125 20.881711959838867188 21.418157577514648438 21.675802230834960938 -9999 -9999 -9999 -9999 -9999 -9999 -9999 -9999 -9999 -9999 -9999 -9999 -9999 -9999 -9999 -9999 -9999 -9999
 -9999 -9999 -9999 -9999 23.905294418334960938 23.85324859619140625 23.711339950561523438 23.473806381225585938 23.012407302856445313 22.412504196166992188 21.715009689331054688 21.18283843994140625 20.928068161010742188 20.99924468994140625 21.27791595458984375 21.853811264038085938 22.255117416381835938 22.69953155517578125 23.081605911254882813 23.22640228271484375 23.255994796752929688 23.273120880126953125 23.24732208251953125 23.262298583984375 23.263238906860351563 22.988208770751953125 22.532922744750976563 21.981319427490234375 21.230535507202148438 20.370607376098632813 19.75980377197265625 19.569288253784179688 18.578680038452148438 20.853704452514648438 21.817102432250976563 22.027309417724609375 21.47008514404296875 20.954095840454101563 20.9434661865234375 21.11061859130859375 21.241155624389648438 21.261932373046875 21.177793502807617188 21.054515838623046875 21.0316162109375 21.058755874633789063 21.238088607788085938 21.596527099609375 21.832326889038085938 21.648113250732421875 21.406377792358398438 21.011806488037109375 20.599786758422851563 20.056741714477539063 18.993551254272460938 17.420282363891601563 16.061191558837890625 14.391995429992675781 14.368255615234375 16.475561141967773438 17.0947418212890625 18.324308395385742188 19.484592437744140625 20.428037643432617188 20.917629241943359375 20.845094680786132813 20.478002548217773438 19.882944107055664063 19.508787155151367188 18.991041183471679688 18.301710128784179688 17.55722808837890625 16.677825927734375 15.623720169067382813 14.440169334411621094 13.706109046936035156 13.439188003540039063 13.272484779357910156 12.938813209533691406 12.635448455810546875 12.382688522338867188 12.249972343444824219 12.118092536926269531 11.812570571899414063 11.545163154602050781 11.415904998779296875 11.284898757934570313 10.881808280944824219 10.32857513427734375 10.023909568786621094 9.6369380950927734375 9.1421976089477539063 9.4017486572265625 9.54659271240234375 9.5204744338989257813 9.5329685211181640625 9.4941606521606445313 9.2514867782592773438 7.9385900497436523438 8.9049224853515625 8.8138399124145507813 8.1039886474609375 10.783471107482910156 11.92047119140625 12.842789649963378906 14.531141281127929688 15.864286422729492188 16.72451019287109375 17.195745468139648438 17.226984024047851563 17.5782928466796875 18.510929107666015625 19.129171371459960938 19.50685882568359375 20.254665374755859375 20.992422103881835938 21.4169158935546875 21.6454010009765625 21.852659225463867188 -9999 -9999 -9999 -9999 -9999 -9999 -9999 -9999 -9999 -9999 -9999 -9999 -9999 -9999 -9999 -9999 -9999
 -9999 -9999 -9999 -9999 -9999 -9999 23.72165679931640625 23.500932693481445313 23.13532257080078125 22.645404815673828125 21.921478271484375 21.419683456420898438 21.386640548706054688 21.821527481079101563 22.114139556884765625 22.289829254150390625 22.282026290893554688 22.588232040405273438 22.984083175659179688 23.260396957397460938 23.393911361694335938 23.353832244873046875 23.282705307006835938 23.258846282958984375 23.18181610107421875 22.903512954711914063 22.487804412841796875 21.924251556396484375 21.1520538330078125 20.2943115234375 19.765331268310546875 18.839540481567382813 20.292146682739257813 21.373073577880859375 22.20856475830078125 22.216760635375976563 21.686840057373046875 21.296054840087890625 21.389774322509765625 21.6575927734375 21.680917739868164063 21.62294769287109375 21.50457000732421875 21.356098175048828125 21.306375503540039063 21.328317642211914063 21.55660247802734375 21.951753616333007813 22.088359832763671875 21.494913101196289063 21.008520126342773438 20.366535186767578125 19.65592193603515625 18.9793701171875 18.0015106201171875 16.578304290771484375 15.475234031677246094 14.4582366943359375 16.618207931518554688 17.133180618286132813 17.602691650390625 18.528444290161132813 19.68813323974609375 20.74829864501953125 21.153322219848632813 20.896860122680664063 20.389310836791992188 19.759286880493164063 19.34815216064453125 18.687334060668945313 17.82137298583984375 16.962862014770507813 15.941799163818359375 14.990472793579101563 14.061162948608398438 13.427210807800292969 13.182904243469238281 13.060426712036132813 12.835854530334472656 12.618015289306640625 12.403925895690917969 12.273556709289550781 12.093907356262207031 11.761445999145507813 11.494147300720214844 11.328824043273925781 11.187006950378417969 10.819500923156738281 10.337388038635253906 10.153036117553710938 10.056309700012207031 9.788417816162109375 9.743915557861328125 9.6354246139526367188 9.5519418716430664063 9.5256891250610351563 9.3423976898193359375 8.9706249237060546875 7.9649624824523925781 9.1384735107421875 8.9753198623657226563 8.126247406005859375 10.204686164855957031 11.355543136596679688 12.193169593811035156 13.645028114318847656 14.983429908752441406 16.042493820190429688 16.95843505859375 17.479051589965820313 18.119417190551757813 19.0621337890625 19.6175994873046875 19.849666595458984375 20.201938629150390625 20.596658706665039063 20.997777938842773438 21.406694412231445313 21.746303558349609375 -9999 -9999 -9999 -9999 -9999 -9999 -9999 -9999 -9999 -9999 -9999 -9999 -9999 -9999 -9999 -9999 -9999
 -9999 -9999 -9999 -9999 -9999 -9999 23.6268157958984375 23.53659820556640625 23.21728515625 22.624982833862304688 21.897800445556640625 21.527059555053710938 21.807676315307617188 22.553287506103515625 22.883539199829101563 22.86797332763671875 22.609790802001953125 22.683162689208984375 22.978115081787109375 23.256561279296875 23.492908477783203125 23.50467681884765625 23.38043975830078125 23.304698944091796875 23.182344436645507813 22.917234420776367188 22.505449295043945313 21.89171600341796875 21.008878707885742188 20.220315933227539063 19.94078826904296875 19.045572280883789063 21.051080703735351563 21.984668731689453125 22.536222457885742188 22.44715118408203125 22.01923370361328125 21.730976104736328125 21.8229827880859375 22.05367279052734375 21.940835952758789063 21.880016326904296875 21.894603729248046875 21.788507461547851563 21.778568267822265625 21.821901321411132813 22.00275421142578125 22.390277862548828125 22.480037689208984375 21.79798126220703125 21.24420166015625 20.41158294677734375 19.270936965942382813 18.1699676513671875 17.178445816040039063 16.219900131225585938 14.84235382080078125 16.630268096923828125 17.818195343017578125 18.277025222778320313 18.503255844116210938 18.994115829467773438 19.885204315185546875 20.758579254150390625 20.927080154418945313 20.351972579956054688 19.557516098022460938 18.851863861083984375 18.481441497802734375 17.978849411010742188 17.259990692138671875 16.302021026611328125 15.271211624145507813 14.487606048583984375 13.7987518310546875 13.310705184936523438 13.05847930908203125 12.933088302612304688 12.753866195678710938 12.562700271606445313 12.258912086486816406 11.867196083068847656 11.548663139343261719 11.38961029052734375 11.389317512512207031 11.281014442443847656 11.143834114074707031 10.877368927001953125 10.552999496459960938 10.328763961791992188 10.237856864929199219 10.087962150573730469 9.9416341781616210938 9.7490444183349609375 9.6159524917602539063 9.5511713027954101563 9.356414794921875 8.088397979736328125 9.3267545700073242188 9.4201793670654296875 9.2064638137817382813 9.1923017501831054688 9.83477783203125 10.613077163696289063 11.304281234741210938 12.605188369750976563 13.7571563720703125 14.768771171569824219 15.943958282470703125 16.862092971801757813 17.81103515625 18.779022216796875 19.118991851806640625 19.13510894775390625 19.1044769287109375 19.206830978393554688 19.85907745361328125 20.945425033569335938 21.574453353881835938 21.98531341552734375 -9999 -9999 -9999 -9999 -9999 -9999 -9999 -9999 -9999 -9999 -9999 -9999 -9999 -9999 -9999 -9999
 -9999 -9999 -9999 -9999 -9999 -9999 -9999 23.563501358032226563 23.290798187255859375 22.638416290283203125 22.0205078125 21.776279449462890625 22.201366424560546875 23.1278076171875 23.4708404541015625 23.366031646728515625 23.08661651611328125 22.967111587524414063 23.117034912109375 23.307004928588867188 23.52462005615234375 23.625879287719726563 23.487239837646484375 23.391523361206054688 23.274341583251953125 22.997732162475585938 22.5269317626953125 21.7505950927734375 20.809446334838867188 20.119781494140625 19.19145965576171875 21.390199661254882813 22.157114028930664063 22.798055648803710938 23.097700119018554688 22.915721893310546875 22.443952560424804688 22.112560272216796875 22.165004730224609375 22.33921051025390625 22.20876312255859375 22.21112823486328125 22.375276565551757813 22.343278884887695313 22.445539474487304688 22.550336837768554688 22.563920974731445313 22.819976806640625 23.117919921875 22.778690338134765625 22.241430282592773438 20.91814422607421875 18.891269683837890625 17.306079864501953125 16.59882354736328125 16.279989242553710938 15.171660423278808594 18.204664230346679688 19.60559844970703125 20.012516021728515625 19.974672317504882813 20.062994003295898438 20.504098892211914063 20.967714309692382813 20.701364517211914063 19.629293441772460938 18.29047393798828125 16.963029861450195313 16.4450531005859375 16.258853912353515625 16.03934478759765625 15.378026008605957031 14.606386184692382813 14.136096000671386719 13.607975959777832031 13.242540359497070313 13.013399124145507813 12.878665924072265625 12.706368446350097656 12.508251190185546875 11.949153900146484375 11.022442817687988281 10.540957450866699219 10.671874046325683594 11.178243637084960938 11.238249778747558594 11.113088607788085938 10.873358726501464844 10.528614044189453125 10.188273429870605469 10.047765731811523438 10.011727333068847656 9.9973630905151367188 9.867847442626953125 9.6827478408813476563 9.5790843963623046875 8.5082998275756835938 9.477710723876953125 9.700347900390625 9.6467761993408203125 9.3657379150390625 9.2730035781860351563 9.5632047653198242188 9.9796838760375976563 10.535740852355957031 11.706186294555664063 12.566228866577148438 13.310294151306152344 14.612076759338378906 15.703184127807617188 16.52478790283203125 17.217691421508789063 17.253955841064453125 17.1081390380859375 16.981348037719726563 17.412393569946289063 18.96121978759765625 20.719799041748046875 21.516141891479492188 21.951000213623046875 22.196468353271484375 -9999 -9999 -9999 -9999 -9999 -9999 -9999 -9999 -9999 -9999 -9999 -9999 -9999 -9999 -9999
 -9999 -9999 -9999 -9999 -9999 -9999 -9999 23.5996856689453125 23.340373992919921875 22.709325790405273438 22.149168014526367188 21.942659378051757813 22.3842010498046875 23.346065521240234375 23.695049285888671875 23.587625503540039063 23.337017059326171875 23.162858963012695313 23.224884033203125 23.36676025390625 23.54677581787109375 23.660516738891601563 23.557649612426757813 23.476062774658203125 23.3683929443359375 23.120977401733398438 22.655935287475585938 21.800104141235351563 20.861829757690429688 20.1750640869140625 20.353200912475585938 21.798505783081054688 22.626390457153320313 23.168939590454101563 23.38326263427734375 23.132694244384765625 22.629037857055664063 22.2905426025390625 22.305257797241210938 22.433942794799804688 22.344753265380859375 22.3917694091796875 22.610692977905273438 22.602081298828125 22.677120208740234375 22.794897079467773438 22.800588607788085938 23.0300140380859375 23.36771392822265625 23.142293930053710938 22.58420562744140625 20.956949234008789063 18.498277664184570313 16.896886825561523438 16.481172561645507813 15.565046310424804688 17.337911605834960938 18.922582626342773438 20.394891738891601563 20.797704696655273438 20.665437698364257813 20.618391036987304688 20.898481369018554688 21.194761276245117188 20.755807876586914063 19.51039886474609375 17.884304046630859375 16.236158370971679688 15.628412246704101563 15.499105453491210938 15.392691612243652344 14.920079231262207031 14.308351516723632813 13.969818115234375 13.547119140625 13.236191749572753906 13.019498825073242188 12.884716033935546875 12.716272354125976563 12.539820671081542969 12.003907203674316406 10.079217910766601563 9.597415924072265625 9.5586395263671875 9.4834947586059570313 10.895804405212402344 10.787862777709960938 10.660351753234863281 10.396367073059082031 10.015364646911621094 9.8055295944213867188 8.6252241134643554688 8.6153717041015625 8.5977659225463867188 8.5818948745727539063 8.562465667724609375 9.619693756103515625 9.6961050033569335938 9.858188629150390625 9.7637310028076171875 9.475666046142578125 9.3290195465087890625 9.5222454071044921875 9.8283624649047851563 10.295309066772460938 11.296346664428710938 11.972308158874511719 12.568602561950683594 13.693096160888671875 14.619565963745117188 15.290630340576171875 15.984374046325683594 16.08170318603515625 15.998183250427246094 16.012170791625976563 16.758787155151367188 18.839305877685546875 20.779560089111328125 21.5908355712890625 21.961103439331054688 22.135290145874023438 -9999 -9999 -9999 -9999 -9999 -9999 -9999 -9999 -9999 -9999 -9999 -9999 -9999 -9999 -9999
 -9999 -9999 -9999 -9999 -9999 -9999 -9999 23.778337478637695313 23.525295257568359375 22.943431854248046875 22.391027450561523438 22.156757354736328125 22.545993804931640625 23.463817596435546875 23.826320648193359375 23.7830963134765625 23.575914382934570313 23.426122665405273438 23.411449432373046875 23.49872589111328125 23.628713607788085938 23.690309524536132813 23.650335311889648438 23.607883453369140625 23.52860260009765625 23.365442276000976563 22.946592330932617188 22.0473480224609375 21.092885971069335938 20.37366485595703125 20.578046798706054688 21.9820098876953125 22.786123275756835938 23.341276168823242188 23.541818618774414063 23.237665176391601563 22.767284393310546875 22.481630325317382813 22.434429168701171875 22.506494522094726563 22.467449188232421875 22.539220809936523438 22.781332015991210938 22.795444488525390625 22.693807601928710938 22.70746612548828125 22.71929931640625 22.876417160034179688 23.046630859375 22.735155105590820313 22.077951431274414063 20.213956832885742188 17.768711090087890625 16.667551040649414063 15.741044998168945313 17.291883468627929688 18.142902374267578125 19.524663925170898438 20.882730484008789063 21.276927947998046875 21.146566390991210938 21.065357208251953125 21.3599395751953125 21.596401214599609375 21.138355255126953125 19.888097763061523438 18.052053451538085938 16.28359222412109375 15.631522178649902344 15.357875823974609375 15.052781105041503906 14.636813163757324219 14.131670951843261719 13.81266021728515625 13.529809951782226563 13.263807296752929688 13.05391693115234375 12.95015716552734375 12.857760429382324219 12.794686317443847656 12.563755989074707031 12.110487937927246094 11.727730751037597656 11.325079917907714844 9.4621286392211914063 9.3863658905029296875 9.2663297653198242188 9.2181339263916015625 10.05560302734375 9.7147626876831054688 9.511077880859375 8.63059234619140625 9.8456697463989257813 9.7540483474731445313 9.595874786376953125 9.6209344863891601563 9.8312273025512695313 9.9390850067138671875 10.003063201904296875 9.9472055435180664063 9.7132549285888671875 9.51102447509765625 9.6593570709228515625 9.9191389083862304688 10.263257980346679688 10.942018508911132813 11.371613502502441406 11.820651054382324219 12.429175376892089844 12.915575981140136719 13.466977119445800781 14.384671211242675781 14.865346908569335938 15.084858894348144531 15.519664764404296875 16.5492401123046875 18.884733200073242188 20.8231048583984375 21.6981658935546875 21.966503143310546875 21.897977828979492188 21.819322586059570313 21.877454757690429688 -9999 -9999 -9999 -9999 -9999 -9999 -9999 -9999 -9999 -9999 -9999 -9999 -9999
 -9999 -9999 -9999 -9999 -9999 -9999 -9999 24.07958984375 23.90155792236328125 23.350116729736328125 22.744585037231445313 22.432573318481445313 22.716520309448242188 23.548244476318359375 23.908884048461914063 23.935527801513671875 23.799703598022460938 23.69771575927734375 23.660444259643554688 23.651020050048828125 23.720516204833984375 23.759763717651367188 23.727325439453125 23.720106124877929688 23.715511322021484375 23.5496826171875 23.005252838134765625 21.962160110473632813 20.954265594482421875 20.42937469482421875 20.812227249145507813 22.089319229125976563 22.817464828491210938 23.385133743286132813 23.609790802001953125 23.362890243530273438 22.964542388916015625 22.698688507080078125 22.620019912719726563 22.693849563598632813 22.6248626708984375 22.6627960205078125 22.896968841552734375 22.973003387451171875 22.80381011962890625 22.5734405517578125 22.206142425537109375 21.870655059814453125 21.803075790405273438 21.464725494384765625 20.749721527099609375 18.953275680541992188 17.191022872924804688 15.778194427490234375 17.330961227416992188 18.108697891235351563 19.048414230346679688 20.359272003173828125 21.472797393798828125 21.790996551513671875 21.699245452880859375 21.608579635620117188 21.890222549438476563 21.9879302978515625 21.387418746948242188 20.008226394653320313 18.139375686645507813 16.42771148681640625 15.808852195739746094 15.540863037109375 15.167824745178222656 14.632787704467773438 14.081439971923828125 13.726009368896484375 13.493030548095703125 13.26696014404296875 13.153033256530761719 13.1855010986328125 13.350636482238769531 13.461544036865234375 13.305565834045410156 12.866852760314941406 12.38042449951171875 11.809276580810546875 11.227392196655273438 10.893337249755859375 10.678200721740722656 10.236738204956054688 8.763759613037109375 8.5335645675659179688 8.2840089797973632813 8.7798137664794921875 9.8966646194458007813 9.799427032470703125 9.738513946533203125 9.8359622955322265625 10.097708702087402344 10.2185821533203125 10.234362602233886719 10.199390411376953125 10.003140449523925781 9.7739992141723632813 9.7693109512329101563 9.9305400848388671875 10.193390846252441406 10.674076080322265625 10.902838706970214844 11.20282745361328125 11.652940750122070313 12.110910415649414063 12.642457008361816406 13.3397979736328125 13.870076179504394531 14.294734001159667969 15.087337493896484375 16.140972137451171875 18.142560958862304688 20.150274276733398438 21.340341567993164063 21.74584197998046875 21.546110153198242188 21.491245269775390625 21.684391021728515625 -9999 -9999 -9999 -9999 -9999 -9999 -9999 -9999 -9999 -9999 -9999 -9999 -9999
 -9999 -9999 -9999 -9999 -9999 -9999 -9999 24.157167434692382813 24.024667739868164063 23.6180877685546875 23.002138137817382813 22.665157318115234375 22.857128143310546875 23.470766067504882813 23.785791397094726563 23.955026626586914063 23.970155715942382813 23.875171661376953125 23.782947540283203125 23.73017120361328125 23.733175277709960938 23.806812286376953125 23.883312225341796875 23.917039871215820313 23.904323577880859375 23.672176361083984375 22.887342453002929688 21.551151275634765625 20.720088958740234375 20.568523406982421875 21.122615814208984375 22.2212371826171875 22.85750579833984375 23.433269500732421875 23.667413711547851563 23.477504730224609375 23.111299514770507813 22.8812713623046875 22.836009979248046875 22.858753204345703125 22.772869110107421875 22.790935516357421875 22.969879150390625 23.064237594604492188 22.96276092529296875 22.642351150512695313 21.951467514038085938 21.044231414794921875 20.389240264892578125 19.785081863403320313 19.156064987182617188 17.903736114501953125 16.989965438842773438 15.791820526123046875 18.03502655029296875 18.96631622314453125 19.945499420166015625 20.899271011352539063 21.796804428100585938 22.078805923461914063 22.008852005004882813 21.951290130615234375 22.062410354614257813 21.8596954345703125 20.861951828002929688 19.353427886962890625 17.738292694091796875 16.5034332275390625 16.116266250610351563 15.949286460876464844 15.508295059204101563 14.830264091491699219 14.108516693115234375 13.683371543884277344 13.466998100280761719 13.400484085083007813 13.6025390625 13.874453544616699219 14.348875999450683594 14.57459259033203125 14.234556198120117188 13.458253860473632813 12.734584808349609375 11.997905731201171875 11.429235458374023438 11.144796371459960938 10.955325126647949219 10.548209190368652344 10.101083755493164063 9.8731794357299804688 9.8308172225952148438 9.7731189727783203125 7.8418383598327636719 9.8838529586791992188 9.9892740249633789063 10.089678764343261719 10.259103775024414063 10.372000694274902344 10.452000617980957031 10.413554191589355469 10.195725440979003906 9.9440793991088867188 9.8477735519409179688 9.8586940765380859375 10.022787094116210938 10.415011405944824219 10.646191596984863281 10.948382377624511719 11.475792884826660156 12.073826789855957031 12.640173912048339844 13.161955833435058594 13.652003288269042969 14.106410026550292969 14.950990676879882813 15.855454444885253906 17.281629562377929688 19.1345672607421875 20.556156158447265625 21.291866302490234375 21.4135894775390625 21.44838714599609375 21.6015472412109375 -9999 -9999 -9999 -9999 -9999 -9999 -9999 -9999 -9999 -9999 -9999 -9999 -9999
 -9999 -9999 -9999 -9999 -9999 -9999 -9999 -9999 23.898008346557617188 23.650060653686523438 23.167543411254882813 22.874755859375 23.03564453125 23.490758895874023438 23.75328826904296875 23.968542098999023438 24.030246734619140625 23.962427139282226563 23.846937179565429688 23.77436065673828125 23.803129196166992188 23.934480667114257813 24.020479202270507813 24.027400970458984375 23.929599761962890625 23.551958084106445313 22.567119598388671875 21.130342483520507813 20.589445114135742188 20.831323623657226563 21.645597457885742188 22.700006484985351563 23.206052780151367188 23.581235885620117188 23.728748321533203125 23.559133529663085938 23.242786407470703125 22.994720458984375 23.006223678588867188 23.029642105102539063 22.949094772338867188 22.934591293334960938 23.034488677978515625 23.189336776733398438 23.272100448608398438 23.100419998168945313 22.223501205444335938 20.865945816040039063 19.518072128295898438 18.261693954467773438 17.624538421630859375 17.051479339599609375 15.813177108764648438 17.809495925903320313 18.917499542236328125 19.8012542724609375 20.597326278686523438 21.236049652099609375 21.905460357666015625 22.130556106567382813 22.085691452026367188 21.995595932006835938 21.765890121459960938 21.194000244140625 20.138950347900390625 18.934221267700195313 17.523403167724609375 16.568578720092773438 16.24694061279296875 15.95969390869140625 15.494833946228027344 14.844028472900390625 14.139176368713378906 13.746224403381347656 13.680205345153808594 13.927093505859375 14.434274673461914063 14.843519210815429688 15.433083534240722656 15.62506866455078125 14.956907272338867188 13.868928909301757813 12.953175544738769531 12.091228485107421875 11.448618888854980469 11.129170417785644531 10.99497222900390625 10.743582725524902344 10.331324577331542969 10.012270927429199219 9.8356313705444335938 9.7147436141967773438 7.8869252204895019531 9.9537906646728515625 10.137713432312011719 10.203931808471679688 10.264995574951171875 10.421879768371582031 10.621247291564941406 10.529965400695800781 10.288723945617675781 10.039892196655273438 9.9226131439208984375 9.8976383209228515625 10.030681610107421875 10.39186859130859375 10.644112586975097656 10.918064117431640625 11.396907806396484375 12.19432830810546875 12.985138893127441406 13.626563072204589844 14.186624526977539063 14.568205833435058594 15.174750328063964844 15.859553337097167969 16.841579437255859375 18.2771759033203125 19.64630126953125 20.597774505615234375 21.075895309448242188 21.263904571533203125 21.446712493896484375 -9999 -9999 -9999 -9999 -9999 -9999 -9999 -9999 -9999 -9999 -9999 -9999 -9999
 -9999 -9999 -9999 -9999 -9999 -9999 -9999 -9999 -9999 23.560750961303710938 23.244878768920898438 23.074392318725585938 23.237712860107421875 23.63602447509765625 23.8419952392578125 23.981393814086914063 24.065984725952148438 24.023687362670898438 23.882238388061523438 23.878221511840820313 24.0343170166015625 24.105176925659179688 24.007722854614257813 23.915985107421875 23.702901840209960938 23.1423492431640625 22.100629806518554688 20.96956634521484375 20.666469573974609375 21.210439682006835938 22.376775741577148438 23.387155532836914063 23.738973617553710938 23.881582260131835938 23.873668670654296875 23.677318572998046875 23.43090057373046875 23.255096435546875 23.26654815673828125 23.229372024536132813 23.166757583618164063 23.1559295654296875 23.201381683349609375 23.305036544799804688 23.41748046875 23.330377578735351563 22.518136978149414063 21.1213836669921875 19.283733367919921875 17.408117294311523438 15.840091705322265625 15.834692001342773438 17.508985519409179688 18.510929107666015625 19.56436920166015625 20.431751251220703125 21.141757965087890625 21.721370697021484375 22.2193450927734375 22.367450714111328125 22.277431488037109375 22.002079010009765625 21.574571609497070313 21.055620193481445313 20.379407882690429688 19.546907424926757813 18.014635086059570313 16.540166854858398438 15.984065055847167969 15.640619277954101563 15.212301254272460938 14.701730728149414063 14.261851310729980469 14.030361175537109375 14.158888816833496094 14.607533454895019531 15.113886833190917969 15.506306648254394531 16.079214096069335938 16.117557525634765625 15.325730323791503906 14.218739509582519531 13.036525726318359375 12.0285186767578125 11.422574043273925781 11.122561454772949219 10.978859901428222656 10.721062660217285156 10.334477424621582031 10.001770973205566406 9.8001232147216796875 7.94969940185546875 7.9146704673767089844 10.025837898254394531 10.290802955627441406 10.359990119934082031 10.396584510803222656 10.672280311584472656 11.0065155029296875 10.765691757202148438 10.411024093627929688 10.199489593505859375 10.148260116577148438 10.137798309326171875 10.275506019592285156 10.630655288696289063 10.802234649658203125 10.941704750061035156 11.290126800537109375 12.325289726257324219 13.818368911743164063 14.813342094421386719 15.471383094787597656 15.68267059326171875 15.779049873352050781 16.14910125732421875 16.813884735107421875 17.78417205810546875 18.845239639282226563 19.733362197875976563 20.277246475219726563 20.577777862548828125 20.958221435546875 -9999 -9999 -9999 -9999 -9999 -9999 -9999 -9999 -9999 -9999 -9999 -9999 -9999
 -9999 -9999 -9999 -9999 -9999 -9999 -9999 -9999 -9999 -9999 -9999 -9999 23.418498992919921875 23.780544281005859375 23.94843292236328125 24.033609390258789063 24.125547409057617188 24.099115371704101563 -9999 24.1769561767578125 24.406452178955078125 24.367710113525390625 24.039768218994140625 23.813131332397460938 23.457227706909179688 22.805711746215820313 21.906768798828125 21.196222305297851563 21.03583526611328125 21.702770233154296875 23.014825820922851563 23.907073974609375 24.18779754638671875 24.286794662475585938 24.125219345092773438 23.882740020751953125 23.72791290283203125 23.624254226684570313 23.570535659790039063 23.459394454956054688 23.36484527587890625 23.325412750244140625 23.276136398315429688 23.2421112060546875 23.305643081665039063 23.2089691162109375 22.441942214965820313 21.21187591552734375 19.387432098388671875 17.425687789916992188 15.949932098388671875 15.949932098388671875 18.33434295654296875 19.247438430786132813 19.938650131225585938 20.659542083740234375 21.530130386352539063 22.132463455200195313 22.40424346923828125 22.469552993774414063 22.4051361083984375 22.121791839599609375 21.761014938354492188 21.467687606811523438 21.145254135131835938 20.658990859985351563 19.275167465209960938 16.943483352661132813 15.896441459655761719 15.36270904541015625 14.903347015380859375 14.6654205322265625 14.518589973449707031 14.409555435180664063 14.623235702514648438 15.128444671630859375 15.564456939697265625 15.899741172790527344 16.371089935302734375 16.240665435791015625 15.408295631408691406 14.278537750244140625 13.057349205017089844 12.028997421264648438 11.432268142700195313 11.13240814208984375 10.94585418701171875 10.622344017028808594 10.296819686889648438 9.9948873519897460938 9.783626556396484375 8.0003957748413085938 9.8321504592895507813 10.157884597778320313 10.438225746154785156 10.570026397705078125 10.829146385192871094 11.384036064147949219 11.792341232299804688 11.412770271301269531 10.887416839599609375 10.58827972412109375 10.464392662048339844 10.404652595520019531 10.499749183654785156 10.785521507263183594 10.932147026062011719 11.0235595703125 11.259456634521484375 12.363750457763671875 14.537664413452148438 15.899592399597167969 16.592550277709960938 16.779224395751953125 16.778688430786132813 16.91423797607421875 17.209747314453125 17.806243896484375 18.622926712036132813 19.504302978515625 20.058441162109375 20.309370040893554688 20.615230560302734375 -9999 -9999 -9999 -9999 -9999 -9999 -9999 -9999 -9999 -9999 -9999 -9999 -9999
 -9999 -9999 -9999 -9999 -9999 -9999 -9999 -9999 -9999 -9999 -9999 -9999 -9999 -9999 -9999 -9999 -9999 -9999 -9999 24.613750457763671875 24.783697128295898438 24.686445236206054688 24.221202850341796875 23.893543243408203125 23.360919952392578125 22.511425018310546875 21.716556549072265625 21.318561553955078125 21.479061126708984375 22.483655929565429688 23.787578582763671875 24.42520904541015625 24.600191116333007813 24.66939544677734375 24.468389511108398438 24.2313995361328125 24.09804534912109375 24.02094268798828125 23.952322006225585938 23.773029327392578125 23.5259552001953125 23.383075714111328125 23.149662017822265625 22.838518142700195313 22.683259963989257813 22.30062103271484375 21.510009765625 20.628889083862304688 19.326631546020507813 18.154756546020507813 16.961175918579101563 18.572462081909179688 19.490781784057617188 20.200048446655273438 20.590108871459960938 21.044647216796875 21.859312057495117188 22.382963180541992188 22.534595489501953125 22.544406890869140625 22.486545562744140625 22.365352630615234375 22.201524734497070313 21.950761795043945313 21.530040740966796875 20.982120513916015625 19.576314926147460938 17.12866973876953125 16.019895553588867188 15.417181968688964844 14.848855018615722656 14.668796539306640625 14.662321090698242188 14.735443115234375 15.005501747131347656 15.513200759887695313 16.040225982666015625 16.356739044189453125 16.613409042358398438 16.25806427001953125 15.363028526306152344 14.216455459594726563 13.043497085571289063 12.096312522888183594 11.577750205993652344 11.327667236328125 11.09114837646484375 10.617735862731933594 10.244063377380371094 9.9278564453125 9.7156209945678710938 8.0400905609130859375 9.9067354202270507813 10.300850868225097656 10.634130477905273438 10.852430343627929688 11.309621810913085938 12.01741790771484375 12.531516075134277344 12.264619827270507813 11.712217330932617188 11.288203239440917969 11.059649467468261719 10.954343795776367188 10.941009521484375 10.997488975524902344 11.100567817687988281 11.209300041198730469 11.425154685974121094 12.384488105773925781 14.38751220703125 15.934433937072753906 16.822492599487304688 17.244199752807617188 17.7491607666015625 18.080110549926757813 18.116466522216796875 18.418138504028320313 19.0908355712890625 19.97676849365234375 20.4290008544921875 20.561054229736328125 20.79277801513671875 -9999 -9999 -9999 -9999 -9999 -9999 -9999 -9999 -9999 -9999 -9999 -9999 -9999
 -9999 -9999 -9999 -9999 -9999 -9999 -9999 -9999 -9999 -9999 -9999 -9999 -9999 -9999 -9999 -9999 -9999 -9999 -9999 25.052297592163085938 25.075277328491210938 24.926023483276367188 24.510463714599609375 24.130064010620117188 23.336324691772460938 22.243738174438476563 21.536256790161132813 21.436412811279296875 21.873395919799804688 23.135633468627929688 24.334442138671875 24.777647018432617188 24.896862030029296875 24.965869903564453125 24.7825775146484375 24.611391067504882813 24.537874221801757813 24.533901214599609375 24.497781753540039063 24.255107879638671875 23.790487289428710938 23.54145050048828125 23.119997024536132813 22.317174911499023438 21.748136520385742188 21.12136077880859375 20.502216339111328125 19.823198318481445313 18.939512252807617188 17.876375198364257813 17.495386123657226563 19.638919830322265625 20.317962646484375 21.112779617309570313 21.550670623779296875 21.850894927978515625 22.391513824462890625 22.783151626586914063 22.860357284545898438 22.763301849365234375 22.524921417236328125 22.455577850341796875 22.517892837524414063 22.20272064208984375 21.373525619506835938 20.506290435791015625 18.955125808715820313 16.799802780151367188 15.963889122009277344 15.626357078552246094 15.0802459716796875 14.864307403564453125 14.899873733520507813 15.034336090087890625 15.373314857482910156 15.987987518310546875 16.617490768432617188 16.897394180297851563 16.928907394409179688 16.3500518798828125 15.395287513732910156 14.222191810607910156 12.961909294128417969 12.184946060180664063 11.906995773315429688 11.699233055114746094 11.39495086669921875 10.75608062744140625 10.256788253784179688 9.9344930648803710938 8.1018285751342773438 9.7959156036376953125 10.018733978271484375 10.405078887939453125 10.778484344482421875 11.065510749816894531 11.631705284118652344 12.444525718688964844 13.207337379455566406 13.096954345703125 12.57280731201171875 12.078625679016113281 11.761025428771972656 11.61762237548828125 11.533762931823730469 11.439301490783691406 11.47887420654296875 11.47185516357421875 11.534452438354492188 12.118921279907226563 13.241544723510742188 14.755822181701660156 16.09088134765625 16.880279541015625 18.023496627807617188 18.920389175415039063 19.130157470703125 19.236494064331054688 19.662456512451171875 20.465555191040039063 20.955728530883789063 21.072071075439453125 21.157667160034179688 -9999 -9999 -9999 -9999 -9999 -9999 -9999 -9999 -9999 -9999 -9999 -9999 -9999
 -9999 -9999 -9999 -9999 -9999 -9999 -9999 -9999 -9999 -9999 -9999 -9999 -9999 -9999 -9999 -9999 -9999 -9999 -9999 25.237934112548828125 25.2033233642578125 25.028347015380859375 24.620769500732421875 24.213527679443359375 23.322587966918945313 22.156749725341796875 21.481359481811523438 21.49726104736328125 22.049123764038085938 23.318574905395507813 24.385923385620117188 24.84357452392578125 24.999307632446289063 25.100942611694335938 24.992856979370117188 24.883869171142578125 24.821319580078125 24.822244644165039063 24.79326629638671875 24.512681961059570313 23.9642791748046875 23.67407989501953125 23.204542160034179688 22.271968841552734375 21.520418167114257813 20.809671401977539063 20.191534042358398438 19.521493911743164063 18.846155166625976563 18.017518997192382813 19.785440444946289063 20.202610015869140625 20.788852691650390625 21.58271026611328125 22.038524627685546875 22.313119888305664063 22.746694564819335938 23.004873275756835938 23.0015869140625 22.84844970703125 22.532617568969726563 22.45029449462890625 22.506572723388671875 22.195074081420898438 21.200441360473632813 20.170101165771484375 18.58982086181640625 16.663177490234375 15.948624610900878906 15.668935775756835938 15.212610244750976563 15.054997444152832031 15.09734344482421875 15.196277618408203125 15.528778076171875 16.179761886596679688 16.809642791748046875 17.067258834838867188 17.002025604248046875 16.271091461181640625 15.319991111755371094 14.1683502197265625 12.9688873291015625 12.322077751159667969 12.141459465026855469 11.994952201843261719 11.686442375183105469 10.953241348266601563 10.324494361877441406 9.9703130722045898438 8.15313720703125 9.8624858856201171875 10.068700790405273438 10.428396224975585938 10.820158004760742188 11.130019187927246094 11.714572906494140625 12.541180610656738281 13.408857345581054688 13.479294776916503906 13.037339210510253906 12.513426780700683594 12.139217376708984375 11.953357696533203125 11.832873344421386719 11.686972618103027344 11.716494560241699219 11.668514251708984375 11.649672508239746094 12.00446319580078125 12.729396820068359375 14.092412948608398438 15.408294677734375 16.360126495361328125 17.949977874755859375 19.143331527709960938 19.533292770385742188 19.66703033447265625 20.00366973876953125 20.714418411254882813 21.2506866455078125 21.470928192138671875 21.531499862670898438 -9999 -9999 -9999 -9999 -9999 -9999 -9999 -9999 -9999 -9999 -9999 -9999 -9999
 -9999 -9999 -9999 -9999 -9999 -9999 -9999 -9999 -9999 -9999 -9999 -9999 -9999 -9999 -9999 -9999 -9999 -9999 -9999 -9999 25.271104812622070313 25.092571258544921875 24.59918212890625 24.144086837768554688 23.255723953247070313 22.156656265258789063 21.521047592163085938 21.56995391845703125 22.2031097412109375 23.3030242919921875 24.184726715087890625 24.825037002563476563 25.0888214111328125 25.243572235107421875 25.303462982177734375 25.291027069091796875 25.202264785766601563 25.1475982666015625 25.089031219482421875 24.766790390014648438 24.214742660522460938 23.909885406494140625 23.4706573486328125 22.677812576293945313 21.840280532836914063 21.056974411010742188 20.232173919677734375 19.455755233764648438 18.106504440307617188 20.073795318603515625 20.625278472900390625 20.927427291870117188 21.533288955688476563 22.138080596923828125 22.457500457763671875 22.688024520874023438 23.085418701171875 23.12249755859375 22.892612457275390625 22.680263519287109375 22.436468124389648438 22.397947311401367188 22.233469009399414063 21.88909149169921875 20.747652053833007813 19.667236328125 18.282934188842773438 16.749063491821289063 16.085580825805664063 15.64284515380859375 15.352626800537109375 15.3522796630859375 15.389513969421386719 15.408353805541992188 15.659153938293457031 16.23413848876953125 16.7408905029296875 16.967189788818359375 16.856161117553710938 15.945435523986816406 15.040401458740234375 14.026179313659667969 13.150182723999023438 12.711456298828125 12.530495643615722656 12.460016250610351563 12.173918724060058594 11.33380126953125 10.5223388671875 10.080951690673828125 8.2003049850463867188 9.970539093017578125 10.134785652160644531 10.429770469665527344 10.802174568176269531 11.111350059509277344 11.677615165710449219 12.431807518005371094 13.326037406921386719 13.759419441223144531 13.555081367492675781 13.041865348815917969 12.5766143798828125 12.290947914123535156 12.126633644104003906 11.961177825927734375 12.007611274719238281 11.993486404418945313 11.959293365478515625 12.085865020751953125 12.627934455871582031 13.629742622375488281 14.488285064697265625 15.529529571533203125 17.66243743896484375 18.962648391723632813 19.526136398315429688 20.008157730102539063 20.497163772583007813 21.11746978759765625 21.661809921264648438 22.049610137939453125 22.172657012939453125 -9999 -9999 -9999 -9999 -9999 -9999 -9999 -9999 -9999 -9999 -9999 -9999 -9999
 -9999 -9999 -9999 -9999 -9999 -9999 -9999 -9999 -9999 -9999 -9999 -9999 -9999 -9999 -9999 -9999 -9999 -9999 -9999 -9999 25.180629730224609375 24.999528884887695313 24.423414230346679688 23.8944091796875 22.998567581176757813 22.12963104248046875 21.696895599365234375 21.81671905517578125 22.414791107177734375 23.308713912963867188 24.131872177124023438 24.903568267822265625 25.22086334228515625 25.3814239501953125 25.4978179931640625 25.538991928100585938 25.505346298217773438 25.475202560424804688 25.382709503173828125 25.0617523193359375 24.546215057373046875 24.251728057861328125 23.820512771606445313 23.0453338623046875 22.1057586669921875 21.196371078491210938 20.308500289916992188 19.463823318481445313 18.541728973388671875 20.952121734619140625 21.587368011474609375 21.739826202392578125 22.1585693359375 22.705810546875 22.907011032104492188 22.869825363159179688 23.054058074951171875 23.002353668212890625 22.48543548583984375 22.18231201171875 22.092187881469726563 22.229106903076171875 22.029018402099609375 21.408992767333984375 19.842914581298828125 18.869859695434570313 17.962604522705078125 16.865478515625 16.2886962890625 15.783459663391113281 15.595167160034179688 15.659008979797363281 15.723608970642089844 15.750644683837890625 15.962985992431640625 16.37131500244140625 16.657278060913085938 16.784067153930664063 16.6319427490234375 15.740675926208496094 14.879871368408203125 14.087411880493164063 13.509149551391601563 13.257447242736816406 13.013262748718261719 12.802109718322753906 12.449006080627441406 11.572521209716796875 10.769675254821777344 10.308610916137695313 10.208607673645019531 9.2291717529296875 10.321155548095703125 10.486947059631347656 10.730477333068847656 11.012451171875 11.590807914733886719 12.279705047607421875 13.188821792602539063 13.889964103698730469 13.999057769775390625 13.630609512329101563 13.106998443603515625 12.727169036865234375 12.553812026977539063 12.412805557250976563 12.406572341918945313 12.367281913757324219 12.314373016357421875 12.267039299011230469 12.533061981201171875 13.202727317810058594 13.895091056823730469 14.919333457946777344 17.01973724365234375 18.155092239379882813 18.7898406982421875 19.786779403686523438 20.827344894409179688 21.618709564208984375 22.204931259155273438 22.509904861450195313 22.58188629150390625 -9999 -9999 -9999 -9999 -9999 -9999 -9999 -9999 -9999 -9999 -9999 -9999 -9999
 -9999 -9999 -9999 -9999 -9999 -9999 -9999 -9999 -9999 -9999 -9999 -9999 -9999 -9999 -9999 -9999 -9999 -9999 -9999 -9999 24.99100494384765625 24.75797271728515625 24.10211181640625 23.502519607543945313 22.59942626953125 22.03204345703125 21.955350875854492188 22.285924911499023438 22.808076858520507813 23.487173080444335938 24.128767013549804688 24.909473419189453125 25.260080337524414063 25.430673599243164063 25.527376174926757813 25.546716690063476563 25.558441162109375 25.583240509033203125 25.522302627563476563 25.245067596435546875 24.761928558349609375 24.471923828125 24.019756317138671875 23.197450637817382813 22.157312393188476563 21.077121734619140625 20.186344146728515625 18.652130126953125 20.33455657958984375 21.991662979125976563 22.630084991455078125 22.647748947143554688 22.78905487060546875 23.236207962036132813 23.360879898071289063 22.959875106811523438 22.73443603515625 22.6241302490234375 22.052433013916015625 21.752649307250976563 21.718351364135742188 21.89075469970703125 21.9245758056640625 21.201389312744140625 19.460374832153320313 18.485311508178710938 17.7240142822265625 16.743114471435546875 16.23278045654296875 15.828088760375976563 15.714031219482421875 15.868559837341308594 16.094440460205078125 16.29477691650390625 16.534486770629882813 16.750120162963867188 16.863842010498046875 16.829561233520507813 16.463825225830078125 15.675596237182617188 14.953896522521972656 14.367789268493652344 13.977688789367675781 13.665440559387207031 13.154481887817382813 12.743511199951171875 12.355751991271972656 11.549017906188964844 10.866753578186035156 10.486968994140625 10.378405570983886719 9.2630357742309570313 10.433391571044921875 10.541299819946289063 10.702916145324707031 10.937082290649414063 11.47423553466796875 12.0938720703125 12.902791023254394531 13.800295829772949219 14.288234710693359375 14.196965217590332031 13.809236526489257813 13.433306694030761719 13.230305671691894531 12.997778892517089844 12.841083526611328125 12.743229866027832031 12.651064872741699219 12.516245841979980469 12.5548553466796875 13.012032508850097656 13.610635757446289063 14.423966407775878906 16.061618804931640625 17.06531524658203125 17.72674560546875 18.909269332885742188 20.517110824584960938 21.705135345458984375 22.550807952880859375 22.843036651611328125 22.871776580810546875 -9999 -9999 -9999 -9999 -9999 -9999 -9999 -9999 -9999 -9999 -9999 -9999 -9999
 -9999 -9999 -9999 -9999 -9999 -9999 -9999 -9999 -9999 -9999 -9999 -9999 -9999 -9999 -9999 -9999 -9999 -9999 -9999 -9999 24.9144439697265625 24.625360488891601563 23.951284408569335938 23.359422683715820313 22.502653121948242188 22.0982666015625 22.354024887084960938 23.008634567260742188 23.506620407104492188 23.937347412109375 24.333185195922851563 24.954629898071289063 25.2554473876953125 25.410625457763671875 25.482778549194335938 25.446676254272460938 25.4494171142578125 25.526790618896484375 25.528455734252929688 25.270111083984375 24.798559188842773438 24.500202178955078125 24.053869247436523438 23.255304336547851563 22.100812911987304688 21.017436981201171875 20.13768768310546875 18.945514678955078125 21.58863067626953125 23.163000106811523438 23.71722412109375 23.765758514404296875 23.735414505004882813 23.733682632446289063 23.528070449829101563 22.899169921875 22.398511886596679688 22.092214584350585938 21.500995635986328125 21.290187835693359375 21.351528167724609375 21.4330596923828125 21.54398345947265625 20.80580902099609375 19.502985000610351563 18.521547317504882813 17.41996002197265625 16.182073593139648438 15.71977996826171875 15.617528915405273438 15.643729209899902344 15.905118942260742188 16.43647003173828125 16.9784088134765625 17.305894851684570313 17.425933837890625 17.431566238403320313 17.253360748291015625 16.640630722045898438 15.844332695007324219 15.228015899658203125 14.761773109436035156 14.356503486633300781 13.771573066711425781 12.998708724975585938 12.47557830810546875 12.103993415832519531 11.417888641357421875 10.869998931884765625 10.56949615478515625 10.430389404296875 9.3052740097045898438 10.405894279479980469 10.543087959289550781 10.694967269897460938 10.881984710693359375 11.324082374572753906 11.840506553649902344 12.490784645080566406 13.329412460327148438 14.075530052185058594 14.450333595275878906 14.398512840270996094 14.145022392272949219 13.951729774475097656 13.6413116455078125 13.323525428771972656 13.141438484191894531 13.008884429931640625 12.812932014465332031 12.731120109558105469 13.021101951599121094 13.635321617126464844 14.342632293701171875 15.64154815673828125 16.601842880249023438 17.405160903930664063 18.423679351806640625 19.849439620971679688 21.224382400512695313 22.413299560546875 22.940351486206054688 23.0471343994140625 -9999 -9999 -9999 -9999 -9999 -9999 -9999 -9999 -9999 -9999 -9999 -9999 -9999
 -9999 -9999 -9999 -9999 -9999 -9999 -9999 -9999 -9999 -9999 -9999 -9999 -9999 -9999 -9999 -9999 -9999 -9999 -9999 -9999 25.02315521240234375 24.65227508544921875 23.995189666748046875 23.453525543212890625 22.68126678466796875 22.423505783081054688 22.97586822509765625 23.889482498168945313 24.39178466796875 24.583835601806640625 24.782590866088867188 25.141378402709960938 25.32120513916015625 25.413637161254882813 25.400964736938476563 25.318876266479492188 25.365911483764648438 25.5214996337890625 25.52972412109375 25.155496597290039063 24.572637557983398438 24.275547027587890625 23.859155654907226563 22.9651336669921875 21.811553955078125 20.780069351196289063 19.197278976440429688 19.085918426513671875 22.503570556640625 23.984811782836914063 24.500280380249023438 24.490617752075195313 24.278512954711914063 24.01607513427734375 23.423055648803710938 22.449581146240234375 21.803827285766601563 21.383296966552734375 20.875278472900390625 20.77034759521484375 20.867961883544921875 20.754726409912109375 20.680517196655273438 19.944932937622070313 19.194110870361328125 18.362333297729492188 17.108522415161132813 15.898518562316894531 15.482880592346191406 15.427196502685546875 15.583369255065917969 16.079303741455078125 16.898700714111328125 17.676128387451171875 18.131795883178710938 18.259992599487304688 18.105377197265625 17.759973526000976563 16.950613021850585938 16.199497222900390625 15.726533889770507813 15.279359817504882813 14.569989204406738281 13.710452079772949219 12.935194015502929688 12.443263053894042969 12.083136558532714844 11.444147109985351563 10.970226287841796875 10.66997528076171875 10.482781410217285156 9.334331512451171875 10.344222068786621094 10.528264045715332031 10.723896026611328125 10.903341293334960938 11.269174575805664063 11.633397102355957031 12.087085723876953125 12.718400001525878906 13.458846092224121094 14.163393020629882813 14.631978034973144531 14.812329292297363281 14.744318962097167969 14.412580490112304688 14.005301475524902344 13.654110908508300781 13.398581504821777344 13.162904739379882813 13.086977005004882813 13.320932388305664063 13.855291366577148438 14.429584503173828125 15.534148216247558594 16.727201461791992188 17.935808181762695313 18.860654830932617188 19.840557098388671875 20.783756256103515625 21.919332504272460938 22.742643356323242188 23.0041046142578125 -9999 -9999 -9999 -9999 -9999 -9999 -9999 -9999 -9999 -9999 -9999 -9999 -9999
 -9999 -9999 -9999 -9999 -9999 -9999 -9999 -9999 -9999 -9999 -9999 -9999 -9999 -9999 -9999 -9999 -9999 -9999 -9999 -9999 25.079204559326171875 24.654657363891601563 23.92717742919921875 23.42505645751953125 22.837678909301757813 22.801259994506835938 23.606128692626953125 24.566616058349609375 25.035985946655273438 25.101629257202148438 25.184335708618164063 25.359897613525390625 25.437778472900390625 25.417440414428710938 25.279645919799804688 25.214231491088867188 25.272710800170898438 25.405363082885742188 25.32470703125 24.693328857421875 23.923116683959960938 23.5872650146484375 23.092899322509765625 22.0641326904296875 21.145391464233398438 19.466981887817382813 19.334997177124023438 22.018251419067382813 23.18999481201171875 24.041738510131835938 24.374135971069335938 24.457538604736328125 24.292840957641601563 23.995391845703125 23.05089569091796875 21.749856948852539063 21.056192398071289063 20.631702423095703125 20.213468551635742188 20.07164764404296875 19.997039794921875 19.761014938354492188 19.4849090576171875 19.078718185424804688 18.484750747680664063 17.679029464721679688 16.766508102416992188 15.821166038513183594 15.460842132568359375 15.447449684143066406 15.804364204406738281 16.550090789794921875 17.515911102294921875 18.252994537353515625 18.699920654296875 18.862939834594726563 18.707515716552734375 18.257532119750976563 17.260251998901367188 16.632253646850585938 16.36031341552734375 15.829889297485351563 14.778231620788574219 13.796730995178222656 13.100156784057617188 12.671071052551269531 12.289503097534179688 11.589189529418945313 11.167582511901855469 10.901701927185058594 10.649837493896484375 10.535389900207519531 9.5119524002075195313 10.610734939575195313 10.783246994018554688 10.950074195861816406 11.246974945068359375 11.51534271240234375 11.84540557861328125 12.3027496337890625 12.897222518920898438 13.716623306274414063 14.586320877075195313 15.275118827819824219 15.469950675964355469 15.313103675842285156 14.813033103942871094 14.222982406616210938 13.787600517272949219 13.534550666809082031 13.586691856384277344 13.952504158020019531 14.436787605285644531 14.847086906433105469 15.708662033081054688 17.110773086547851563 18.85234832763671875 20.00983428955078125 20.797855377197265625 21.406015396118164063 22.265386581420898438 23.128286361694335938 23.424943923950195313 -9999 -9999 -9999 -9999 -9999 -9999 -9999 -9999 -9999 -9999 -9999 -9999 -9999
 -9999 -9999 -9999 -9999 -9999 -9999 -9999 -9999 -9999 -9999 -9999 -9999 -9999 -9999 -9999 -9999 -9999 -9999 -9999 -9999 25.063711166381835938 24.625581741333007813 23.79444122314453125 23.322702407836914063 22.947298049926757813 23.086996078491210938 24.045026779174804688 25.0572357177734375 25.521211624145507813 25.510351181030273438 25.500253677368164063 25.580829620361328125 25.582979202270507813 25.453294754028320313 25.256441116333007813 25.090612411499023438 24.908235549926757813 24.813791275024414063 24.575761795043945313 23.900579452514648438 23.158807754516601563 22.761444091796875 22.216554641723632813 21.52103424072265625 19.951147079467773438 19.933086395263671875 21.772373199462890625 22.843137741088867188 23.506399154663085938 23.915866851806640625 24.1132049560546875 24.223863601684570313 24.053735733032226563 23.573154449462890625 22.386327743530273438 21.0910797119140625 20.283451080322265625 19.799917221069335938 19.504362106323242188 19.31386566162109375 19.058408737182617188 18.903045654296875 18.572278976440429688 18.157611846923828125 17.576488494873046875 16.929134368896484375 16.357177734375 15.815300941467285156 15.618377685546875 15.654783248901367188 16.08245849609375 17.086879730224609375 18.221860885620117188 18.969347000122070313 19.2867279052734375 19.354862213134765625 19.165212631225585938 18.647668838500976563 17.504117965698242188 16.860754013061523438 16.677354812622070313 16.124927520751953125 14.954737663269042969 13.992041587829589844 13.461069107055664063 13.107595443725585938 12.7049560546875 11.909784317016601563 11.410998344421386719 11.1466522216796875 10.864940643310546875 10.765225410461425781 9.7834749221801757813 10.850872993469238281 11.010628700256347656 11.157156944274902344 11.382961273193359375 11.564560890197753906 11.790927886962890625 12.136566162109375 12.605141639709472656 13.389124870300292969 14.26929473876953125 15.081679344177246094 15.590145111083984375 16.022668838500976563 15.554884910583496094 14.693417549133300781 14.142786979675292969 13.923559188842773438 14.196040153503417969 14.941007614135742188 15.63292694091796875 15.922913551330566406 16.291688919067382813 17.263072967529296875 18.901411056518554688 20.325914382934570313 21.704402923583984375 22.5577850341796875 23.143091201782226563 23.681371688842773438 23.8647918701171875 -9999 -9999 -9999 -9999 -9999 -9999 -9999 -9999 -9999 -9999 -9999 -9999 -9999
 -9999 -9999 -9999 -9999 -9999 -9999 -9999 -9999 -9999 -9999 -9999 -9999 -9999 -9999 -9999 -9999 -9999 -9999 -9999 -9999 25.068986892700195313 24.640962600708007813 23.685628890991210938 23.216083526611328125 23.020357131958007813 23.363460540771484375 24.487581253051757813 25.341136932373046875 25.730701446533203125 25.8119354248046875 25.783681869506835938 25.811391830444335938 25.777812957763671875 25.591466903686523438 25.322956085205078125 24.906375885009765625 24.266265869140625 23.844676971435546875 23.532123565673828125 23.117481231689453125 22.510036468505859375 22.148113250732421875 21.801578521728515625 20.639017105102539063 20.5950775146484375 21.718145370483398438 22.206323623657226563 22.841449737548828125 23.438518524169921875 23.930372238159179688 24.157335281372070313 24.155117034912109375 23.637447357177734375 22.901378631591796875 21.522352218627929688 20.154827117919921875 19.245481491088867188 18.884740829467773438 18.90924835205078125 18.73920440673828125 18.265844345092773438 18.04976654052734375 17.603693008422851563 17.196796417236328125 16.925355911254882813 16.751224517822265625 16.428731918334960938 16.194684982299804688 16.121259689331054688 16.121519088745117188 16.598873138427734375 17.869001388549804688 18.883508682250976563 19.53713226318359375 19.8909149169921875 19.786756515502929688 19.450723648071289063 18.866069793701171875 17.59700775146484375 16.7386474609375 16.265035629272460938 15.647053718566894531 14.825450897216796875 14.161854743957519531 13.847677230834960938 13.677380561828613281 13.322758674621582031 12.390456199645996094 11.567589759826660156 11.239160537719726563 11.087342262268066406 11.081919670104980469 10.190646171569824219 11.271739959716796875 11.369841575622558594 11.464385032653808594 11.621774673461914063 11.759531974792480469 11.949389457702636719 12.218179702758789063 12.553956031799316406 13.177906990051269531 13.809526443481445313 14.391063690185546875 15.128641128540039063 16.339702606201171875 16.19831085205078125 15.191580772399902344 14.489293098449707031 14.260365486145019531 14.728179931640625 15.967568397521972656 17.01679229736328125 17.254823684692382813 17.14813232421875 17.455873489379882813 18.517511367797851563 20.11626434326171875 22.22045135498046875 23.266880035400390625 23.781808853149414063 24.136583328247070313 24.238264083862304688 -9999 -9999 -9999 -9999 -9999 -9999 -9999 -9999 -9999 -9999 -9999 -9999 -9999
 -9999 -9999 -9999 -9999 -9999 -9999 -9999 -9999 -9999 -9999 -9999 -9999 -9999 -9999 -9999 -9999 -9999 -9999 -9999 -9999 25.153797149658203125 24.720273971557617188 23.705224990844726563 23.244985580444335938 23.160247802734375 23.614253997802734375 24.7601165771484375 25.454288482666015625 25.76796722412109375 25.9102020263671875 25.896678924560546875 25.895631790161132813 25.856046676635742188 25.673114776611328125 25.367937088012695313 24.87989044189453125 24.130441665649414063 23.57204437255859375 23.231868743896484375 22.926311492919921875 22.385305404663085938 22.083372116088867188 20.910596847534179688 21.96240234375 22.009328842163085938 21.994174957275390625 22.209697723388671875 22.736133575439453125 23.376453399658203125 23.8845367431640625 24.102216720581054688 24.012691497802734375 23.265550613403320313 22.415952682495117188 21.119598388671875 19.829540252685546875 18.889337539672851563 18.549890518188476563 18.651968002319335938 18.551893234252929688 18.144748687744140625 17.853265762329101563 17.333337783813476563 16.951696395874023438 16.826459884643554688 16.84000396728515625 16.634883880615234375 16.492916107177734375 16.443971633911132813 16.419658660888671875 16.911731719970703125 18.2320098876953125 19.101324081420898438 19.669361114501953125 20.055223464965820313 19.899282455444335938 19.48319244384765625 18.879650115966796875 17.615352630615234375 16.710010528564453125 16.152507781982421875 15.544649124145507813 14.836530685424804688 14.284358024597167969 14.133017539978027344 14.084408760070800781 13.739211082458496094 12.70024871826171875 11.699091911315917969 11.303751945495605469 11.19593048095703125 11.222295761108398438 10.248006820678710938 11.436697006225585938 11.510521888732910156 11.577687263488769531 11.70783233642578125 11.885548591613769531 12.113185882568359375 12.321466445922851563 12.583917617797851563 13.131744384765625 13.637459754943847656 14.1136016845703125 14.910248756408691406 16.389528274536132813 16.46358489990234375 15.473865509033203125 14.68631744384765625 14.448859214782714844 15.03484344482421875 16.58194732666015625 17.90100860595703125 18.104045867919921875 17.679964065551757813 17.6987762451171875 18.504606246948242188 20.037322998046875 22.280452728271484375 23.450958251953125 23.988935470581054688 24.282819747924804688 24.355394363403320313 -9999 -9999 -9999 -9999 -9999 -9999 -9999 -9999 -9999 -9999 -9999 -9999 -9999
 -9999 -9999 -9999 -9999 -9999 -9999 -9999 -9999 -9999 -9999 -9999 -9999 -9999 -9999 -9999 -9999 -9999 -9999 -9999 -9999 25.313272476196289063 24.874002456665039063 23.873029708862304688 23.461483001708984375 23.523321151733398438 24.092769622802734375 25.123369216918945313 25.65735626220703125 25.835409164428710938 25.960971832275390625 25.948696136474609375 25.902982711791992188 25.86583709716796875 25.725530624389648438 25.413747787475585938 25.000860214233398438 24.412855148315429688 23.832309722900390625 23.44345855712890625 23.087255477905273438 22.619554519653320313 21.443048477172851563 22.507160186767578125 22.64685821533203125 22.44016265869140625 22.177265167236328125 22.308868408203125 22.83544921875 23.320825576782226563 23.489665985107421875 23.508768081665039063 23.252000808715820313 22.413921356201171875 21.611480712890625 20.788900375366210938 19.91219329833984375 19.052509307861328125 18.636899948120117188 18.6585235595703125 18.701839447021484375 18.607622146606445313 18.20603179931640625 17.623004913330078125 17.21274566650390625 17.061492919921875 17.032903671264648438 16.930688858032226563 16.845123291015625 16.78741455078125 16.741306304931640625 17.204309463500976563 18.388086318969726563 19.139444351196289063 19.685483932495117188 20.024679183959960938 19.869249343872070313 19.41249847412109375 18.850065231323242188 17.754119873046875 16.967031478881835938 16.564588546752929688 16.0894927978515625 15.296665191650390625 14.62029266357421875 14.570540428161621094 14.591860771179199219 14.20928955078125 13.064678192138671875 12.00649261474609375 11.519504547119140625 11.325945854187011719 11.289976119995117188 10.296552658081054688 11.420764923095703125 11.507367134094238281 11.600237846374511719 11.817223548889160156 12.115262031555175781 12.398241043090820313 12.540105819702148438 12.7551116943359375 13.21593475341796875 13.643598556518554688 14.156522750854492188 14.925572395324707031 16.336008071899414063 16.582242965698242188 15.745095252990722656 14.937381744384765625 14.738265037536621094 15.466311454772949219 17.289991378784179688 18.990690231323242188 19.242078781127929688 18.573278427124023438 18.383180618286132813 18.916563034057617188 19.970716476440429688 21.84122467041015625 23.378286361694335938 24.049846649169921875 24.253314971923828125 24.29216766357421875 -9999 -9999 -9999 -9999 -9999 -9999 -9999 -9999 -9999 -9999 -9999 -9999 -9999
 -9999 -9999 -9999 -9999 -9999 -9999 -9999 -9999 -9999 -9999 -9999 -9999 -9999 -9999 -9999 -9999 -9999 -9999 -9999 -9999 25.274570465087890625 24.885044097900390625 24.056379318237304688 23.716089248657226563 23.822696685791015625 24.493207931518554688 25.510158538818359375 26.027151107788085938 26.044620513916015625 26.068216323852539063 25.991769790649414063 25.89632415771484375 25.8575439453125 25.741376876831054688 25.434970855712890625 25.078248977661132813 24.616729736328125 24.143659591674804688 23.741085052490234375 23.26471710205078125 22.802021026611328125 22.753927230834960938 22.0750885009765625 23.29601287841796875 23.046550750732421875 22.733127593994140625 22.88138580322265625 23.226451873779296875 23.161012649536132813 22.64817047119140625 22.313571929931640625 21.853107452392578125 21.217241287231445313 20.74744415283203125 20.416347503662109375 19.984632492065429688 19.451406478881835938 19.186918258666992188 19.378618240356445313 19.506809234619140625 19.384229660034179688 18.7877655029296875 18.061738967895507813 17.54271697998046875 17.311941146850585938 17.28505706787109375 17.30542755126953125 17.35094451904296875 17.299230575561523438 17.188329696655273438 17.561389923095703125 18.523534774780273438 19.395671844482421875 20.010808944702148438 20.206140518188476563 19.994195938110351563 19.5727996826171875 19.135400772094726563 18.3127899169921875 17.652557373046875 17.296201705932617188 16.873504638671875 16.151599884033203125 15.327076911926269531 14.877688407897949219 14.668040275573730469 14.271992683410644531 13.23955535888671875 12.306177139282226563 11.824231147766113281 11.547394752502441406 11.392301559448242188 10.333562850952148438 11.4391326904296875 11.552524566650390625 11.731759071350097656 12.157257080078125 12.5376739501953125 12.965983390808105469 13.471713066101074219 13.68183135986328125 13.675279617309570313 13.913981437683105469 14.424304962158203125 15.088451385498046875 16.279056549072265625 16.614917755126953125 16.003534317016601563 15.298003196716308594 15.149488449096679688 15.8695526123046875 17.606149673461914063 19.51801300048828125 20.118860244750976563 19.962072372436523438 19.654743194580078125 19.583959579467773438 19.89194488525390625 21.0584259033203125 22.86083984375 23.857088088989257813 24.085065841674804688 24.108219146728515625 -9999 -9999 -9999 -9999 -9999 -9999 -9999 -9999 -9999 -9999 -9999 -9999 -9999
 -9999 -9999 -9999 -9999 -9999 -9999 -9999 -9999 -9999 -9999 -9999 -9999 -9999 -9999 -9999 -9999 -9999 -9999 -9999 -9999 25.212411880493164063 24.846149444580078125 24.20978546142578125 23.92928314208984375 23.973476409912109375 24.674089431762695313 25.800205230712890625 26.304225921630859375 26.247014999389648438 26.193758010864257813 26.068716049194335938 25.935247421264648438 25.884057998657226563 25.765338897705078125 25.446348190307617188 25.12891387939453125 24.833648681640625 24.494134902954101563 24.11296844482421875 23.537050247192382813 22.915523529052734375 22.8541259765625 22.323873519897460938 23.7099761962890625 23.55196380615234375 23.315656661987304688 23.474744796752929688 23.603681564331054688 23.001834869384765625 21.981100082397460938 21.48206329345703125 21.05538177490234375 20.636077880859375 20.426164627075195313 20.348453521728515625 20.19947052001953125 20.094415664672851563 20.256549835205078125 20.596193313598632813 20.690700531005859375 20.396665573120117188 19.552974700927734375 18.568220138549804688 17.808855056762695313 17.54344940185546875 17.796735763549804688 18.143703460693359375 18.437564849853515625 18.361776351928710938 17.992015838623046875 18.084604263305664063 18.787557601928710938 19.95835113525390625 20.481222152709960938 20.473443984985351563 20.235322952270507813 19.912567138671875 19.61283111572265625 19.058551788330078125 18.549848556518554688 18.123472213745117188 17.606401443481445313 16.881631851196289063 16.123300552368164063 15.055823326110839844 14.35079193115234375 13.919599533081054688 13.100009918212890625 12.324049949645996094 11.901377677917480469 11.69775390625 10.354931831359863281 11.526884078979492188 11.7206878662109375 11.896747589111328125 12.052883148193359375 12.44073486328125 13.127287864685058594 14.312924385070800781 15.551471710205078125 15.680377960205078125 14.958567619323730469 14.723553657531738281 14.900117874145507813 15.368539810180664063 16.408369064331054688 16.882289886474609375 16.554895401000976563 15.964468002319335938 15.664689064025878906 16.174633026123046875 17.642984390258789063 19.455892562866210938 20.390817642211914063 21.094356536865234375 21.08957672119140625 20.741840362548828125 20.495473861694335938 20.9178314208984375 22.141599655151367188 23.276309967041015625 23.720727920532226563 23.78968048095703125 -9999 -9999 -9999 -9999 -9999 -9999 -9999 -9999 -9999 -9999 -9999 -9999 -9999
 -9999 -9999 -9999 -9999 -9999 -9999 -9999 -9999 -9999 -9999 -9999 -9999 -9999 -9999 -9999 -9999 -9999 -9999 -9999 -9999 25.23226165771484375 24.867582321166992188 24.333492279052734375 24.110471725463867188 24.195531845092773438 24.91345977783203125 25.91570281982421875 26.323057174682617188 26.320705413818359375 26.311552047729492188 26.180753707885742188 26.020626068115234375 25.94403076171875 25.813665390014648438 25.567365646362304688 25.34708404541015625 25.140064239501953125 24.79332733154296875 24.348566055297851563 23.76874542236328125 23.256216049194335938 23.201725006103515625 22.348955154418945313 24.144744873046875 24.065687179565429688 23.781160354614257813 23.781652450561523438 23.735202789306640625 22.939357757568359375 21.704486846923828125 21.156255722045898438 20.90494537353515625 20.860834121704101563 20.85158538818359375 20.790060043334960938 20.721204757690429688 21.11855316162109375 21.77927398681640625 21.795009613037109375 21.598814010620117188 21.0374298095703125 19.905391693115234375 18.826038360595703125 17.967252731323242188 17.762424468994140625 18.32546234130859375 19.1990509033203125 19.835023880004882813 19.662872314453125 18.781219482421875 18.445636749267578125 18.971879959106445313 20.234273910522460938 20.726064682006835938 20.635877609252929688 20.409221649169921875 20.190671920776367188 19.933563232421875 19.32848358154296875 18.676164627075195313 18.224523544311523438 17.853912353515625 17.298208236694335938 16.5603485107421875 15.16551971435546875 14.1497039794921875 13.612239837646484375 12.803135871887207031 12.159113883972167969 11.74961090087890625 11.616940498352050781 10.376830101013183594 11.688653945922851563 11.934706687927246094 12.114626884460449219 12.235520362854003906 12.846830368041992188 14.482003211975097656 16.16034698486328125 16.943359375 16.940366744995117188 16.435491561889648438 15.789830207824707031 15.542219161987304688 15.861872673034667969 16.857297897338867188 17.483379364013671875 17.31998443603515625 16.82852935791015625 16.261880874633789063 16.419254302978515625 17.4250335693359375 18.722499847412109375 19.8606719970703125 21.606784820556640625 22.308477401733398438 22.182222366333007813 21.795694351196289063 21.687353134155273438 22.075746536254882813 22.740751266479492188 23.275049209594726563 23.417812347412109375 -9999 -9999 -9999 -9999 -9999 -9999 -9999 -9999 -9999 -9999 -9999 -9999 -9999
 -9999 -9999 -9999 -9999 -9999 -9999 -9999 -9999 -9999 -9999 -9999 -9999 -9999 -9999 -9999 -9999 -9999 -9999 -9999 -9999 25.261150360107421875 24.884881973266601563 24.34815216064453125 24.16295623779296875 24.291307449340820313 24.866914749145507813 25.673746109008789063 26.015460968017578125 26.181854248046875 26.329725265502929688 26.252887725830078125 26.096889495849609375 26.022897720336914063 25.935159683227539063 25.79676055908203125 25.611700057983398438 25.291378021240234375 24.866659164428710938 24.436504364013671875 23.969404220581054688 23.6952056884765625 23.741331100463867188 22.371349334716796875 24.667123794555664063 24.529607772827148438 24.180912017822265625 23.977609634399414063 23.746212005615234375 22.898040771484375 21.623744964599609375 21.158008575439453125 21.28285980224609375 21.695539474487304688 21.78057098388671875 21.586050033569335938 21.595363616943359375 22.240251541137695313 22.63320159912109375 22.080043792724609375 21.64955902099609375 20.999174118041992188 19.83042144775390625 18.821588516235351563 18.122980117797851563 18.130681991577148438 18.98209381103515625 20.145404815673828125 20.642816543579101563 20.389947891235351563 19.46518707275390625 18.839918136596679688 19.175073623657226563 20.333953857421875 20.814905166625976563 20.724973678588867188 20.518100738525390625 20.327543258666992188 20.004724502563476563 19.128292083740234375 18.17467498779296875 17.708574295043945313 17.545749664306640625 17.2107696533203125 16.528673171997070313 15.093976020812988281 13.841588973999023438 13.23931121826171875 12.578680038452148438 12.12567901611328125 11.825478553771972656 11.7353973388671875 10.391049385070800781 11.839611053466796875 12.014341354370117188 12.17592620849609375 12.404598236083984375 13.672638893127441406 16.30037689208984375 17.621366500854492188 17.757354736328125 17.686033248901367188 17.572137832641601563 17.178037643432617188 16.813596725463867188 16.929330825805664063 17.629179000854492188 18.234022140502929688 18.158338546752929688 17.56853485107421875 16.859537124633789063 16.631093978881835938 17.02812957763671875 17.668397903442382813 18.867938995361328125 21.456172943115234375 22.936666488647460938 23.415615081787109375 23.42201995849609375 23.082433700561523438 22.759328842163085938 22.7425384521484375 23.045257568359375 23.1776885986328125 23.299999237060546875 -9999 -9999 -9999 -9999 -9999 -9999 -9999 -9999 -9999 -9999 -9999 -9999
 -9999 -9999 -9999 -9999 -9999 -9999 -9999 -9999 -9999 -9999 -9999 -9999 -9999 -9999 -9999 -9999 -9999 -9999 -9999 -9999 25.2877197265625 24.901300430297851563 24.288888931274414063 24.091091156005859375 24.28057861328125 24.831090927124023438 25.44652557373046875 25.719081878662109375 25.946573257446289063 26.149942398071289063 26.209653854370117188 26.248149871826171875 26.248441696166992188 26.187831878662109375 26.047689437866210938 25.712968826293945313 25.232501983642578125 24.828992843627929688 24.48555755615234375 24.148000717163085938 24.0968170166015625 24.130998611450195313 23.373777389526367188 24.903963088989257813 24.785375595092773438 24.361787796020507813 24.02777862548828125 23.663137435913085938 22.965528488159179688 22.162075042724609375 21.961469650268554688 22.24981689453125 22.686365127563476563 22.830221176147460938 22.619632720947265625 22.492731094360351563 22.8448028564453125 22.832609176635742188 21.854366302490234375 21.259731292724609375 20.623889923095703125 19.615875244140625 18.734075546264648438 18.33548736572265625 18.567676544189453125 19.468442916870117188 20.610490798950195313 20.853563308715820313 20.5453948974609375 19.773241043090820313 19.22162628173828125 19.512079238891601563 20.417463302612304688 20.822566986083984375 20.714008331298828125 20.422304153442382813 20.248678207397460938 19.917280197143554688 19.005163192749023438 18.074506759643554688 17.392850875854492188 17.002788543701171875 16.69087982177734375 15.987405776977539063 14.485513687133789063 13.338284492492675781 12.8728179931640625 12.433336257934570313 12.173261642456054688 12.0171661376953125 11.942274093627929688 10.40796661376953125 11.9317474365234375 12.141763687133789063 12.37863922119140625 12.813726425170898438 14.442391395568847656 16.9436798095703125 18.065332412719726563 18.32384490966796875 18.380609512329101563 18.563442230224609375 18.90863037109375 19.044996261596679688 19.050121307373046875 19.076250076293945313 19.173770904541015625 18.999395370483398438 18.239650726318359375 17.397075653076171875 16.995487213134765625 17.0908966064453125 17.375986099243164063 18.30236053466796875 20.84676361083984375 23.190103530883789063 24.269262313842773438 24.536836624145507813 24.280031204223632813 23.760122299194335938 23.273088455200195313 23.185056686401367188 23.20209503173828125 23.197559356689453125 23.299999237060546875 -9999 -9999 -9999 -9999 -9999 -9999 -9999 -9999 -9999 -9999 -9999
 -9999 -9999 -9999 -9999 -9999 -9999 -9999 -9999 -9999 -9999 -9999 -9999 -9999 -9999 -9999 -9999 -9999 -9999 -9999 -9999 25.315839767456054688 24.980556488037109375 24.476032257080078125 24.265695571899414063 24.334074020385742188 24.847940444946289063 25.40203857421875 25.643911361694335938 25.864536285400390625 26.102506637573242188 26.310438156127929688 26.5338287353515625 26.583269119262695313 26.431631088256835938 26.11075592041015625 25.717288970947265625 25.24378204345703125 24.82073211669921875 24.527042388916015625 24.41481781005859375 24.601274490356445313 24.560472488403320313 23.468263626098632813 24.947587966918945313 24.814691543579101563 24.305971145629882813 23.98377227783203125 23.721343994140625 23.504129409790039063 23.561023712158203125 23.549657821655273438 23.444581985473632813 23.608301162719726563 23.752071380615234375 23.48036956787109375 23.161565780639648438 23.211622238159179688 23.019636154174804688 22.007307052612304688 21.295989990234375 20.371440887451171875 19.322849273681640625 18.688177108764648438 18.541257858276367188 18.855730056762695313 19.826169967651367188 20.952795028686523438 21.100315093994140625 20.744726181030273438 19.963354110717773438 19.512599945068359375 19.88909149169921875 20.511877059936523438 20.757383346557617188 20.571805953979492188 20.0688629150390625 19.9365997314453125 19.763500213623046875 19.184816360473632813 18.440702438354492188 17.390665054321289063 16.673784255981445313 16.2913055419921875 15.52986907958984375 13.881493568420410156 12.972478866577148438 12.670891761779785156 12.309737205505371094 12.138625144958496094 12.03725433349609375 10.423992156982421875 10.440388679504394531 11.942461967468261719 12.376732826232910156 12.788928985595703125 13.246059417724609375 14.547771453857421875 16.366350173950195313 17.651470184326171875 18.366069793701171875 18.603548049926757813 18.942705154418945313 19.626783370971679688 20.052789688110351563 20.2077789306640625 20.22682952880859375 19.87353515625 19.43140411376953125 18.598682403564453125 17.842681884765625 17.463092803955078125 17.482549667358398438 17.498340606689453125 17.91657257080078125 19.949321746826171875 23.201589584350585938 24.700887680053710938 24.984279632568359375 24.7439422607421875 24.259653091430664063 23.737590789794921875 23.5044097900390625 23.417860031127929688 23.317636489868164063 23.332353591918945313 -9999 -9999 -9999 -9999 -9999 -9999 -9999 -9999 -9999 -9999 -9999
 -9999 -9999 -9999 -9999 -9999 -9999 -9999 -9999 -9999 -9999 -9999 -9999 -9999 -9999 -9999 -9999 -9999 -9999 -9999 -9999 25.294921875 25.031377792358398438 24.613172531127929688 24.411718368530273438 24.419534683227539063 24.889057159423828125 25.455608367919921875 25.73589324951171875 25.94966888427734375 26.196626663208007813 26.41131591796875 26.588178634643554688 26.621095657348632813 26.473772048950195313 26.145050048828125 25.793867111206054688 25.363309860229492188 24.941463470458984375 24.684116363525390625 24.708726882934570313 24.9963836669921875 24.893686294555664063 23.522314071655273438 24.878507614135742188 24.726236343383789063 24.256208419799804688 24.019008636474609375 23.915706634521484375 23.931797027587890625 24.24908447265625 24.277669906616210938 24.019094467163085938 24.046604156494140625 24.168706893920898438 23.919076919555664063 23.573238372802734375 23.469768524169921875 23.169010162353515625 22.23968505859375 21.504907608032226563 20.396617889404296875 19.295339584350585938 18.738536834716796875 18.723237991333007813 19.18134307861328125 20.117700576782226563 21.096826553344726563 21.280717849731445313 21.006475448608398438 20.355716705322265625 19.982984542846679688 20.196962356567382813 20.537441253662109375 20.572469711303710938 20.247570037841796875 19.694517135620117188 19.532741546630859375 19.383115768432617188 18.934734344482421875 18.362720489501953125 17.32360076904296875 16.318262100219726563 15.650960922241210938 14.918344497680664063 13.544224739074707031 12.849163055419921875 12.611405372619628906 12.276538848876953125 12.109827995300292969 11.911922454833984375 11.67261505126953125 11.696173667907714844 10.461709022521972656 12.499385833740234375 12.975573539733886719 13.389563560485839844 14.370402336120605469 15.740065574645996094 17.028614044189453125 17.829172134399414063 18.12841033935546875 18.490268707275390625 19.315738677978515625 20.171833038330078125 20.598295211791992188 20.826780319213867188 20.47548675537109375 19.982208251953125 19.236246109008789063 18.650325775146484375 18.400585174560546875 18.278751373291015625 17.96273040771484375 18.038362503051757813 19.6815338134765625 23.131593704223632813 24.713953018188476563 24.997941970825195313 24.800510406494140625 24.406461715698242188 23.97638702392578125 23.766611099243164063 23.6716766357421875 23.552295684814453125 23.586030960083007813 -9999 -9999 -9999 -9999 -9999 -9999 -9999 -9999 -9999 -9999 -9999
 -9999 -9999 -9999 -9999 -9999 -9999 -9999 -9999 -9999 -9999 -9999 -9999 -9999 -9999 -9999 -9999 -9999 -9999 -9999 25.259057998657226563 25.238832473754882813 25.071277618408203125 24.738433837890625 24.583135604858398438 24.625280380249023438 25.045843124389648438 25.614671707153320313 26.0067291259765625 26.245555877685546875 26.4422149658203125 26.518344879150390625 26.43183135986328125 26.386991500854492188 26.346996307373046875 26.201097488403320313 25.99678802490234375 25.677928924560546875 25.332387924194335938 25.130359649658203125 25.2240447998046875 25.472379684448242188 25.267162322998046875 24.66595458984375 23.650899887084960938 24.574993133544921875 24.360370635986328125 24.283916473388671875 24.344964981079101563 24.45554351806640625 24.622135162353515625 24.6424407958984375 24.516422271728515625 24.451353073120117188 24.475633621215820313 24.32955169677734375 24.033807754516601563 23.711761474609375 23.20395660400390625 22.398944854736328125 21.729742050170898438 20.594026565551757813 19.508655548095703125 18.967321395874023438 19.168363571166992188 19.972936630249023438 20.709764480590820313 21.29044342041015625 21.552957534790039063 21.495084762573242188 21.227739334106445313 21.005268096923828125 20.708715438842773438 20.555543899536132813 20.234937667846679688 19.67563629150390625 19.1613311767578125 18.867090225219726563 18.57018280029296875 17.976350784301757813 17.484161376953125 16.639139175415039063 15.348012924194335938 14.250453948974609375 13.680693626403808594 13.133104324340820313 12.7832489013671875 12.5889892578125 12.312067985534667969 12.123662948608398438 11.77506256103515625 11.498950004577636719 10.486193656921386719 10.472764968872070313 12.558217048645019531 13.012872695922851563 13.37734222412109375 14.023492813110351563 14.826737403869628906 15.823486328125 16.5291748046875 16.9173736572265625 17.274393081665039063 18.214117050170898438 19.772670745849609375 20.665761947631835938 21.402708053588867188 21.512937545776367188 21.210575103759765625 20.796766281127929688 20.56739044189453125 20.533451080322265625 20.045480728149414063 19.203784942626953125 18.872356414794921875 19.83898162841796875 22.849008560180664063 24.389829635620117188 24.7660675048828125 24.767866134643554688 24.591798782348632813 24.3110198974609375 24.182910919189453125 24.134441375732421875 24.055208206176757813 24.062444686889648438 24.190126419067382813 -9999 -9999 -9999 -9999 -9999 -9999 -9999 -9999 -9999 -9999
 -9999 -9999 -9999 -9999 -9999 -9999 -9999 -9999 -9999 -9999 -9999 -9999 -9999 -9999 -9999 -9999 -9999 -9999 -9999 25.327239990234375 25.283891677856445313 25.124582290649414063 24.896701812744140625 24.815441131591796875 24.920139312744140625 25.328586578369140625 25.830865859985351563 26.249359130859375 26.548162460327148438 26.629364013671875 26.530534744262695313 26.298015594482421875 26.201562881469726563 26.15967559814453125 26.083974838256835938 26.063329696655273438 25.977237701416015625 25.756765365600585938 25.578847885131835938 25.613842010498046875 25.598186492919921875 25.30060577392578125 24.733509063720703125 23.7471771240234375 24.765665054321289063 24.84595489501953125 24.819112777709960938 24.748195648193359375 24.860240936279296875 24.939836502075195313 24.9624481201171875 24.931577682495117188 24.734582901000976563 24.482143402099609375 24.185577392578125 23.804426193237304688 23.296304702758789063 22.613285064697265625 21.882825851440429688 21.374402999877929688 20.503795623779296875 19.598833084106445313 19.318773269653320313 19.842176437377929688 20.784847259521484375 21.388261795043945313 21.757625579833984375 21.911237716674804688 21.873197555541992188 21.738283157348632813 21.596630096435546875 21.140016555786132813 20.704837799072265625 20.2911529541015625 19.715051651000976563 19.088895797729492188 18.682727813720703125 18.162685394287109375 17.0502777099609375 16.167615890502929688 15.175593376159667969 14.295359611511230469 13.574277877807617188 13.184779167175292969 12.965090751647949219 12.773646354675292969 12.620415687561035156 12.388709068298339844 12.178005218505859375 10.520000457763671875 10.502071380615234375 10.498929977416992188 12.148903846740722656 12.50799560546875 12.907682418823242188 13.265506744384765625 13.830572128295898438 14.292879104614257813 15.070858001708984375 15.97701263427734375 16.543973922729492188 16.910003662109375 17.55124664306640625 18.6771697998046875 19.637134552001953125 21.036754608154296875 21.749507904052734375 21.803392410278320313 21.81516265869140625 21.998159408569335938 21.993852615356445313 21.240139007568359375 20.3012542724609375 19.732883453369140625 19.825347900390625 21.98723602294921875 23.754816055297851563 24.452144622802734375 24.6815185546875 24.744524002075195313 24.596258163452148438 24.510770797729492188 24.474309921264648438 24.387170791625976563 24.338619232177734375 24.403581619262695313 -9999 -9999 -9999 -9999 -9999 -9999 -9999 -9999 -9999 -9999
 -9999 -9999 -9999 -9999 -9999 -9999 -9999 -9999 -9999 -9999 -9999 -9999 -9999 -9999 -9999 -9999 -9999 -9999 -9999 25.463563919067382813 25.415187835693359375 25.219964981079101563 25.033153533935546875 25.022275924682617188 25.225885391235351563 25.6492156982421875 26.114423751831054688 26.4271240234375 26.650142669677734375 26.635723114013671875 26.402738571166992188 26.176836013793945313 26.09685516357421875 26.027294158935546875 25.930568695068359375 25.974237442016601563 26.029466629028320313 25.929208755493164063 25.841829299926757813 25.927190780639648438 25.71446990966796875 25.367795944213867188 24.95993804931640625 24.154270172119140625 25.309326171875 25.420047760009765625 25.376407623291015625 25.170331954956054688 25.14626312255859375 25.185544967651367188 25.18810272216796875 25.089508056640625 24.74462890625 24.199298858642578125 23.578266143798828125 23.03867340087890625 22.40309906005859375 21.666425704956054688 21.024417877197265625 20.672367095947265625 20.151948928833007813 19.63579559326171875 19.747728347778320313 20.533327102661132813 21.358263015747070313 21.8502044677734375 22.083780288696289063 22.102907180786132813 22.04151153564453125 21.912847518920898438 21.781772613525390625 21.454156875610351563 20.87589263916015625 20.5156097412109375 19.968862533569335938 19.16949462890625 18.601152420043945313 17.756803512573242188 15.980641365051269531 15.008884429931640625 14.36911773681640625 13.889162063598632813 13.489345550537109375 13.156240463256835938 12.858835220336914063 12.690737724304199219 11.4315338134765625 11.40575408935546875 11.256168365478515625 10.808513641357421875 11.673431396484375 11.911980628967285156 12.175112724304199219 12.466435432434082031 12.755228996276855469 13.183705329895019531 13.980161666870117188 14.479651451110839844 15.498432159423828125 16.56276702880859375 17.155635833740234375 17.424251556396484375 17.748504638671875 18.35291290283203125 18.972560882568359375 20.089994430541992188 21.024761199951171875 21.622297286987304688 22.081289291381835938 22.553680419921875 22.693834304809570313 21.86537933349609375 20.87212371826171875 20.1977081298828125 19.6225128173828125 20.687295913696289063 22.585863113403320313 23.777004241943359375 24.330469131469726563 24.686979293823242188 24.675785064697265625 24.663492202758789063 24.636089324951171875 24.509130477905273438 24.422559738159179688 24.426288604736328125 -9999 -9999 -9999 -9999 -9999 -9999 -9999 -9999 -9999 -9999
 -9999 -9999 -9999 -9999 -9999 -9999 -9999 -9999 -9999 -9999 -9999 -9999 -9999 -9999 -9999 -9999 -9999 -9999 -9999 25.563159942626953125 25.475091934204101563 25.300855636596679688 25.203027725219726563 25.265256881713867188 25.5393218994140625 25.91318511962890625 26.289882659912109375 26.51244354248046875 26.603536605834960938 26.551382064819335938 26.30548858642578125 26.10694122314453125 26.04680633544921875 25.9946136474609375 25.893779754638671875 25.860956192016601563 25.900625228881835938 25.849699020385742188 25.837499618530273438 25.979473114013671875 25.770868301391601563 25.533197402954101563 25.332683563232421875 24.482103347778320313 25.677341461181640625 25.728391647338867188 25.71152496337890625 25.522068023681640625 25.406248092651367188 25.338312149047851563 25.278987884521484375 25.092660903930664063 24.662471771240234375 24.059797286987304688 23.391717910766601563 22.8318634033203125 22.186941146850585938 21.470729827880859375 20.964403152465820313 20.728101730346679688 20.376241683959960938 20.041265487670898438 20.357725143432617188 21.232372283935546875 21.846920013427734375 22.17090606689453125 22.201200485229492188 22.139802932739257813 22.12250518798828125 22.088972091674804688 21.934934616088867188 21.578966140747070313 20.971332550048828125 20.578702926635742188 19.878946304321289063 18.54984283447265625 17.601705551147460938 16.761125564575195313 15.230786323547363281 14.477598190307617188 14.045504570007324219 13.591254234313964844 13.278069496154785156 12.975195884704589844 11.586446762084960938 11.453854560852050781 12.612925529479980469 11.387602806091308594 11.343220710754394531 9.6492013931274414063 11.897843360900878906 12.191274642944335938 12.322463035583496094 12.464830398559570313 12.678951263427734375 13.340364456176757813 14.763879776000976563 15.501562118530273438 16.475553512573242188 17.561285018920898438 18.307338714599609375 18.512378692626953125 18.498378753662109375 18.68175506591796875 18.93039703369140625 19.46796417236328125 20.241983413696289063 21.19708251953125 22.101207733154296875 22.758901596069335938 22.964874267578125 22.245952606201171875 21.341884613037109375 20.722581863403320313 19.9705963134765625 20.15128326416015625 21.258945465087890625 22.5654144287109375 23.777179718017578125 24.475736618041992188 24.579402923583984375 24.652853012084960938 24.6566925048828125 24.541082382202148438 24.46039581298828125 24.449201583862304688 -9999 -9999 -9999 -9999 -9999 -9999 -9999 -9999 -9999 -9999
 -9999 -9999 -9999 -9999 -9999 -9999 -9999 -9999 -9999 -9999 -9999 -9999 -9999 -9999 -9999 -9999 -9999 -9999 -9999 25.715494155883789063 25.632450103759765625 25.548025131225585938 25.554111480712890625 25.617876052856445313 25.790287017822265625 26.058275222778320313 26.366506576538085938 26.510393142700195313 26.482053756713867188 26.36331939697265625 26.165805816650390625 26.006845474243164063 25.978937149047851563 26.002925872802734375 25.943294525146484375 25.845945358276367188 25.805948257446289063 25.75699615478515625 25.751592636108398438 25.868587493896484375 25.792209625244140625 25.75952911376953125 25.772413253784179688 25.716588973999023438 25.834896087646484375 25.86695098876953125 25.8589019775390625 25.798351287841796875 25.6871490478515625 25.482034683227539063 25.349748611450195313 25.1034393310546875 24.613546371459960938 24.122255325317382813 23.781122207641601563 23.443700790405273438 22.958723068237304688 22.26432037353515625 21.823741912841796875 21.634426116943359375 21.2587127685546875 20.774744033813476563 20.97113037109375 21.76409149169921875 22.240137100219726563 22.323566436767578125 22.16420745849609375 22.141611099243164063 22.199010848999023438 22.276636123657226563 22.176494598388671875 21.74901580810546875 21.16257476806640625 20.434375762939453125 18.891223907470703125 16.745317459106445313 15.656756401062011719 15.216406822204589844 14.568157196044921875 14.146602630615234375 13.776606559753417969 11.947529792785644531 11.913687705993652344 11.698403358459472656 12.570516586303710938 12.620145797729492188 12.723130226135253906 12.681803703308105469 12.347917556762695313 9.7181224822998046875 9.7628450393676757813 12.322510719299316406 12.4048919677734375 12.50580596923828125 12.717440605163574219 13.651187896728515625 15.857339859008789063 17.016628265380859375 17.599176406860351563 18.300212860107421875 19.02860260009765625 19.361026763916015625 19.411285400390625 19.517019271850585938 19.601823806762695313 19.804779052734375 20.351703643798828125 21.231145858764648438 22.195188522338867188 22.870861053466796875 23.107624053955078125 22.7291717529296875 22.192728042602539063 21.733842849731445313 20.9274444580078125 20.42710113525390625 20.572095870971679688 21.410112380981445313 22.969942092895507813 24.094030380249023438 24.461761474609375 24.548168182373046875 24.546438217163085938 24.496805191040039063 24.474681854248046875 -9999 -9999 -9999 -9999 -9999 -9999 -9999 -9999 -9999 -9999 -9999
 -9999 -9999 -9999 -9999 -9999 -9999 -9999 -9999 -9999 -9999 -9999 -9999 -9999 -9999 -9999 -9999 -9999 -9999 26.072048187255859375 25.938129425048828125 25.86559295654296875 25.826539993286132813 25.781045913696289063 25.8250732421875 26.019723892211914063 26.26358795166015625 26.476278305053710938 26.494680404663085938 26.370380401611328125 26.08696746826171875 25.896747589111328125 25.8198089599609375 25.840259552001953125 25.930034637451171875 25.93023681640625 25.853271484375 25.733114242553710938 25.614301681518554688 25.688386917114257813 25.872699737548828125 26.028934478759765625 26.105207443237304688 26.073085784912109375 25.860713958740234375 25.906185150146484375 25.949831008911132813 25.943410873413085938 25.917623519897460938 25.890468597412109375 25.741222381591796875 25.62267303466796875 25.365688323974609375 24.904989242553710938 24.64080047607421875 24.5164642333984375 24.228900909423828125 23.911563873291015625 23.42333221435546875 22.73590850830078125 22.340806961059570313 21.886249542236328125 21.559373855590820313 21.75638580322265625 22.210508346557617188 22.418552398681640625 22.230821609497070313 21.979562759399414063 22.080480575561523438 22.22841644287109375 22.426603317260742188 22.372659683227539063 21.71883392333984375 21.0820465087890625 19.840013504028320313 17.165632247924804688 15.265444755554199219 14.750181198120117188 14.553864479064941406 14.140994071960449219 13.84967041015625 12.012669563293457031 11.979828834533691406 13.160668373107910156 12.895167350769042969 12.838392257690429688 12.971982955932617188 12.982746124267578125 12.797435760498046875 12.456462860107421875 11.916773796081542969 10.780569076538085938 12.155985832214355469 12.445021629333496094 12.6266326904296875 12.832922935485839844 13.945559501647949219 16.65831756591796875 18.044557571411132813 18.41802978515625 18.868177413940429688 19.49881744384765625 20.13439178466796875 20.540685653686523438 20.744935989379882813 20.882772445678710938 21.178531646728515625 21.664731979370117188 22.321477890014648438 22.777080535888671875 23.101823806762695313 23.339931488037109375 23.3026580810546875 23.0563812255859375 22.706386566162109375 21.866147994995117188 20.99275970458984375 20.65273284912109375 20.872652053833007813 21.973405838012695313 23.29586029052734375 24.060245513916015625 24.253902435302734375 24.266157150268554688 24.28549957275390625 24.352985382080078125 -9999 -9999 -9999 -9999 -9999 -9999 -9999 -9999 -9999 -9999 -9999
 -9999 -9999 -9999 -9999 -9999 -9999 -9999 -9999 -9999 -9999 -9999 -9999 -9999 -9999 -9999 -9999 -9999 -9999 26.432575225830078125 26.246141433715820313 26.17527008056640625 26.1153564453125 25.987718582153320313 26.007038116455078125 26.214536666870117188 26.4125823974609375 26.49901580810546875 26.397272109985351563 26.237518310546875 26.031972885131835938 25.895206451416015625 25.814426422119140625 25.82042694091796875 25.902385711669921875 25.93643951416015625 25.882904052734375 25.720636367797851563 25.527853012084960938 25.661989212036132813 25.91451263427734375 26.187313079833984375 26.282253265380859375 26.175966262817382813 25.925104141235351563 25.944139480590820313 26.026185989379882813 26.04688262939453125 25.903577804565429688 25.952541351318359375 26.06058502197265625 26.098712921142578125 25.990070343017578125 25.660665512084960938 25.581117630004882813 25.448553085327148438 25.06063079833984375 24.641771316528320313 23.908552169799804688 22.883565902709960938 22.337808609008789063 21.873607635498046875 21.831722259521484375 22.347063064575195313 22.63484954833984375 22.493221282958984375 21.90871429443359375 21.550075531005859375 21.859851837158203125 22.144136428833007813 22.441034317016601563 22.205224990844726563 20.914937973022460938 19.976308822631835938 18.577289581298828125 16.048786163330078125 14.60491180419921875 14.290103912353515625 14.120421409606933594 12.115110397338867188 12.089463233947753906 13.7233734130859375 13.771162033081054688 13.640028953552246094 13.511846542358398438 13.448604583740234375 13.45030975341796875 13.323625564575195313 12.948007583618164063 12.571938514709472656 11.090000152587890625 10.807829856872558594 10.256814956665039063 11.48030853271484375 12.805134773254394531 12.974765777587890625 13.945926666259765625 16.4640045166015625 18.122343063354492188 18.868597030639648438 19.290388107299804688 19.781017303466796875 20.522523880004882813 20.920444488525390625 21.134931564331054688 21.456935882568359375 22.230680465698242188 22.995296478271484375 23.487895965576171875 23.607868194580078125 23.557062149047851563 23.644819259643554688 23.702243804931640625 23.533641815185546875 23.248020172119140625 22.536844253540039063 21.71816253662109375 21.280828475952148438 21.116945266723632813 21.58466339111328125 22.5388031005859375 23.592649459838867188 24.007329940795898438 24.066463470458984375 24.113882064819335938 24.190671920776367188 -9999 -9999 -9999 -9999 -9999 -9999 -9999 -9999 -9999 -9999 -9999
 -9999 -9999 -9999 -9999 -9999 -9999 -9999 -9999 -9999 -9999 -9999 -9999 -9999 -9999 -9999 -9999 -9999 -9999 26.69170379638671875 26.538789749145507813 26.467893600463867188 26.438610076904296875 26.331903457641601563 26.288103103637695313 26.345464706420898438 26.491268157958984375 26.509351730346679688 26.361623764038085938 26.19208526611328125 26.072057723999023438 25.894319534301757813 25.723814010620117188 25.718690872192382813 25.85321807861328125 25.931415557861328125 25.899629592895507813 25.840852737426757813 25.722719192504882813 25.719018936157226563 25.9914703369140625 26.347360610961914063 26.438386917114257813 26.268848419189453125 25.990581512451171875 25.990814208984375 26.106931686401367188 26.111003875732421875 25.793651580810546875 25.85569000244140625 26.284219741821289063 26.557355880737304688 26.718389511108398438 26.513540267944335938 26.340913772583007813 26.15924072265625 25.677759170532226563 24.932195663452148438 23.852603912353515625 22.626537322998046875 22.013744354248046875 21.5282745361328125 21.611179351806640625 22.38777923583984375 22.693449020385742188 22.369413375854492188 21.610265731811523438 21.110795974731445313 21.5457000732421875 21.946081161499023438 22.284273147583007813 21.546377182006835938 19.07547760009765625 17.621564865112304688 16.451236724853515625 15.275033950805664063 14.342525482177734375 13.648064613342285156 12.18987274169921875 13.792986869812011719 13.802488327026367188 13.762349128723144531 13.90721893310546875 14.0958709716796875 14.170477867126464844 14.052942276000976563 13.839295387268066406 13.55554962158203125 13.01612091064453125 12.706467628479003906 11.511261940002441406 12.293015480041503906 12.180083274841308594 11.561026573181152344 12.925812721252441406 13.08937835693359375 13.494119644165039063 14.903824806213378906 17.022264480590820313 18.689640045166015625 19.313594818115234375 19.7390594482421875 20.395137786865234375 20.542999267578125 20.64013671875 21.204143524169921875 22.643177032470703125 23.7429656982421875 24.234819412231445313 24.228765487670898438 23.98468780517578125 23.90334320068359375 23.916463851928710938 23.780820846557617188 23.447147369384765625 22.674432754516601563 22.09079742431640625 21.856719970703125 21.71379852294921875 21.830371856689453125 22.446844100952148438 23.444553375244140625 23.8485870361328125 23.922550201416015625 24.010440826416015625 -9999 -9999 -9999 -9999 -9999 -9999 -9999 -9999 -9999 -9999 -9999 -9999
 -9999 -9999 -9999 -9999 -9999 -9999 -9999 -9999 -9999 -9999 -9999 -9999 -9999 -9999 -9999 -9999 -9999 -9999 26.82781219482421875 26.749807357788085938 26.668209075927734375 26.641162872314453125 26.591373443603515625 26.555414199829101563 26.54660797119140625 26.588939666748046875 26.546949386596679688 26.394689559936523438 26.225530624389648438 26.10324859619140625 25.9045562744140625 25.717288970947265625 25.710775375366210938 25.847208023071289063 25.908601760864257813 25.860212326049804688 25.847219467163085938 25.8052978515625 25.783163070678710938 26.058185577392578125 26.441127777099609375 26.536615371704101563 26.353824615478515625 26.063907623291015625 26.062999725341796875 26.15985107421875 26.067663192749023438 25.661472320556640625 25.551599502563476563 25.813320159912109375 26.070085525512695313 26.34963226318359375 26.33014678955078125 26.33860015869140625 26.16007232666015625 25.518655776977539063 24.519250869750976563 23.2464752197265625 21.7328033447265625 21.026491165161132813 20.559209823608398438 20.534748077392578125 21.322839736938476563 21.897634506225585938 21.536054611206054688 20.914770126342773438 20.278863906860351563 20.162431716918945313 20.322893142700195313 20.644079208374023438 20.049955368041992188 17.8129119873046875 16.4265594482421875 15.467127799987792969 14.893233299255371094 14.25481414794921875 12.247643470764160156 13.598796844482421875 13.996596336364746094 14.039440155029296875 13.957447052001953125 14.199738502502441406 14.650954246520996094 14.872519493103027344 14.616729736328125 14.049246788024902344 13.628367424011230469 13.095122337341308594 12.844893455505371094 11.773705482482910156 12.598043441772460938 12.394818305969238281 11.623382568359375 12.977956771850585938 13.142441749572753906 13.297553062438964844 14.099585533142089844 15.973596572875976563 17.632610321044921875 18.302850723266601563 18.810567855834960938 19.530765533447265625 19.711353302001953125 19.845724105834960938 20.591882705688476563 22.4224090576171875 23.667982101440429688 24.32358551025390625 24.441953659057617188 24.261096954345703125 24.130767822265625 24.056491851806640625 23.9104156494140625 23.59020233154296875 22.889120101928710938 22.479818344116210938 22.363542556762695313 22.286424636840820313 22.33545684814453125 22.790498733520507813 23.540513992309570313 23.826734542846679688 23.917346954345703125 24.016893386840820313 -9999 -9999 -9999 -9999 -9999 -9999 -9999 -9999 -9999 -9999 -9999 -9999
 -9999 -9999 -9999 -9999 -9999 -9999 -9999 -9999 -9999 -9999 -9999 -9999 -9999 -9999 -9999 -9999 -9999 -9999 -9999 26.909030914306640625 26.881811141967773438 26.8823089599609375 26.914556503295898438 26.944339752197265625 26.928304672241210938 26.76512908935546875 26.617147445678710938 26.472133636474609375 26.32256317138671875 26.18488311767578125 26.013101577758789063 25.877920150756835938 25.851770401000976563 25.879934310913085938 25.862405776977539063 25.77993011474609375 25.74737548828125 25.805429458618164063 25.917797088623046875 26.1895904541015625 26.545207977294921875 26.638751983642578125 26.46733856201171875 26.189474105834960938 26.190277099609375 26.216419219970703125 25.938520431518554688 25.477718353271484375 24.883703231811523438 24.311849594116210938 24.247320175170898438 24.556669235229492188 24.880832672119140625 25.349916458129882813 25.25394439697265625 24.39803314208984375 23.098901748657226563 21.443126678466796875 19.564348220825195313 18.815122604370117188 18.4405670166015625 18.090875625610351563 18.578460693359375 19.465917587280273438 19.1374053955078125 18.879459381103515625 18.107019424438476563 16.805341720581054688 16.374151229858398438 16.570171356201171875 16.702772140502929688 16.175960540771484375 15.608576774597167969 15.055812835693359375 13.657672882080078125 13.268342018127441406 13.196995735168457031 14.266689300537109375 14.376154899597167969 14.468403816223144531 14.751547813415527344 15.357447624206542969 16.0130767822265625 16.154184341430664063 15.510728836059570313 14.325192451477050781 13.72541046142578125 13.305470466613769531 13.0828857421875 12.0220489501953125 12.898247718811035156 12.693385124206542969 11.718216896057128906 13.049897193908691406 13.224116325378417969 13.33941650390625 13.769389152526855469 14.571352005004882813 15.31005859375 15.869839668273925781 16.547092437744140625 17.462612152099609375 18.05892181396484375 18.47894287109375 19.359386444091796875 21.3605804443359375 22.797185897827148438 23.920087814331054688 24.520313262939453125 24.656438827514648438 24.566587448120117188 24.3368072509765625 24.107290267944335938 23.903707504272460938 23.562198638916015625 23.382974624633789063 23.320171356201171875 23.31824493408203125 23.402914047241210938 23.601888656616210938 23.819711685180664063 23.9119415283203125 24.03791046142578125 24.120574951171875 -9999 -9999 -9999 -9999 -9999 -9999 -9999 -9999 -9999 -9999 -9999 -9999
 -9999 -9999 -9999 -9999 -9999 -9999 -9999 -9999 -9999 -9999 -9999 -9999 -9999 -9999 -9999 -9999 -9999 -9999 -9999 -9999 27.063663482666015625 27.085481643676757813 27.092859268188476563 27.100128173828125 27.04474639892578125 26.832378387451171875 26.674676895141601563 26.544313430786132813 26.430295944213867188 26.328853607177734375 26.16817474365234375 26.016754150390625 25.942094802856445313 25.871471405029296875 25.847461700439453125 25.827394485473632813 25.804536819458007813 25.918142318725585938 26.088373184204101563 26.373792648315429688 26.697397232055664063 26.752000808715820313 26.53972625732421875 26.264301300048828125 26.22760772705078125 26.255239486694335938 25.966497421264648438 25.487195968627929688 24.497219085693359375 23.272466659545898438 22.921176910400390625 23.162714004516601563 23.473798751831054688 23.671657562255859375 23.547388076782226563 22.590764999389648438 21.270198822021484375 19.48954010009765625 18.1937408447265625 17.785091400146484375 17.473133087158203125 17.009202957153320313 16.980897903442382813 17.213970184326171875 16.98989105224609375 16.776330947875976563 16.1269989013671875 15.057974815368652344 14.675536155700683594 13.674136161804199219 14.893253326416015625 13.668323516845703125 13.664607048034667969 13.660230636596679688 14.813219070434570313 14.554686546325683594 14.605310440063476563 14.692842483520507813 14.816999435424804688 15.165740966796875 16.005159378051757813 17.15511322021484375 17.521120071411132813 16.930074691772460938 15.727972984313964844 14.492841720581054688 13.901408195495605469 13.390960693359375 12.094844818115234375 13.2109527587890625 13.228199005126953125 13.038056373596191406 11.851734161376953125 12.14907073974609375 13.368669509887695313 13.467975616455078125 13.693190574645996094 14.0062255859375 14.384584426879882813 14.912337303161621094 15.500753402709960938 16.306985855102539063 17.259229660034179688 17.91980743408203125 18.65234375 20.314640045166015625 21.965114593505859375 23.454561233520507813 24.471805572509765625 24.88896942138671875 24.926351547241210938 24.658933639526367188 24.359628677368164063 24.212871551513671875 24.08437347412109375 24.0357513427734375 24.024646759033203125 24.118892669677734375 24.209728240966796875 24.181287765502929688 24.029371261596679688 24.052227020263671875 24.168630599975585938 -9999 -9999 -9999 -9999 -9999 -9999 -9999 -9999 -9999 -9999 -9999 -9999 -9999
 -9999 -9999 -9999 -9999 -9999 -9999 -9999 -9999 -9999 -9999 -9999 -9999 -9999 -9999 -9999 -9999 -9999 -9999 -9999 -9999 -9999 27.234025955200195313 27.22296142578125 27.207767486572265625 27.130865097045898438 26.945123672485351563 26.805738449096679688 26.709611892700195313 26.6090240478515625 26.468252182006835938 26.289766311645507813 26.063596725463867188 25.962614059448242188 25.914575576782226563 25.908740997314453125 25.945911407470703125 25.975381851196289063 26.013950347900390625 26.189687728881835938 26.53208160400390625 26.873270034790039063 26.913141250610351563 26.66437530517578125 26.343074798583984375 26.2252655029296875 26.285099029541015625 26.05859375 25.489492416381835938 24.198223114013671875 22.781032562255859375 22.349740982055664063 22.476503372192382813 22.5934600830078125 22.35880279541015625 21.669246673583984375 20.191385269165039063 19.184032440185546875 18.371091842651367188 17.826501846313476563 16.515256881713867188 16.285745620727539063 15.870649337768554688 15.660230636596679688 15.513774871826171875 16.320898056030273438 15.992551803588867188 15.445982933044433594 13.971515655517578125 13.877390861511230469 15.029999732971191406 13.671072959899902344 15.247357368469238281 15.320796012878417969 15.294825553894042969 15.142053604125976563 14.981706619262695313 14.94037628173828125 14.987548828125 15.246103286743164063 15.882272720336914063 16.911640167236328125 18.109645843505859375 18.358715057373046875 17.437397003173828125 15.629974365234375 14.511044502258300781 13.965174674987792969 13.236975669860839844 12.098527908325195313 13.408314704895019531 13.625365257263183594 13.465662956237792969 13.121951103210449219 12.251563072204589844 13.496283531188964844 13.619274139404296875 13.822421073913574219 14.144726753234863281 14.553960800170898438 15.073975563049316406 15.580996513366699219 16.154041290283203125 16.973947525024414063 17.665391921997070313 18.5427398681640625 20.438419342041015625 21.971424102783203125 23.27135467529296875 24.331134796142578125 24.937223434448242188 25.116220474243164063 24.880350112915039063 24.627803802490234375 24.490732192993164063 24.3451385498046875 24.351749420166015625 24.392744064331054688 24.42151641845703125 24.502531051635742188 24.454647064208984375 24.234830856323242188 24.242994308471679688 24.323945999145507813 -9999 -9999 -9999 -9999 -9999 -9999 -9999 -9999 -9999 -9999 -9999 -9999 -9999
 -9999 -9999 -9999 -9999 -9999 -9999 -9999 -9999 -9999 -9999 -9999 -9999 -9999 -9999 -9999 -9999 -9999 -9999 -9999 -9999 -9999 -9999 27.283933639526367188 27.259244918823242188 27.212137222290039063 27.14119720458984375 27.003887176513671875 26.930841445922851563 26.799047470092773438 26.593950271606445313 26.412570953369140625 26.293735504150390625 26.201709747314453125 26.067975997924804688 26.058824539184570313 26.118890762329101563 26.170057296752929688 26.200773239135742188 26.386434555053710938 26.687068939208984375 26.928377151489257813 26.936328887939453125 26.724140167236328125 26.414142608642578125 26.140262603759765625 26.101278305053710938 25.857816696166992188 25.111032485961914063 23.622472763061523438 22.004373550415039063 21.464433670043945313 21.508174896240234375 21.619556427001953125 21.172496795654296875 20.057199478149414063 18.99456024169921875 18.480585098266601563 16.957086563110351563 16.78456878662109375 17.656040191650390625 17.287233352661132813 16.879344940185546875 16.657419204711914063 15.434804916381835938 15.178775787353515625 15.992600440979003906 14.073525428771972656 15.581521034240722656 15.614244461059570313 15.654610633850097656 15.720947265625 15.7375946044921875 15.75852203369140625 15.683354377746582031 15.5800018310546875 15.453344345092773438 15.302004814147949219 15.265320777893066406 15.598302841186523438 16.640703201293945313 17.745313644409179688 18.58060455322265625 18.710012435913085938 17.694898605346679688 15.484391212463378906 14.471776008605957031 14.043016433715820313 12.362039566040039063 12.331543922424316406 13.6191558837890625 14.069731712341308594 14.095541000366210938 13.61995697021484375 12.363444328308105469 12.58777618408203125 13.771440505981445313 14.041325569152832031 14.564012527465820313 15.156710624694824219 15.691802024841308594 16.119476318359375 16.320156097412109375 16.7412261962890625 17.45644378662109375 18.622625350952148438 21.001306533813476563 22.44686126708984375 23.338222503662109375 24.069482803344726563 24.7570343017578125 25.108663558959960938 24.98641204833984375 24.811307907104492188 24.703233718872070313 24.557704925537109375 24.539148330688476563 24.5578155517578125 24.504926681518554688 24.559722900390625 24.552457809448242188 24.411848068237304688 -9999 -9999 -9999 -9999 -9999 -9999 -9999 -9999 -9999 -9999 -9999 -9999 -9999 -9999 -9999
 -9999 -9999 -9999 -9999 -9999 -9999 -9999 -9999 -9999 -9999 -9999 -9999 -9999 -9999 -9999 -9999 -9999 -9999 -9999 -9999 -9999 -9999 -9999 -9999 27.290212631225585938 27.332506179809570313 27.2870941162109375 27.141845703125 26.89408111572265625 26.704004287719726563 26.5955047607421875 26.583866119384765625 26.492244720458984375 26.293697357177734375 26.33364105224609375 26.398273468017578125 26.472890853881835938 26.5443878173828125 26.691743850708007813 26.833202362060546875 26.828325271606445313 26.8004302978515625 26.71923828125 26.40309906005859375 25.94351959228515625 25.68338775634765625 25.131633758544921875 24.04306793212890625 22.703044891357421875 21.21059417724609375 20.657289505004882813 20.559419631958007813 20.485902786254882813 18.875810623168945313 18.504877090454101563 17.972471237182617188 17.72827911376953125 17.09574127197265625 18.168664932250976563 17.833425521850585938 17.293970108032226563 16.841497421264648438 16.612459182739257813 16.445066452026367188 15.178775787353515625 14.157382011413574219 16.29877471923828125 16.408084869384765625 16.3809051513671875 16.194513320922851563 16.126665115356445313 16.159738540649414063 16.219217300415039063 16.178503036499023438 16.141416549682617188 16.033273696899414063 15.798974037170410156 15.76308441162109375 16.266056060791015625 17.446859359741210938 18.1903533935546875 18.45843505859375 18.304874420166015625 17.169124603271484375 15.028582572937011719 14.122958183288574219 13.867876052856445313 12.406462669372558594 13.358547210693359375 13.458282470703125 14.150476455688476563 14.521870613098144531 14.053755760192871094 13.625911712646484375 12.725630760192871094 13.883222579956054688 14.240315437316894531 15.058584213256835938 15.936831474304199219 16.33399200439453125 16.389432907104492188 16.410400390625 16.681768417358398438 17.260244369506835938 18.345144271850585938 20.664091110229492188 22.109045028686523438 22.797441482543945313 23.4276885986328125 24.234315872192382813 24.85821533203125 24.972856521606445313 24.882425308227539063 24.819141387939453125 24.717563629150390625 24.631011962890625 24.61869049072265625 24.591196060180664063 24.607959747314453125 -9999 -9999 -9999 -9999 -9999 -9999 -9999 -9999 -9999 -9999 -9999 -9999 -9999 -9999 -9999 -9999 -9999
 -9999 -9999 -9999 -9999 -9999 -9999 -9999 -9999 -9999 -9999 -9999 -9999 -9999 -9999 -9999 -9999 -9999 -9999 -9999 -9999 -9999 -9999 -9999 -9999 -9999 -9999 -9999 -9999 -9999 26.837408065795898438 26.750152587890625 26.7146148681640625 26.614545822143554688 26.450925827026367188 26.5749969482421875 26.677295684814453125 26.804046630859375 26.88519287109375 26.965570449829101563 27.002498626708984375 26.897310256958007813 26.851984024047851563 26.830707550048828125 26.48070526123046875 25.63935089111328125 24.904260635375976563 23.959033966064453125 22.87430572509765625 21.794702529907226563 20.79279327392578125 19.554128646850585938 19.540225982666015625 19.314657211303710938 20.518110275268554688 20.083248138427734375 19.675973892211914063 19.469163894653320313 19.28340911865234375 18.532257080078125 17.946851730346679688 17.267360687255859375 16.820766448974609375 16.577264785766601563 15.368517875671386719 16.79425811767578125 17.049739837646484375 17.24536895751953125 17.287134170532226563 17.13791656494140625 16.751344680786132813 16.553300857543945313 16.543889999389648438 16.55257415771484375 16.514734268188476563 16.477182388305664063 16.37299346923828125 16.242071151733398438 16.464433670043945313 17.359361648559570313 18.177158355712890625 18.114400863647460938 17.791769027709960938 17.235902786254882813 15.826665878295898438 14.111779212951660156 12.459065437316894531 12.435940742492675781 12.429112434387207031 13.266912460327148438 13.437310218811035156 14.399678230285644531 14.878880500793457031 14.391135215759277344 13.947705268859863281 12.880182266235351563 13.964278221130371094 14.35941314697265625 15.276683807373046875 16.223907470703125 16.515226364135742188 16.474836349487304688 16.631591796875 16.97296142578125 17.349969863891601563 17.936113357543945313 19.349683761596679688 20.653459548950195313 21.571569442749023438 22.807336807250976563 23.984125137329101563 24.713178634643554688 24.953907012939453125 24.924428939819335938 24.887813568115234375 -9999 -9999 -9999 -9999 -9999 -9999 -9999 -9999 -9999 -9999 -9999 -9999 -9999 -9999 -9999 -9999 -9999 -9999 -9999 -9999 -9999 -9999
 -9999 -9999 -9999 -9999 -9999 -9999 -9999 -9999 -9999 -9999 -9999 -9999 -9999 -9999 -9999 -9999 -9999 -9999 -9999 -9999 -9999 -9999 -9999 -9999 -9999 -9999 -9999 -9999 -9999 27.07129669189453125 26.92337799072265625 26.748128890991210938 26.659605026245117188 26.613271713256835938 26.664434432983398438 26.70363616943359375 26.8446197509765625 27.031707763671875 27.102039337158203125 27.042222976684570313 26.973323822021484375 26.947467803955078125 26.918691635131835938 26.500652313232421875 25.3105926513671875 24.3358001708984375 23.254718780517578125 22.3327484130859375 21.64756011962890625 20.360185623168945313 21.553068161010742188 21.978284835815429688 21.72650146484375 21.539781570434570313 21.50140380859375 21.30428314208984375 20.709959030151367188 19.924686431884765625 18.360292434692382813 17.578655242919921875 17.16902923583984375 16.885135650634765625 15.76390838623046875 16.922626495361328125 17.38634490966796875 17.825834274291992188 18.099992752075195313 17.92877197265625 17.647348403930664063 17.225378036499023438 17.110891342163085938 17.236520767211914063 17.162294387817382813 16.970205307006835938 16.788730621337890625 16.5655670166015625 16.524181365966796875 16.989612579345703125 18.186407089233398438 18.5984039306640625 17.9140167236328125 17.151798248291015625 16.188833236694335938 14.779793739318847656 12.731970787048339844 12.511982917785644531 13.587826728820800781 13.642856597900390625 13.431245803833007813 13.764613151550292969 15.008347511291503906 15.307976722717285156 14.693301200866699219 14.257503509521484375 13.115842819213867188 14.11879730224609375 14.315263748168945313 14.96295166015625 15.9682159423828125 16.619108200073242188 16.979112625122070313 17.114749908447265625 17.319250106811523438 17.631494522094726563 17.987775802612304688 18.797304153442382813 19.7836456298828125 21.008945465087890625 22.844295501708984375 24.2713775634765625 24.848918914794921875 24.99694061279296875 24.984785079956054688 24.967342376708984375 -9999 -9999 -9999 -9999 -9999 -9999 -9999 -9999 -9999 -9999 -9999 -9999 -9999 -9999 -9999 -9999 -9999 -9999 -9999 -9999 -9999 -9999
 -9999 -9999 -9999 -9999 -9999 -9999 -9999 -9999 -9999 -9999 -9999 -9999 -9999 -9999 -9999 -9999 -9999 -9999 -9999 -9999 -9999 -9999 -9999 -9999 -9999 -9999 -9999 -9999 -9999 27.300237655639648438 27.064968109130859375 26.786195755004882813 26.715061187744140625 26.75022125244140625 26.683712005615234375 26.574626922607421875 26.712545394897460938 26.963434219360351563 27.035482406616210938 26.916324615478515625 26.924509048461914063 26.98863983154296875 27.015962600708007813 26.45334625244140625 25.103672027587890625 24.117794036865234375 23.035839080810546875 22.350652694702148438 22.375040054321289063 23.018186569213867188 23.3449249267578125 23.239048004150390625 22.607412338256835938 22.460893630981445313 22.90134429931640625 22.716867446899414063 21.628152847290039063 20.339231491088867188 18.291540145874023438 17.4121246337890625 17.152862548828125 15.938579559326171875 16.939672470092773438 17.159326553344726563 17.742712020874023438 18.269542694091796875 18.611116409301757813 18.241815567016601563 17.906862258911132813 17.600164413452148438 17.660495758056640625 18.250326156616210938 18.238355636596679688 17.590768814086914063 17.125520706176757813 16.771196365356445313 16.711164474487304688 17.228406906127929688 18.470424652099609375 18.76367950439453125 17.952508926391601563 16.727863311767578125 15.280805587768554688 14.140124320983886719 12.809144973754882813 13.946541786193847656 13.969539642333984375 13.772932052612304688 13.567495346069335938 14.0516204833984375 15.331995964050292969 15.485841751098632813 14.867944717407226563 14.464903831481933594 14.283410072326660156 13.229839324951171875 14.242517471313476563 14.563357353210449219 15.55150604248046875 16.91886138916015625 18.038692474365234375 17.706480026245117188 17.545345306396484375 17.859792709350585938 18.19574737548828125 18.803995132446289063 19.532163619995117188 20.955196380615234375 23.152742385864257813 24.571481704711914063 24.982639312744140625 25.0523223876953125 25.074777603149414063 25.08124542236328125 -9999 -9999 -9999 -9999 -9999 -9999 -9999 -9999 -9999 -9999 -9999 -9999 -9999 -9999 -9999 -9999 -9999 -9999 -9999 -9999 -9999 -9999
 -9999 -9999 -9999 -9999 -9999 -9999 -9999 -9999 -9999 -9999 -9999 -9999 -9999 -9999 -9999 -9999 -9999 -9999 -9999 -9999 -9999 -9999 -9999 -9999 -9999 -9999 -9999 -9999 -9999 27.407297134399414063 27.145877838134765625 26.851596832275390625 26.779817581176757813 26.825092315673828125 26.771419525146484375 26.6583709716796875 26.760997772216796875 26.939092636108398438 26.934844970703125 26.823505401611328125 26.915798187255859375 27.00656890869140625 26.90976715087890625 26.120504379272460938 24.87892913818359375 24.01575469970703125 23.076494216918945313 22.630243301391601563 23.08231353759765625 23.984466552734375 24.270732879638671875 23.961572647094726563 23.320302963256835938 23.178941726684570313 23.529924392700195313 23.120985031127929688 21.822948455810546875 20.427600860595703125 18.335052490234375 17.466600418090820313 16.270986557006835938 17.17840576171875 17.4346923828125 17.8316192626953125 18.459608078002929688 18.914461135864257813 19.083803176879882813 18.4969940185546875 18.134307861328125 18.034742355346679688 18.383136749267578125 19.038135528564453125 18.87754058837890625 17.912244796752929688 17.315753936767578125 16.966173171997070313 16.918737411499023438 17.432924270629882813 18.6273651123046875 18.7286529541015625 17.609418869018554688 16.263795852661132813 14.872803688049316406 13.061270713806152344 14.02188873291015625 14.245516777038574219 14.226789474487304688 13.91663360595703125 13.750939369201660156 14.343487739562988281 15.441816329956054688 15.47662353515625 14.946801185607910156 14.584799766540527344 14.397496223449707031 14.32543182373046875 14.284284591674804688 14.623362541198730469 15.897081375122070313 17.670246124267578125 19.068141937255859375 18.76519012451171875 18.507947921752929688 18.631425857543945313 18.801708221435546875 19.1479339599609375 19.655771255493164063 20.866487503051757813 22.804674148559570313 24.205051422119140625 24.83896636962890625 25.011888504028320313 25.074527740478515625 25.096294403076171875 -9999 -9999 -9999 -9999 -9999 -9999 -9999 -9999 -9999 -9999 -9999 -9999 -9999 -9999 -9999 -9999 -9999 -9999 -9999 -9999 -9999 -9999
 -9999 -9999 -9999 -9999 -9999 -9999 -9999 -9999 -9999 -9999 -9999 -9999 -9999 -9999 -9999 -9999 -9999 -9999 -9999 -9999 -9999 -9999 -9999 -9999 -9999 -9999 -9999 -9999 -9999 27.473590850830078125 27.231122970581054688 26.98248291015625 26.897523880004882813 26.910442352294921875 26.966068267822265625 26.964374542236328125 26.95734405517578125 26.941389083862304688 26.769741058349609375 26.7085723876953125 26.892412185668945313 26.863370895385742188 26.289958953857421875 25.239866256713867188 24.456567764282226563 23.939779281616210938 23.498147964477539063 23.610383987426757813 24.320720672607421875 24.878942489624023438 25.007633209228515625 24.867950439453125 24.516202926635742188 24.255083084106445313 23.872806549072265625 22.634622573852539063 21.109104156494140625 19.923833847045898438 18.316831588745117188 17.710887908935546875 16.587188720703125 18.0655975341796875 18.911518096923828125 19.679088592529296875 20.21826934814453125 20.388376235961914063 20.054903030395507813 19.036504745483398438 18.61870574951171875 18.931674957275390625 19.843599319458007813 20.131799697875976563 19.4260101318359375 18.150926589965820313 17.51241302490234375 17.379384994506835938 17.597009658813476563 18.10697174072265625 18.922260284423828125 18.289617538452148438 16.520059585571289063 15.406890869140625 14.633495330810546875 13.378113746643066406 14.476700782775878906 14.668951988220214844 14.666311264038085938 14.449061393737792969 14.522244453430175781 15.361827850341796875 15.94612884521484375 15.5710601806640625 15.145158767700195313 14.823479652404785156 14.610532760620117188 14.514651298522949219 14.443467140197753906 14.97145843505859375 16.860151290893554688 19.047254562377929688 20.495042800903320313 20.89239501953125 20.868474960327148438 20.668827056884765625 20.44036102294921875 20.125762939453125 20.198970794677734375 20.729692459106445313 21.726198196411132813 23.05828094482421875 24.309450149536132813 24.802387237548828125 24.940662384033203125 24.978534698486328125 -9999 -9999 -9999 -9999 -9999 -9999 -9999 -9999 -9999 -9999 -9999 -9999 -9999 -9999 -9999 -9999 -9999 -9999 -9999 -9999 -9999 -9999
 -9999 -9999 -9999 -9999 -9999 -9999 -9999 -9999 -9999 -9999 -9999 -9999 -9999 -9999 -9999 -9999 -9999 -9999 -9999 -9999 -9999 -9999 -9999 -9999 -9999 -9999 -9999 -9999 -9999 -9999 27.226339340209960938 27.055822372436523438 26.98004913330078125 26.965368270874023438 26.994596481323242188 26.953180313110351563 26.84030914306640625 26.770351409912109375 26.570039749145507813 26.461627960205078125 26.450910568237304688 26.174180984497070313 25.355733871459960938 24.69058990478515625 24.392269134521484375 24.27481842041015625 24.48070526123046875 25.112646102905273438 25.537336349487304688 25.550451278686523438 25.48503875732421875 25.319784164428710938 24.969244003295898438 24.539476394653320313 23.40399169921875 20.950658798217773438 19.256944656372070313 18.694063186645507813 18.290895462036132813 16.772016525268554688 18.689138412475585938 19.334787368774414063 20.466276168823242188 21.38625335693359375 21.661785125732421875 21.458484649658203125 20.798580169677734375 19.580987930297851563 19.1986541748046875 19.761705398559570313 20.76885986328125 20.712022781372070313 19.561258316040039063 18.204652786254882813 17.601816177368164063 17.8297271728515625 18.6278839111328125 19.08385467529296875 18.923273086547851563 17.300785064697265625 15.734006881713867188 15.03900909423828125 14.651230812072753906 13.567198753356933594 14.890547752380371094 15.092372894287109375 15.227384567260742188 15.45304107666015625 16.065298080444335938 17.290288925170898438 17.456232070922851563 16.459238052368164063 15.673849105834960938 15.19577789306640625 14.819987297058105469 14.647263526916503906 14.496897697448730469 14.7616729736328125 16.43603515625 19.007600784301757813 20.72597503662109375 21.768526077270507813 22.240167617797851563 22.36571502685546875 22.140096664428710938 21.515130996704101563 21.23207855224609375 21.22565460205078125 21.521869659423828125 22.414348602294921875 23.65940093994140625 24.382534027099609375 24.6763763427734375 24.750684738159179688 -9999 -9999 -9999 -9999 -9999 -9999 -9999 -9999 -9999 -9999 -9999 -9999 -9999 -9999 -9999 -9999 -9999 -9999 -9999 -9999 -9999 -9999
 -9999 -9999 -9999 -9999 -9999 -9999 -9999 -9999 -9999 -9999 -9999 -9999 -9999 -9999 -9999 -9999 -9999 -9999 -9999 -9999 -9999 -9999 -9999 -9999 -9999 -9999 -9999 -9999 -9999 -9999 27.215856552124023438 27.054285049438476563 27.012630462646484375 27.064153671264648438 27.0080413818359375 26.821382522583007813 26.638391494750976563 26.51653289794921875 26.282072067260742188 25.9944915771484375 25.622518539428710938 25.33286285400390625 24.978712081909179688 24.867595672607421875 24.820005416870117188 25.050863265991210938 25.596815109252929688 25.941984176635742188 25.939443588256835938 25.6607513427734375 25.498691558837890625 25.301700592041015625 24.7845001220703125 23.7080535888671875 21.78296661376953125 19.286367416381835938 18.2282867431640625 18.275526046752929688 16.829816818237304688 19.1648712158203125 19.792724609375 20.453451156616210938 21.577272415161132813 22.567911148071289063 22.822061538696289063 22.234495162963867188 21.26076507568359375 20.16509246826171875 19.983350753784179688 20.64427947998046875 21.2184600830078125 20.795598983764648438 19.500680923461914063 18.227476119995117188 17.67092132568359375 18.056049346923828125 19.0771331787109375 19.385660171508789063 18.527286529541015625 16.508678436279296875 15.398218154907226563 14.971780776977539063 13.841663360595703125 15.07303619384765625 15.377330780029296875 15.586297035217285156 15.863771438598632813 16.558467864990234375 17.60398101806640625 18.950168609619140625 19.135480880737304688 18.038852691650390625 16.492733001708984375 15.605729103088378906 15.044874191284179688 14.766491889953613281 14.501233100891113281 14.539890289306640625 15.827969551086425781 18.40920257568359375 20.415418624877929688 21.95391082763671875 22.907289505004882813 23.426416397094726563 23.56189727783203125 23.44788360595703125 23.02339935302734375 22.361597061157226563 21.913234710693359375 22.128353118896484375 22.9096527099609375 23.716838836669921875 24.303026199340820313 24.4814605712890625 -9999 -9999 -9999 -9999 -9999 -9999 -9999 -9999 -9999 -9999 -9999 -9999 -9999 -9999 -9999 -9999 -9999 -9999 -9999 -9999 -9999 -9999
 -9999 -9999 -9999 -9999 -9999 -9999 -9999 -9999 -9999 -9999 -9999 -9999 -9999 -9999 -9999 -9999 -9999 -9999 -9999 -9999 -9999 -9999 -9999 -9999 -9999 -9999 -9999 -9999 -9999 -9999 27.268604278564453125 27.014759063720703125 26.993297576904296875 27.196004867553710938 27.189004898071289063 26.962339401245117188 26.709596633911132813 26.453641891479492188 26.187030792236328125 25.848440170288085938 25.457225799560546875 25.325864791870117188 25.436960220336914063 25.664693832397460938 25.615688323974609375 25.75775909423828125 26.142728805541992188 26.156583786010742188 25.896036148071289063 25.459430694580078125 25.1907958984375 24.834493637084960938 23.902111053466796875 21.705554962158203125 19.398189544677734375 18.125034332275390625 18.02419281005859375 16.925691604614257813 19.43796539306640625 20.141767501831054688 21.003589630126953125 21.859838485717773438 22.925348281860351563 23.58524322509765625 23.473283767700195313 22.673326492309570313 21.499601364135742188 20.666713714599609375 20.6768035888671875 21.2654876708984375 21.318035125732421875 20.495357513427734375 19.355783462524414063 18.322450637817382813 17.81652069091796875 18.22153472900390625 19.159008026123046875 19.229524612426757813 18.026981353759765625 16.237997055053710938 15.381669044494628906 14.162432670593261719 15.347617149353027344 15.787736892700195313 16.0677490234375 16.359447479248046875 16.714334487915039063 17.537427902221679688 18.655567169189453125 19.66841888427734375 19.819284439086914063 18.970949172973632813 17.210714340209960938 15.95143890380859375 15.228467941284179688 14.91161346435546875 14.696816444396972656 14.981626510620117188 16.141370773315429688 17.885379791259765625 19.658655166625976563 21.378452301025390625 22.614711761474609375 23.449981689453125 23.8566741943359375 24.162893295288085938 23.945089340209960938 23.283437728881835938 22.601106643676757813 22.444753646850585938 22.708164215087890625 23.274084091186523438 23.97270965576171875 24.227666854858398438 -9999 -9999 -9999 -9999 -9999 -9999 -9999 -9999 -9999 -9999 -9999 -9999 -9999 -9999 -9999 -9999 -9999 -9999 -9999 -9999 -9999 -9999
 -9999 -9999 -9999 -9999 -9999 -9999 -9999 -9999 -9999 -9999 -9999 -9999 -9999 -9999 -9999 -9999 -9999 -9999 -9999 -9999 -9999 -9999 -9999 -9999 -9999 -9999 -9999 -9999 -9999 -9999 27.45262908935546875 27.184434890747070313 27.148990631103515625 27.334310531616210938 27.350231170654296875 27.200437545776367188 26.985498428344726563 26.755395889282226563 26.558305740356445313 26.301683425903320313 26.15717315673828125 26.205852508544921875 26.404003143310546875 26.474109649658203125 26.342084884643554688 26.178009033203125 26.275363922119140625 26.160818099975585938 25.743928909301757813 25.11560821533203125 24.660783767700195313 23.8455810546875 22.32750701904296875 20.124776840209960938 18.608385086059570313 18.023229598999023438 16.9890899658203125 19.058919906616210938 20.66690826416015625 21.505964279174804688 22.217519760131835938 23.124887466430664063 23.80579376220703125 23.942571640014648438 23.469072341918945313 22.445461273193359375 21.3391876220703125 20.997714996337890625 21.16849517822265625 21.560865402221679688 21.351091384887695313 20.30916595458984375 18.977224349975585938 18.254117965698242188 18.042018890380859375 18.556169509887695313 19.255758285522460938 18.900022506713867188 17.230556488037109375 15.936413764953613281 15.421936988830566406 14.216963768005371094 16.052877426147460938 16.5812835693359375 16.973215103149414063 17.463277816772460938 17.79883575439453125 18.370592117309570313 19.234933853149414063 19.917383193969726563 20.012065887451171875 19.3441619873046875 17.669872283935546875 16.151035308837890625 15.246170997619628906 14.960484504699707031 14.982197761535644531 15.54241180419921875 16.550523757934570313 17.458539962768554688 18.368642807006835938 19.58155059814453125 20.897464752197265625 22.093755722045898438 22.83917236328125 23.748180389404296875 24.114393234252929688 23.985818862915039063 23.549213409423828125 23.181875228881835938 23.0003509521484375 23.174734115600585938 23.717071533203125 23.962442398071289063 -9999 -9999 -9999 -9999 -9999 -9999 -9999 -9999 -9999 -9999 -9999 -9999 -9999 -9999 -9999 -9999 -9999 -9999 -9999 -9999 -9999 -9999
 -9999 -9999 -9999 -9999 -9999 -9999 -9999 -9999 -9999 -9999 -9999 -9999 -9999 -9999 -9999 -9999 -9999 -9999 -9999 -9999 -9999 -9999 -9999 -9999 -9999 -9999 -9999 -9999 -9999 -9999 27.767154693603515625 27.620670318603515625 27.529193878173828125 27.468378067016601563 27.4609222412109375 27.415010452270507813 27.307298660278320313 27.137292861938476563 26.98229217529296875 26.864694595336914063 26.920511245727539063 26.993558883666992188 27.02734375 26.944011688232421875 26.800138473510742188 26.476816177368164063 26.348897933959960938 26.032300949096679688 25.35616302490234375 24.616588592529296875 24.127168655395507813 22.924869537353515625 20.79274749755859375 19.371500015258789063 18.775701522827148438 17.41889190673828125 19.168537139892578125 20.271938323974609375 22.17671966552734375 23.047082901000976563 23.49691009521484375 23.949644088745117188 24.1257171630859375 23.859231948852539063 23.19509124755859375 22.191873550415039063 21.428531646728515625 21.464786529541015625 21.652654647827148438 21.7342681884765625 21.273855209350585938 20.1392364501953125 18.677764892578125 18.241636276245117188 18.428426742553710938 19.160734176635742188 19.586000442504882813 18.834964752197265625 16.710493087768554688 15.628702163696289063 14.361195564270019531 15.823282241821289063 16.63178253173828125 17.081903457641601563 17.3898162841796875 17.760623931884765625 18.150150299072265625 18.9277496337890625 19.661128997802734375 20.121288299560546875 20.175962448120117188 19.5486297607421875 17.859346389770507813 16.163919448852539063 15.206048965454101563 14.981325149536132813 15.147457122802734375 15.801972389221191406 16.779058456420898438 17.412771224975585938 17.862010955810546875 18.491729736328125 19.501413345336914063 20.645782470703125 21.535116195678710938 22.917926788330078125 23.868192672729492188 24.301698684692382813 24.282209396362304688 24.021820068359375 23.622522354125976563 23.4269256591796875 23.711141586303710938 23.89342498779296875 -9999 -9999 -9999 -9999 -9999 -9999 -9999 -9999 -9999 -9999 -9999 -9999 -9999 -9999 -9999 -9999 -9999 -9999 -9999 -9999 -9999 -9999
 -9999 -9999 -9999 -9999 -9999 -9999 -9999 -9999 -9999 -9999 -9999 -9999 -9999 -9999 -9999 -9999 -9999 -9999 -9999 -9999 -9999 -9999 -9999 -9999 -9999 -9999 -9999 -9999 -9999 -9999 28.144596099853515625 28.093313217163085938 27.961456298828125 27.688579559326171875 27.584873199462890625 27.57006072998046875 27.472753524780273438 27.289800643920898438 27.2393951416015625 27.1928558349609375 27.217151641845703125 27.249185562133789063 27.263980865478515625 27.25676727294921875 27.118303298950195313 26.645727157592773438 26.345960617065429688 25.727901458740234375 24.505620956420898438 23.715484619140625 23.321790695190429688 22.194232940673828125 20.214548110961914063 19.209348678588867188 18.049884796142578125 19.630739212036132813 20.72805023193359375 21.839750289916992188 23.3906402587890625 24.108989715576171875 24.424509048461914063 24.473537445068359375 24.194255828857421875 23.580499649047851563 22.724819183349609375 22.09894561767578125 22.000680923461914063 22.169549942016601563 22.224512100219726563 22.022497177124023438 21.276424407958984375 20.009309768676757813 18.82220458984375 18.523044586181640625 18.894865036010742188 19.743528366088867188 20.045919418334960938 19.064073562622070313 16.551904678344726563 15.4331817626953125 14.387693405151367188 15.909977912902832031 16.851322174072265625 17.330762863159179688 17.647397994995117188 17.914764404296875 18.371440887451171875 19.418436050415039063 20.1487579345703125 20.450450897216796875 20.360441207885742188 19.676042556762695313 18.016994476318359375 16.220220565795898438 15.254910469055175781 15.066778182983398438 15.329291343688964844 16.103883743286132813 16.988554000854492188 17.551357269287109375 17.938997268676757813 18.378238677978515625 19.17630767822265625 19.994136810302734375 20.837215423583984375 22.524494171142578125 23.847644805908203125 24.476383209228515625 24.663335800170898438 24.534824371337890625 24.170484542846679688 23.845119476318359375 23.904876708984375 23.986358642578125 -9999 -9999 -9999 -9999 -9999 -9999 -9999 -9999 -9999 -9999 -9999 -9999 -9999 -9999 -9999 -9999 -9999 -9999 -9999 -9999 -9999 -9999
 -9999 -9999 -9999 -9999 -9999 -9999 -9999 -9999 -9999 -9999 -9999 -9999 -9999 -9999 -9999 -9999 -9999 -9999 -9999 -9999 -9999 -9999 -9999 -9999 -9999 -9999 -9999 -9999 -9999 -9999 28.330965042114257813 28.307996749877929688 28.203929901123046875 27.90288543701171875 27.6471405029296875 27.6081085205078125 27.483816146850585938 27.377378463745117188 27.396028518676757813 27.324733734130859375 27.31542205810546875 27.347261428833007813 27.3785858154296875 27.382131576538085938 27.250261306762695313 26.700756072998046875 26.35420989990234375 25.454437255859375 23.605329513549804688 22.764104843139648438 22.246744155883789063 20.990261077880859375 19.86530303955078125 19.268186569213867188 18.214517593383789063 20.639081954956054688 21.674074172973632813 22.755083084106445313 24.38655853271484375 24.999904632568359375 24.971052169799804688 24.75490570068359375 24.199047088623046875 23.376657485961914063 22.518697738647460938 22.294607162475585938 22.794111251831054688 22.941362380981445313 22.765588760375976563 22.287067413330078125 21.392564773559570313 19.8251190185546875 18.834142684936523438 18.700868606567382813 19.130306243896484375 19.960145950317382813 20.225627899169921875 19.18487548828125 16.555009841918945313 15.44107818603515625 14.493636131286621094 16.008348464965820313 16.978397369384765625 17.583894729614257813 18.13338470458984375 18.45690155029296875 18.862112045288085938 19.827098846435546875 20.528789520263671875 20.68544769287109375 20.410448074340820313 19.670751571655273438 18.102365493774414063 16.3389129638671875 15.473791122436523438 15.27442169189453125 15.454169273376464844 16.304056167602539063 17.1393280029296875 17.727046966552734375 18.061288833618164063 18.480243682861328125 19.3909454345703125 20.189149856567382813 20.966732025146484375 22.597047805786132813 23.9718170166015625 24.653692245483398438 24.908483505249023438 24.875629425048828125 24.604274749755859375 24.342771530151367188 24.210519790649414063 24.182775497436523438 -9999 -9999 -9999 -9999 -9999 -9999 -9999 -9999 -9999 -9999 -9999 -9999 -9999 -9999 -9999 -9999 -9999 -9999 -9999 -9999 -9999 -9999
 -9999 -9999 -9999 -9999 -9999 -9999 -9999 -9999 -9999 -9999 -9999 -9999 -9999 -9999 -9999 -9999 -9999 -9999 -9999 -9999 -9999 -9999 -9999 -9999 -9999 -9999 -9999 -9999 -9999 -9999 28.376329421997070313 28.36756134033203125 28.26705169677734375 27.962003707885742188 27.649934768676757813 27.564302444458007813 27.481060028076171875 27.444856643676757813 27.475534439086914063 27.406435012817382813 27.383111953735351563 27.401475906372070313 27.39174652099609375 27.311906814575195313 27.19742584228515625 26.7707977294921875 26.4329833984375 25.612535476684570313 23.83251953125 22.929225921630859375 22.190488815307617188 20.604127883911132813 19.693574905395507813 18.3165435791015625 19.692453384399414063 21.103321075439453125 22.051202774047851563 23.181354522705078125 24.76807403564453125 25.289060592651367188 25.1227569580078125 24.79441070556640625 24.135240554809570313 23.27451324462890625 22.611917495727539063 22.608842849731445313 23.144708633422851563 23.173366546630859375 22.864500045776367188 22.1293487548828125 21.038450241088867188 19.585149765014648438 18.89510345458984375 19.02805328369140625 19.50240325927734375 20.138639450073242188 20.260387420654296875 19.194993972778320313 16.582624435424804688 15.496438026428222656 15.710010528564453125 16.539035797119140625 17.590831756591796875 18.079801559448242188 18.502748489379882813 18.760694503784179688 19.120594024658203125 20.008203506469726563 20.6576385498046875 20.746280670166015625 20.371356964111328125 19.486391067504882813 17.964952468872070313 16.460874557495117188 15.760498046875 15.535570144653320313 15.544116020202636719 16.297380447387695313 17.209489822387695313 17.920186996459960938 18.273309707641601563 18.744251251220703125 19.912738800048828125 20.969768524169921875 21.68880462646484375 22.942516326904296875 24.078105926513671875 24.747920989990234375 25.096286773681640625 25.120296478271484375 24.8813018798828125 24.658014297485351563 24.507404327392578125 24.464151382446289063 -9999 -9999 -9999 -9999 -9999 -9999 -9999 -9999 -9999 -9999 -9999 -9999 -9999 -9999 -9999 -9999 -9999 -9999 -9999 -9999 -9999 -9999
 -9999 -9999 -9999 -9999 -9999 -9999 -9999 -9999 -9999 -9999 -9999 -9999 -9999 -9999 -9999 -9999 -9999 -9999 -9999 -9999 -9999 -9999 -9999 -9999 -9999 -9999 -9999 -9999 -9999 -9999 -9999 28.433010101318359375 28.293842315673828125 27.946720123291015625 27.639825820922851563 27.470819473266601563 27.455850601196289063 27.499830245971679688 27.552972793579101563 27.534076690673828125 27.489933013916015625 27.464002609252929688 27.351461410522460938 27.106319427490234375 27.016910552978515625 26.856496810913085938 26.434099197387695313 26.070987701416015625 25.041570663452148438 23.961702346801757813 22.863590240478515625 20.810943603515625 19.666591644287109375 18.541172027587890625 20.28176116943359375 21.631597518920898438 22.597791671752929688 23.736761093139648438 24.896158218383789063 25.245744705200195313 25.100559234619140625 24.66680908203125 23.936092376708984375 23.146785736083984375 22.965005874633789063 23.207124710083007813 23.3596954345703125 23.154918670654296875 22.6614532470703125 21.398187637329101563 20.018842697143554688 19.282115936279296875 19.354761123657226563 19.949230194091796875 20.405117034912109375 20.3266448974609375 19.52863311767578125 18.3970794677734375 16.400953292846679688 15.692892074584960938 16.41449737548828125 17.923244476318359375 19.174299240112304688 19.376819610595703125 19.241544723510742188 19.16713714599609375 19.433109283447265625 20.228475570678710938 20.750463485717773438 20.759782791137695313 20.189168930053710938 18.875606536865234375 17.476530075073242188 16.617223739624023438 16.212646484375 15.955250740051269531 15.688923835754394531 16.182403564453125 17.338529586791992188 18.295734405517578125 18.725145339965820313 19.330158233642578125 20.9932403564453125 22.614210128784179688 23.252193450927734375 23.7583465576171875 24.364162445068359375 24.952428817749023438 25.408346176147460938 25.436182022094726563 25.209796905517578125 24.952075958251953125 -9999 -9999 -9999 -9999 -9999 -9999 -9999 -9999 -9999 -9999 -9999 -9999 -9999 -9999 -9999 -9999 -9999 -9999 -9999 -9999 -9999 -9999 -9999 -9999
 -9999 -9999 -9999 -9999 -9999 -9999 -9999 -9999 -9999 -9999 -9999 -9999 -9999 -9999 -9999 -9999 -9999 -9999 -9999 -9999 -9999 -9999 -9999 -9999 -9999 -9999 -9999 -9999 -9999 -9999 -9999 28.46987152099609375 28.273944854736328125 27.875858306884765625 27.636926651000976563 27.45705413818359375 27.334909439086914063 27.428739547729492188 27.555223464965820313 27.575252532958984375 27.566461563110351563 27.538522720336914063 27.392480850219726563 27.107503890991210938 26.941717147827148438 26.610948562622070313 25.778562545776367188 25.622686386108398438 25.01725006103515625 23.6122589111328125 22.42156219482421875 20.7035064697265625 19.818792343139648438 18.7162322998046875 21.575664520263671875 22.605865478515625 23.311191558837890625 24.068231582641601563 24.924497604370117188 25.2140655517578125 25.059156417846679688 24.55237579345703125 23.881315231323242188 23.293233871459960938 23.372293472290039063 23.603567123413085938 23.49036407470703125 23.176237106323242188 22.407909393310546875 20.658342361450195313 19.663774490356445313 19.635650634765625 20.253316879272460938 20.85455322265625 21.005094528198242188 19.931482315063476563 17.327556610107421875 16.158559799194335938 15.863214492797851563 16.205797195434570313 17.449228286743164063 18.914789199829101563 20.24514007568359375 20.65387725830078125 20.344905853271484375 19.883487701416015625 19.9439697265625 20.55853271484375 20.950733184814453125 20.76013946533203125 19.752593994140625 18.122030258178710938 17.03899383544921875 16.601886749267578125 16.356922149658203125 16.1212615966796875 15.794148445129394531 16.196237564086914063 17.48413848876953125 18.457881927490234375 18.803136825561523438 19.582960128784179688 21.681339263916015625 23.490980148315429688 24.10659027099609375 24.462711334228515625 24.877950668334960938 25.317104339599609375 25.61376190185546875 25.546939849853515625 25.33647918701171875 25.116270065307617188 -9999 -9999 -9999 -9999 -9999 -9999 -9999 -9999 -9999 -9999 -9999 -9999 -9999 -9999 -9999 -9999 -9999 -9999 -9999 -9999 -9999 -9999 -9999 -9999
 -9999 -9999 -9999 -9999 -9999 -9999 -9999 -9999 -9999 -9999 -9999 -9999 -9999 -9999 -9999 -9999 -9999 -9999 -9999 -9999 -9999 -9999 -9999 -9999 -9999 -9999 -9999 -9999 -9999 -9999 -9999 -9999 -9999 27.636255264282226563 27.554821014404296875 27.429691314697265625 27.261964797973632813 27.313482284545898438 27.483797073364257813 27.563829421997070313 27.617116928100585938 27.619096755981445313 27.518972396850585938 27.258817672729492188 26.811986923217773438 25.937290191650390625 24.738817214965820313 24.438734054565429688 23.824598312377929688 22.212558746337890625 21.212377548217773438 20.301410675048828125 19.046964645385742188 20.972665786743164063 22.830450057983398438 23.788553237915039063 24.205598831176757813 24.500579833984375 24.965608596801757813 25.152360916137695313 25.04987335205078125 24.660358428955078125 24.198530197143554688 23.87549591064453125 23.792623519897460938 23.658479690551757813 23.3273773193359375 22.845386505126953125 21.99889373779296875 20.41175079345703125 20.071323394775390625 20.515707015991210938 21.17205810546875 21.413396835327148438 21.159912109375 19.539831161499023438 16.412397384643554688 15.388623237609863281 15.970508575439453125 16.848535537719726563 18.013324737548828125 19.330249786376953125 20.561662673950195313 21.191005706787109375 21.04644775390625 20.478391647338867188 20.397764205932617188 20.838764190673828125 21.163728713989257813 20.648525238037109375 19.149812698364257813 17.779821395874023438 17.016582489013671875 16.683742523193359375 16.502893447875976563 16.302654266357421875 16.001646041870117188 16.375627517700195313 17.5536041259765625 18.31800079345703125 18.478504180908203125 19.502225875854492188 21.973443984985351563 23.45406341552734375 24.030481338500976563 24.79766082763671875 25.271331787109375 25.477672576904296875 25.699106216430664063 25.692897796630859375 25.46604156494140625 25.285326004028320313 -9999 -9999 -9999 -9999 -9999 -9999 -9999 -9999 -9999 -9999 -9999 -9999 -9999 -9999 -9999 -9999 -9999 -9999 -9999 -9999 -9999 -9999 -9999 -9999
 -9999 -9999 -9999 -9999 -9999 -9999 -9999 -9999 -9999 -9999 -9999 -9999 -9999 -9999 -9999 -9999 -9999 -9999 -9999 -9999 -9999 -9999 -9999 -9999 -9999 -9999 -9999 -9999 -9999 -9999 -9999 -9999 -9999 27.526149749755859375 27.47095489501953125 27.394514083862304688 27.288774490356445313 27.193950653076171875 27.2707061767578125 27.432355880737304688 27.584188461303710938 27.6212005615234375 27.470552444458007813 26.990406036376953125 26.155683517456054688 24.83858489990234375 23.885671615600585938 23.488559722900390625 22.7515106201171875 21.446506500244140625 20.742008209228515625 20.245748519897460938 19.578390121459960938 22.264471054077148438 24.0212860107421875 24.785961151123046875 24.982580184936523438 24.995365142822265625 24.990297317504882813 24.997783660888671875 24.947113037109375 24.69377899169921875 24.382028579711914063 24.184963226318359375 23.983428955078125 23.57329559326171875 22.97130584716796875 22.373651504516601563 21.8380584716796875 20.982067108154296875 20.805002212524414063 21.346834182739257813 21.767930984497070313 21.68979644775390625 20.969158172607421875 18.964281082153320313 16.521474838256835938 15.886312484741210938 16.523679733276367188 17.35565185546875 18.26454925537109375 19.494478225708007813 20.641994476318359375 21.432558059692382813 21.5591583251953125 21.317651748657226563 21.164400100708007813 21.108524322509765625 21.053670883178710938 20.093431472778320313 18.545858383178710938 17.699392318725585938 17.241352081298828125 16.906419754028320313 16.672414779663085938 16.453433990478515625 16.16938018798828125 16.592962265014648438 17.73624420166015625 18.400238037109375 18.417642593383789063 19.203275680541992188 21.196390151977539063 22.203409194946289063 22.897998809814453125 24.399257659912109375 25.332864761352539063 25.602010726928710938 25.81760406494140625 25.86304473876953125 25.663639068603515625 25.489740371704101563 25.577116012573242188 25.78617095947265625 -9999 -9999 -9999 -9999 -9999 -9999 -9999 -9999 -9999 -9999 -9999 -9999 -9999 -9999 -9999 -9999 -9999 -9999 -9999 -9999 -9999 -9999
 -9999 -9999 -9999 -9999 -9999 -9999 -9999 -9999 -9999 -9999 -9999 -9999 -9999 -9999 -9999 -9999 -9999 -9999 -9999 -9999 -9999 -9999 -9999 -9999 -9999 -9999 -9999 -9999 -9999 -9999 -9999 -9999 -9999 27.545612335205078125 27.475042343139648438 27.408090591430664063 27.368040084838867188 27.147592544555664063 26.866804122924804688 27.00325775146484375 27.15528106689453125 27.18094635009765625 26.89960479736328125 25.962297439575195313 24.933202743530273438 23.941759109497070313 23.421621322631835938 23.064374923706054688 22.388917922973632813 21.263597488403320313 20.718591690063476563 19.60208892822265625 21.491596221923828125 23.361301422119140625 24.811307907104492188 25.394504547119140625 25.49362945556640625 25.358310699462890625 25.152126312255859375 25.043680191040039063 24.907712936401367188 24.685070037841796875 24.450405120849609375 24.301553726196289063 23.993438720703125 23.447217941284179688 22.644557952880859375 22.038026809692382813 21.748338699340820313 21.403551101684570313 21.345203399658203125 21.781763076782226563 22.005880355834960938 21.76416015625 20.659454345703125 18.316251754760742188 16.591466903686523438 16.2887725830078125 16.781970977783203125 17.51871490478515625 18.34183502197265625 19.455291748046875 20.843416213989257813 21.787099838256835938 22.129854202270507813 22.1350860595703125 21.943716049194335938 21.41361236572265625 20.43634033203125 18.78553009033203125 17.957372665405273438 17.693164825439453125 17.438812255859375 17.102594375610351563 16.741586685180664063 16.492176055908203125 16.261739730834960938 16.588121414184570313 17.442789077758789063 18.198879241943359375 18.408420562744140625 18.996105194091796875 20.379207611083984375 21.136539459228515625 22.004846572875976563 24.047328948974609375 25.371191024780273438 25.737997055053710938 25.847162246704101563 25.846714019775390625 25.743616104125976563 25.588609695434570313 25.593692779541015625 25.774824142456054688 -9999 -9999 -9999 -9999 -9999 -9999 -9999 -9999 -9999 -9999 -9999 -9999 -9999 -9999 -9999 -9999 -9999 -9999 -9999 -9999 -9999 -9999
 -9999 -9999 -9999 -9999 -9999 -9999 -9999 -9999 -9999 -9999 -9999 -9999 -9999 -9999 -9999 -9999 -9999 -9999 -9999 -9999 -9999 -9999 -9999 -9999 -9999 -9999 -9999 -9999 -9999 -9999 -9999 -9999 -9999 -9999 27.465362548828125 27.416240692138671875 27.344573974609375 27.051235198974609375 26.5225067138671875 26.314752578735351563 26.15740203857421875 26.176393508911132813 26.167158126831054688 25.425630569458007813 24.462446212768554688 23.69545745849609375 23.3710479736328125 23.211948394775390625 22.648656845092773438 21.337362289428710938 20.83267974853515625 19.855123519897460938 22.9911041259765625 24.43103790283203125 25.30570220947265625 25.743970870971679688 25.760770797729492188 25.556219100952148438 25.299341201782226563 25.1237030029296875 24.87249755859375 24.66588592529296875 24.536535263061523438 24.384845733642578125 23.96431732177734375 23.276815414428710938 22.28815460205078125 21.677206039428710938 21.540315628051757813 21.569196701049804688 21.70343017578125 21.877704620361328125 21.833261489868164063 21.431409835815429688 20.020807266235351563 17.458055496215820313 16.183441162109375 16.137205123901367188 16.71417999267578125 17.612457275390625 18.53151702880859375 19.61757659912109375 21.172960281372070313 22.090854644775390625 22.500978469848632813 22.565301895141601563 22.283830642700195313 21.269712448120117188 19.589040756225585938 18.074884414672851563 17.852527618408203125 17.814359664916992188 17.632022857666015625 17.2123260498046875 16.764467239379882813 16.541393280029296875 16.424905776977539063 16.681222915649414063 17.189821243286132813 17.772706985473632813 18.134119033813476563 18.9645538330078125 20.33660125732421875 21.2297515869140625 22.073028564453125 23.886962890625 25.259914398193359375 25.771631240844726563 25.84006500244140625 25.802988052368164063 25.734357833862304688 25.578235626220703125 25.602464675903320313 25.781177520751953125 -9999 -9999 -9999 -9999 -9999 -9999 -9999 -9999 -9999 -9999 -9999 -9999 -9999 -9999 -9999 -9999 -9999 -9999 -9999 -9999 -9999 -9999
 -9999 -9999 -9999 -9999 -9999 -9999 -9999 -9999 -9999 -9999 -9999 -9999 -9999 -9999 -9999 -9999 -9999 -9999 -9999 -9999 -9999 -9999 -9999 -9999 -9999 -9999 -9999 -9999 -9999 -9999 -9999 -9999 -9999 -9999 27.445596694946289063 27.3470306396484375 27.173452377319335938 26.875820159912109375 26.337762832641601563 25.932603836059570313 25.786899566650390625 25.919656753540039063 26.124897003173828125 25.582250595092773438 24.761857986450195313 24.1236724853515625 23.833770751953125 23.64855194091796875 22.834192276000976563 21.347784042358398438 20.098604202270507813 22.424272537231445313 24.435110092163085938 25.453685760498046875 25.663694381713867188 25.818853378295898438 25.80646514892578125 25.606069564819335938 25.320407867431640625 25.135000228881835938 24.891998291015625 24.695192337036132813 24.602619171142578125 24.457614898681640625 23.93997955322265625 23.080942153930664063 22.083126068115234375 21.74153900146484375 21.706996917724609375 21.688684463500976563 21.702272415161132813 21.431329727172851563 20.79959869384765625 20.202775955200195313 18.913106918334960938 17.199132919311523438 16.39682769775390625 16.351715087890625 16.941160202026367188 18.267072677612304688 19.305711746215820313 20.071378707885742188 21.22124481201171875 22.045831680297851563 22.600734710693359375 22.73072052001953125 22.306005477905273438 20.895708084106445313 19.252569198608398438 18.3608245849609375 18.16428375244140625 18.088945388793945313 17.966856002807617188 17.337305068969726563 16.852296829223632813 16.706127166748046875 16.6828460693359375 16.877811431884765625 17.176706314086914063 17.466894149780273438 17.964857101440429688 19.122486114501953125 20.312749862670898438 21.268667221069335938 22.09035491943359375 23.618680953979492188 24.90105438232421875 25.528209686279296875 25.596822738647460938 25.685062408447265625 25.7064666748046875 25.583997726440429688 25.613584518432617188 25.75081634521484375 -9999 -9999 -9999 -9999 -9999 -9999 -9999 -9999 -9999 -9999 -9999 -9999 -9999 -9999 -9999 -9999 -9999 -9999 -9999 -9999 -9999 -9999
 -9999 -9999 -9999 -9999 -9999 -9999 -9999 -9999 -9999 -9999 -9999 -9999 -9999 -9999 -9999 -9999 -9999 -9999 -9999 -9999 -9999 -9999 -9999 -9999 -9999 -9999 -9999 -9999 -9999 -9999 -9999 -9999 -9999 -9999 -9999 27.264678955078125 27.041589736938476563 26.698198318481445313 26.167165756225585938 25.939992904663085938 26.167148590087890625 26.39186859130859375 26.53594970703125 26.158641815185546875 25.5629119873046875 25.096944808959960938 24.531557083129882813 23.920961380004882813 22.842172622680664063 21.40423583984375 20.154115676879882813 23.999265670776367188 25.638872146606445313 26.127679824829101563 25.959285736083984375 25.866044998168945313 25.809617996215820313 25.60958099365234375 25.269216537475585938 25.091356277465820313 24.926080703735351563 24.74710845947265625 24.67195892333984375 24.569280624389648438 23.95952606201171875 23.057331085205078125 22.200216293334960938 21.867498397827148438 21.803676605224609375 21.736383438110351563 21.51616668701171875 20.597551345825195313 19.18666839599609375 18.651277542114257813 18.06272125244140625 17.102289199829101563 16.617769241333007813 16.637531280517578125 17.580348968505859375 19.696758270263671875 20.713165283203125 20.984889984130859375 21.4033660888671875 22.001750946044921875 22.665830612182617188 22.79498291015625 22.189998626708984375 20.551897048950195313 19.324613571166992188 18.825548171997070313 18.578632354736328125 18.5357208251953125 18.510766983032226563 17.669361114501953125 17.07694244384765625 16.964635848999023438 17.01148223876953125 17.147642135620117188 17.2645263671875 17.308244705200195313 17.675045013427734375 18.64471435546875 19.729387283325195313 21.051616668701171875 21.991357803344726563 23.253988265991210938 24.312686920166015625 25.041746139526367188 24.958730697631835938 25.417104721069335938 25.681797027587890625 25.635662078857421875 25.622068405151367188 25.657423019409179688 -9999 -9999 -9999 -9999 -9999 -9999 -9999 -9999 -9999 -9999 -9999 -9999 -9999 -9999 -9999 -9999 -9999 -9999 -9999 -9999 -9999 -9999
 -9999 -9999 -9999 -9999 -9999 -9999 -9999 -9999 -9999 -9999 -9999 -9999 -9999 -9999 -9999 -9999 -9999 -9999 -9999 -9999 -9999 -9999 -9999 -9999 -9999 -9999 -9999 -9999 -9999 -9999 -9999 -9999 -9999 -9999 -9999 27.276014328002929688 27.069036483764648438 26.726898193359375 26.25083160400390625 26.126127243041992188 26.406301498413085938 26.580169677734375 26.605937957763671875 26.278070449829101563 25.794042587280273438 25.370105743408203125 24.594343185424804688 23.727634429931640625 22.651031494140625 21.399602890014648438 20.260967254638671875 24.301349639892578125 25.820062637329101563 26.183460235595703125 25.998994827270507813 25.87519073486328125 25.831853866577148438 25.646371841430664063 25.296375274658203125 25.122819900512695313 24.982095718383789063 24.820531845092773438 24.740686416625976563 24.571842193603515625 23.936311721801757813 23.124576568603515625 22.403820037841796875 21.972135543823242188 21.8320159912109375 21.605356216430664063 21.005544662475585938 19.994180679321289063 18.632467269897460938 18.1773529052734375 17.836053848266601563 17.10243988037109375 16.766141891479492188 17.001947402954101563 18.370920181274414063 20.597898483276367188 21.510921478271484375 21.737148284912109375 21.9673614501953125 22.31438446044921875 22.75238800048828125 22.76787567138671875 22.095783233642578125 20.469226837158203125 19.626621246337890625 19.543443679809570313 19.500177383422851563 19.46038055419921875 19.212841033935546875 18.011095046997070313 17.290197372436523438 17.203870773315429688 17.337285995483398438 17.49871826171875 17.545808792114257813 17.52079010009765625 17.738582611083984375 18.4248809814453125 19.53110504150390625 21.231769561767578125 22.245164871215820313 23.246700286865234375 24.054019927978515625 24.589014053344726563 24.428464889526367188 25.211772918701171875 25.62192535400390625 25.631036758422851563 25.617992401123046875 25.614969253540039063 -9999 -9999 -9999 -9999 -9999 -9999 -9999 -9999 -9999 -9999 -9999 -9999 -9999 -9999 -9999 -9999 -9999 -9999 -9999 -9999 -9999 -9999
 -9999 -9999 -9999 -9999 -9999 -9999 -9999 -9999 -9999 -9999 -9999 -9999 -9999 -9999 -9999 -9999 -9999 -9999 -9999 -9999 -9999 -9999 -9999 -9999 -9999 -9999 -9999 -9999 -9999 -9999 -9999 -9999 -9999 -9999 -9999 27.350084304809570313 27.2032470703125 26.960294723510742188 26.666162490844726563 26.554798126220703125 26.576066970825195313 26.558618545532226563 26.37615203857421875 25.945737838745117188 25.463701248168945313 24.972019195556640625 24.079298019409179688 23.073207855224609375 22.144748687744140625 21.312425613403320313 20.345306396484375 23.386800765991210938 25.19622039794921875 25.823728561401367188 25.856489181518554688 25.856847763061523438 25.8853302001953125 25.723651885986328125 25.42246246337890625 25.271738052368164063 25.133325576782226563 24.986154556274414063 24.844720840454101563 24.461065292358398438 23.837995529174804688 23.22875213623046875 22.649480819702148438 22.123918533325195313 21.833257675170898438 21.146177291870117188 19.934734344482421875 19.308591842651367188 18.759235382080078125 18.338748931884765625 17.824663162231445313 17.260244369506835938 17.122943878173828125 17.787166595458984375 19.778306961059570313 21.522844314575195313 22.281194686889648438 22.798126220703125 23.165845870971679688 23.119268417358398438 22.893955230712890625 22.579998016357421875 21.927911758422851563 20.648662567138671875 20.488086700439453125 21.174808502197265625 21.538881301879882813 21.201147079467773438 20.156682968139648438 18.493783950805664063 17.643434524536132813 17.634134292602539063 18.0395355224609375 18.307580947875976563 18.249851226806640625 18.238355636596679688 18.31272125244140625 18.578861236572265625 19.53289794921875 21.333009719848632813 22.43143463134765625 23.514638900756835938 24.06725311279296875 23.891567230224609375 23.753911972045898438 24.964435577392578125 25.483633041381835938 25.560039520263671875 25.596614837646484375 25.601560592651367188 -9999 -9999 -9999 -9999 -9999 -9999 -9999 -9999 -9999 -9999 -9999 -9999 -9999 -9999 -9999 -9999 -9999 -9999 -9999 -9999 -9999 -9999
 -9999 -9999 -9999 -9999 -9999 -9999 -9999 -9999 -9999 -9999 -9999 -9999 -9999 -9999 -9999 -9999 -9999 -9999 -9999 -9999 -9999 -9999 -9999 -9999 -9999 -9999 -9999 -9999 -9999 -9999 -9999 -9999 -9999 -9999 -9999 27.306476593017578125 27.206579208374023438 27.088665008544921875 26.952024459838867188 26.861261367797851563 26.761981964111328125 26.637842178344726563 26.276752471923828125 25.662265777587890625 25.072315216064453125 24.564130783081054688 23.88751220703125 22.931087493896484375 21.898273468017578125 21.320947647094726563 20.38947296142578125 22.552297592163085938 24.677644729614257813 25.5907745361328125 25.794420242309570313 25.870233535766601563 25.876110076904296875 25.711709976196289063 25.504072189331054688 25.400501251220703125 25.2705841064453125 25.102512359619140625 24.879678726196289063 24.394256591796875 23.7566986083984375 23.15250396728515625 22.415225982666015625 21.82973480224609375 21.428457260131835938 20.580453872680664063 19.601503372192382813 19.24587249755859375 19.088022232055664063 18.603912353515625 17.832363128662109375 17.445596694946289063 17.471120834350585938 18.287515640258789063 20.485988616943359375 22.119199752807617188 22.942125320434570313 23.480287551879882813 23.712678909301757813 23.4784698486328125 22.887132644653320313 22.205591201782226563 21.665069580078125 21.13812255859375 21.702991485595703125 22.49448394775390625 22.625242233276367188 21.549592971801757813 19.807725906372070313 18.632556915283203125 17.915081024169921875 17.995439529418945313 18.830457687377929688 19.250101089477539063 18.980976104736328125 18.900602340698242188 18.902750015258789063 18.83342742919921875 19.156957626342773438 19.966352462768554688 21.215862274169921875 23.604335784912109375 24.461179733276367188 23.8594512939453125 23.826534271240234375 24.941732406616210938 25.399059295654296875 25.507406234741210938 25.580976486206054688 25.617124557495117188 -9999 -9999 -9999 -9999 -9999 -9999 -9999 -9999 -9999 -9999 -9999 -9999 -9999 -9999 -9999 -9999 -9999 -9999 -9999 -9999 -9999 -9999
 -9999 -9999 -9999 -9999 -9999 -9999 -9999 -9999 -9999 -9999 -9999 -9999 -9999 -9999 -9999 -9999 -9999 -9999 -9999 -9999 -9999 -9999 -9999 -9999 -9999 -9999 -9999 -9999 -9999 -9999 -9999 -9999 -9999 -9999 -9999 27.235914230346679688 27.156621932983398438 27.090623855590820313 27.021251678466796875 26.962306976318359375 26.873889923095703125 26.727163314819335938 26.272363662719726563 25.585357666015625 25.099550247192382813 24.78824615478515625 24.3663482666015625 23.452520370483398438 22.203342437744140625 21.483781814575195313 20.40923309326171875 22.348812103271484375 24.553030014038085938 25.558004379272460938 25.765354156494140625 25.768003463745117188 25.72292327880859375 25.659292221069335938 25.5258331298828125 25.421567916870117188 25.256479263305664063 25.083383560180664063 24.876079559326171875 24.366214752197265625 23.675069808959960938 22.92235565185546875 21.89707183837890625 21.030971527099609375 20.624561309814453125 20.144487380981445313 19.745424270629882813 19.735107421875 19.702730178833007813 19.015920639038085938 18.006784439086914063 17.666498184204101563 17.804227828979492188 18.591640472412109375 20.703189849853515625 22.471189498901367188 23.364955902099609375 23.781908035278320313 23.763362884521484375 23.350034713745117188 22.637434005737304688 21.840526580810546875 21.575590133666992188 21.95365142822265625 23.007625579833984375 23.396732330322265625 23.05678558349609375 21.66925811767578125 19.631137847900390625 18.6376190185546875 18.035257339477539063 18.144084930419921875 19.208486557006835938 20.137704849243164063 20.05126190185546875 19.75702667236328125 19.529773712158203125 19.14441680908203125 19.044336318969726563 19.2740020751953125 20.623342514038085938 23.757795333862304688 24.953020095825195313 24.791399002075195313 24.85601043701171875 25.24002838134765625 25.408319473266601563 25.485761642456054688 25.572782516479492188 25.658430099487304688 -9999 -9999 -9999 -9999 -9999 -9999 -9999 -9999 -9999 -9999 -9999 -9999 -9999 -9999 -9999 -9999 -9999 -9999 -9999 -9999 -9999 -9999
 -9999 -9999 -9999 -9999 -9999 -9999 -9999 -9999 -9999 -9999 -9999 -9999 -9999 -9999 -9999 -9999 -9999 -9999 -9999 -9999 -9999 -9999 -9999 -9999 -9999 -9999 -9999 -9999 -9999 -9999 -9999 -9999 -9999 -9999 -9999 27.164020538330078125 27.125005722045898438 27.083909988403320313 27.054056167602539063 26.998638153076171875 26.887546539306640625 26.722082138061523438 26.277513504028320313 25.734455108642578125 25.4784088134765625 25.316518783569335938 24.859094619750976563 23.942861557006835938 22.756036758422851563 21.79555511474609375 20.5979156494140625 22.489812850952148438 24.548505783081054688 25.500108718872070313 25.679157257080078125 25.634792327880859375 25.603082656860351563 25.58148956298828125 25.388547897338867188 25.265642166137695313 25.149150848388671875 25.0295562744140625 24.864528656005859375 24.359930038452148438 23.649518966674804688 22.841396331787109375 21.741399765014648438 20.5670166015625 20.155050277709960938 20.070470809936523438 20.1100616455078125 20.4371795654296875 20.25540924072265625 19.310869216918945313 18.212903976440429688 17.875143051147460938 18.060693740844726563 18.864025115966796875 20.941547393798828125 22.5971527099609375 23.377367019653320313 23.841081619262695313 23.755361557006835938 23.060604095458984375 22.319616317749023438 21.899393081665039063 22.093061447143554688 23.022409439086914063 23.82054901123046875 23.88275909423828125 23.482112884521484375 22.299451828002929688 20.069162368774414063 18.636491775512695313 18.077371597290039063 18.144330978393554688 19.159257888793945313 20.826446533203125 21.26351165771484375 20.834554672241210938 20.208425521850585938 19.467828750610351563 19.246448516845703125 19.401927947998046875 20.586256027221679688 23.427448272705078125 24.812700271606445313 25.299579620361328125 25.55214691162109375 25.593099594116210938 25.560153961181640625 25.527818679809570313 25.551937103271484375 25.635366439819335938 -9999 -9999 -9999 -9999 -9999 -9999 -9999 -9999 -9999 -9999 -9999 -9999 -9999 -9999 -9999 -9999 -9999 -9999 -9999 -9999 -9999 -9999
 -9999 -9999 -9999 -9999 -9999 -9999 -9999 -9999 -9999 -9999 -9999 -9999 -9999 -9999 -9999 -9999 -9999 -9999 -9999 -9999 -9999 -9999 -9999 -9999 -9999 -9999 -9999 -9999 -9999 -9999 -9999 -9999 -9999 -9999 27.2219390869140625 27.162416458129882813 27.11043548583984375 27.045255661010742188 27.038822174072265625 26.923685073852539063 26.699100494384765625 26.495128631591796875 26.19455718994140625 26.019956588745117188 25.804281234741210938 25.515329360961914063 24.977779388427734375 24.14386749267578125 23.062768936157226563 22.102857589721679688 20.9165802001953125 22.767606735229492188 24.556072235107421875 25.392147064208984375 25.633157730102539063 25.640367507934570313 25.563547134399414063 25.467920303344726563 25.298147201538085938 25.207696914672851563 25.141901016235351563 25.094791412353515625 24.981534957885742188 24.55182647705078125 23.780277252197265625 22.903272628784179688 21.80034637451171875 20.587957382202148438 20.274831771850585938 20.526796340942382813 20.703105926513671875 20.70738983154296875 20.185394287109375 19.347463607788085938 18.353128433227539063 18.008794784545898438 18.116556167602539063 18.847888946533203125 20.708990097045898438 22.038990020751953125 22.915430068969726563 23.651933670043945313 23.638036727905273438 22.960447311401367188 22.4862518310546875 22.5276947021484375 22.883333206176757813 23.668851852416992188 24.1119537353515625 24.071874618530273438 23.764688491821289063 22.83383941650390625 20.62606048583984375 18.761075973510742188 18.170482635498046875 18.239282608032226563 19.223804473876953125 21.214868545532226563 21.883523941040039063 21.509326934814453125 20.650745391845703125 19.738374710083007813 19.520145416259765625 19.617353439331054688 20.345048904418945313 22.222272872924804688 23.616464614868164063 24.719896316528320313 25.34162139892578125 25.513866424560546875 25.514232635498046875 25.549470901489257813 25.576677322387695313 25.679883956909179688 -9999 -9999 -9999 -9999 -9999 -9999 -9999 -9999 -9999 -9999 -9999 -9999 -9999 -9999 -9999 -9999 -9999 -9999 -9999 -9999 -9999 -9999
 -9999 -9999 -9999 -9999 -9999 -9999 -9999 -9999 -9999 -9999 -9999 -9999 -9999 -9999 -9999 -9999 -9999 -9999 -9999 -9999 -9999 -9999 -9999 -9999 -9999 -9999 -9999 -9999 -9999 -9999 -9999 -9999 -9999 -9999 27.314849853515625 27.19886016845703125 27.090579986572265625 27.009035110473632813 27.016115188598632813 26.782548904418945313 26.430727005004882813 26.331676483154296875 26.360698699951171875 26.207361221313476563 25.749017715454101563 25.196401596069335938 24.616159439086914063 24.002208709716796875 23.166749954223632813 22.389606475830078125 21.209749221801757813 21.815408706665039063 24.248151779174804688 25.09344482421875 25.495683670043945313 25.640081405639648438 25.561719894409179688 25.439855575561523438 25.31415557861328125 25.252017974853515625 25.224193572998046875 25.255649566650390625 25.201082229614257813 24.79477691650390625 23.885112762451171875 22.81244659423828125 21.699151992797851563 20.98477935791015625 21.0120086669921875 21.565250396728515625 21.68375396728515625 20.9929656982421875 20.072786331176757813 19.304309844970703125 18.482442855834960938 18.30394744873046875 18.561279296875 19.125833511352539063 20.331996917724609375 21.192844390869140625 22.239770889282226563 23.35990142822265625 23.579898834228515625 23.152143478393554688 23.073442459106445313 23.41419219970703125 23.679021835327148438 24.0010223388671875 24.161678314208984375 23.999979019165039063 23.587612152099609375 22.833719253540039063 20.999097824096679688 19.110387802124023438 18.47727203369140625 18.569301605224609375 19.495008468627929688 21.226716995239257813 21.768541336059570313 21.422262191772460938 20.8220367431640625 20.084424972534179688 19.73671722412109375 19.714855194091796875 20.238527297973632813 21.59407806396484375 22.530670166015625 23.450603485107421875 24.42920684814453125 25.035480499267578125 25.2345123291015625 25.504856109619140625 25.61777496337890625 25.740871429443359375 -9999 -9999 -9999 -9999 -9999 -9999 -9999 -9999 -9999 -9999 -9999 -9999 -9999 -9999 -9999 -9999 -9999 -9999 -9999 -9999 -9999 -9999
 -9999 -9999 -9999 -9999 -9999 -9999 -9999 -9999 -9999 -9999 -9999 -9999 -9999 -9999 -9999 -9999 -9999 -9999 -9999 -9999 -9999 -9999 -9999 -9999 -9999 -9999 -9999 -9999 -9999 -9999 -9999 -9999 -9999 27.587062835693359375 27.39781951904296875 27.1912078857421875 27.070766448974609375 27.049188613891601563 26.9869537353515625 26.742092132568359375 26.573833465576171875 26.533636093139648438 26.42901611328125 26.00461578369140625 25.359468460083007813 24.772296905517578125 24.261590957641601563 23.9024658203125 23.411975860595703125 22.755695343017578125 22.505731582641601563 21.711305618286132813 23.581882476806640625 24.510181427001953125 25.1458282470703125 25.49488067626953125 25.650552749633789063 25.618618011474609375 25.35927581787109375 25.22193145751953125 25.191425323486328125 25.252775192260742188 25.180932998657226563 24.669775009155273438 23.605741500854492188 22.69521331787109375 22.024921417236328125 21.774690628051757813 21.915346145629882813 22.344621658325195313 22.262592315673828125 21.267932891845703125 20.054613113403320313 19.18903350830078125 18.6986541748046875 18.929241180419921875 19.751302719116210938 20.3145294189453125 20.870670318603515625 21.09279632568359375 21.82781219482421875 23.291881561279296875 23.770902633666992188 23.555665969848632813 23.70560455322265625 24.041017532348632813 24.2023162841796875 24.308095932006835938 24.253980636596679688 23.880598068237304688 23.13056182861328125 22.347810745239257813 21.080553054809570313 19.435527801513671875 18.8106231689453125 18.949670791625976563 19.765264511108398438 20.91193389892578125 21.267488479614257813 21.046428680419921875 20.782787322998046875 20.460248947143554688 20.180875778198242188 20.15765380859375 20.736726760864257813 22.091983795166015625 22.683118820190429688 23.25119781494140625 24.164844512939453125 25.05147552490234375 25.425153732299804688 25.575990676879882813 25.662763595581054688 25.831813812255859375 -9999 -9999 -9999 -9999 -9999 -9999 -9999 -9999 -9999 -9999 -9999 -9999 -9999 -9999 -9999 -9999 -9999 -9999 -9999 -9999 -9999 -9999
 -9999 -9999 -9999 -9999 -9999 -9999 -9999 -9999 -9999 -9999 -9999 -9999 -9999 -9999 -9999 -9999 -9999 -9999 -9999 -9999 -9999 -9999 -9999 -9999 -9999 -9999 -9999 -9999 -9999 -9999 -9999 28.044317245483398438 27.907880783081054688 27.663427352905273438 27.392595291137695313 27.047025680541992188 26.897899627685546875 26.95027923583984375 26.960859298706054688 26.842708587646484375 26.625818252563476563 26.502763748168945313 26.262117385864257813 25.701633453369140625 25.062580108642578125 24.532709121704101563 24.154148101806640625 24.07572174072265625 23.964475631713867188 23.34494781494140625 22.962932586669921875 21.78075408935546875 22.042201995849609375 23.848733901977539063 24.704193115234375 25.3996429443359375 25.909608840942382813 25.978635787963867188 25.341461181640625 24.995378494262695313 24.93572235107421875 25.065095901489257813 24.987318038940429688 24.42581939697265625 23.250417709350585938 22.558008193969726563 22.459186553955078125 22.794427871704101563 22.984052658081054688 22.99628448486328125 22.4612884521484375 21.154447555541992188 20.039005279541015625 19.271249771118164063 19.0559234619140625 19.551082611083984375 20.698230743408203125 21.466581344604492188 22.07949066162109375 21.900623321533203125 22.273044586181640625 23.646894454956054688 24.236364364624023438 24.223255157470703125 24.209039688110351563 24.345714569091796875 24.458215713500976563 24.530599594116210938 24.354230880737304688 23.965282440185546875 23.294221878051757813 22.110403060913085938 20.766729354858398438 19.528881072998046875 19.052865982055664063 19.3339080810546875 20.26371002197265625 20.869729995727539063 20.996929168701171875 20.784025192260742188 20.62279510498046875 20.66100311279296875 20.9546661376953125 21.20436859130859375 21.988290786743164063 23.605649948120117188 23.90081787109375 24.109186172485351563 24.716022491455078125 25.429046630859375 25.699987411499023438 25.625215530395507813 25.677103042602539063 25.909109115600585938 -9999 -9999 -9999 -9999 -9999 -9999 -9999 -9999 -9999 -9999 -9999 -9999 -9999 -9999 -9999 -9999 -9999 -9999 -9999 -9999 -9999 -9999
 -9999 -9999 -9999 -9999 -9999 -9999 -9999 -9999 -9999 -9999 -9999 -9999 -9999 -9999 -9999 -9999 -9999 -9999 -9999 -9999 -9999 -9999 -9999 -9999 -9999 -9999 -9999 -9999 -9999 -9999 -9999 28.04711151123046875 27.905805587768554688 27.601522445678710938 27.301191329956054688 27.00189971923828125 26.898584365844726563 26.96735382080078125 27.008020401000976563 26.923601150512695313 26.649560928344726563 26.477024078369140625 26.18439483642578125 25.611063003540039063 25.055744171142578125 24.586671829223632813 24.182926177978515625 24.107667922973632813 24.144809722900390625 23.762470245361328125 22.423692703247070313 22.061571121215820313 22.072032928466796875 23.6109771728515625 24.482517242431640625 25.27620697021484375 25.878589630126953125 26.052919387817382813 25.424303054809570313 25.0167388916015625 24.856901168823242188 25.01776123046875 25.0109100341796875 24.514421463012695313 23.440866470336914063 22.892210006713867188 22.924951553344726563 23.28488922119140625 23.417593002319335938 23.2684173583984375 22.521129608154296875 21.043527603149414063 20.0431671142578125 19.384164810180664063 19.245435714721679688 19.811679840087890625 21.03296661376953125 21.901058197021484375 22.662387847900390625 22.41452789306640625 22.531236648559570313 23.636592864990234375 24.374225616455078125 24.544382095336914063 24.470916748046875 24.504680633544921875 24.580335617065429688 24.630401611328125 24.43744659423828125 24.111116409301757813 23.580877304077148438 22.235698699951171875 20.599657058715820313 19.515108108520507813 19.154664993286132813 19.488439559936523438 20.45008087158203125 20.881071090698242188 20.919893264770507813 20.629817962646484375 20.46356964111328125 20.649507522583007813 21.277845382690429688 21.674190521240234375 22.536741256713867188 24.31999969482421875 24.638948440551757813 24.682073593139648438 25.116846084594726563 25.644166946411132813 25.845067977905273438 25.73006439208984375 25.751617431640625 25.946443557739257813 -9999 -9999 -9999 -9999 -9999 -9999 -9999 -9999 -9999 -9999 -9999 -9999 -9999 -9999 -9999 -9999 -9999 -9999 -9999 -9999 -9999 -9999
 -9999 -9999 -9999 -9999 -9999 -9999 -9999 -9999 -9999 -9999 -9999 -9999 -9999 -9999 -9999 -9999 -9999 -9999 -9999 -9999 -9999 -9999 -9999 -9999 -9999 -9999 -9999 -9999 -9999 -9999 -9999 28.032773971557617188 27.827211380004882813 27.406431198120117188 27.179656982421875 27.114431381225585938 27.130109786987304688 27.181966781616210938 27.168146133422851563 27.014675140380859375 26.76261138916015625 26.57588958740234375 26.20648956298828125 25.680326461791992188 25.316925048828125 24.927572250366210938 24.294429779052734375 23.989583969116210938 23.108201980590820313 23.353292465209960938 24.2882537841796875 23.803134918212890625 22.39150238037109375 23.575555801391601563 24.28176116943359375 24.9545745849609375 25.433584213256835938 25.775196075439453125 25.653453826904296875 25.4130859375 25.136796951293945313 25.211725234985351563 25.262067794799804688 24.898921966552734375 24.214019775390625 23.906644821166992188 23.796716690063476563 23.63422393798828125 23.517358779907226563 23.276233673095703125 22.491016387939453125 21.027116775512695313 20.110607147216796875 19.53513336181640625 19.40372467041015625 19.982421875 21.13074493408203125 22.0122222900390625 22.945550918579101563 22.79936981201171875 22.579219818115234375 23.245342254638671875 24.302190780639648438 24.746927261352539063 24.788644790649414063 24.79831695556640625 24.804065704345703125 24.758937835693359375 24.577045440673828125 24.320867538452148438 23.92321014404296875 22.636148452758789063 20.537466049194335938 19.474233627319335938 19.2579498291015625 19.573308944702148438 20.4236907958984375 20.828220367431640625 20.867731094360351563 20.464191436767578125 20.324186325073242188 20.648855209350585938 21.428432464599609375 21.847433090209960938 22.69168853759765625 24.613185882568359375 25.305120468139648438 25.319530487060546875 25.55591583251953125 25.85451507568359375 26.057069778442382813 26.023321151733398438 25.956705093383789063 25.98908233642578125 -9999 -9999 -9999 -9999 -9999 -9999 -9999 -9999 -9999 -9999 -9999 -9999 -9999 -9999 -9999 -9999 -9999 -9999 -9999 -9999 -9999 -9999
 -9999 -9999 -9999 -9999 -9999 -9999 -9999 -9999 -9999 -9999 -9999 -9999 -9999 -9999 -9999 -9999 -9999 -9999 -9999 -9999 -9999 -9999 -9999 -9999 -9999 -9999 -9999 -9999 -9999 -9999 -9999 27.9676055908203125 27.730867385864257813 27.37352752685546875 27.331050872802734375 27.343730926513671875 27.337285995483398438 27.3302154541015625 27.2315521240234375 27.0084075927734375 26.786367416381835938 26.632520675659179688 26.318956375122070313 25.926258087158203125 25.675891876220703125 25.2020721435546875 24.387264251708984375 24.01285552978515625 23.231561660766601563 24.876752853393554688 25.042898178100585938 24.5620269775390625 23.748525619506835938 22.592609405517578125 24.06166839599609375 24.575473785400390625 24.908212661743164063 25.32975006103515625 25.725145339965820313 25.829832077026367188 25.751239776611328125 25.598505020141601563 25.384832382202148438 25.00324249267578125 24.673402786254882813 24.544095993041992188 24.291896820068359375 23.828149795532226563 23.47328948974609375 22.955720901489257813 22.271791458129882813 21.1443328857421875 20.259298324584960938 19.6688232421875 19.610261917114257813 20.233057022094726563 21.033191680908203125 21.835618972778320313 23.00916290283203125 23.010213851928710938 22.771514892578125 23.248165130615234375 24.391843795776367188 24.937549591064453125 25.0410308837890625 25.0810394287109375 25.03235626220703125 24.844694137573242188 24.623363494873046875 24.383489608764648438 24.065191268920898438 22.823184967041015625 20.489513397216796875 19.504383087158203125 19.403217315673828125 19.715616226196289063 20.522546768188476563 20.940412521362304688 20.98279571533203125 20.58502960205078125 20.6782684326171875 21.313714981079101563 21.887615203857421875 22.10302734375 22.891916275024414063 24.851528167724609375 25.791795730590820313 25.926382064819335938 25.965105056762695313 26.077386856079101563 26.249782562255859375 26.227537155151367188 26.074665069580078125 26.018930435180664063 -9999 -9999 -9999 -9999 -9999 -9999 -9999 -9999 -9999 -9999 -9999 -9999 -9999 -9999 -9999 -9999 -9999 -9999 -9999 -9999 -9999 -9999
 -9999 -9999 -9999 -9999 -9999 -9999 -9999 -9999 -9999 -9999 -9999 -9999 -9999 -9999 -9999 -9999 -9999 -9999 -9999 -9999 -9999 -9999 -9999 -9999 -9999 -9999 -9999 -9999 -9999 -9999 -9999 27.88465118408203125 27.709484100341796875 27.436880111694335938 27.4370574951171875 27.517347335815429688 27.505907058715820313 27.320888519287109375 27.052181243896484375 26.799337387084960938 26.655498504638671875 26.586881637573242188 26.4492645263671875 26.201517105102539063 25.804327011108398438 25.129405975341796875 24.42365264892578125 24.190980911254882813 23.4427490234375 23.366426467895507813 25.35626983642578125 24.967090606689453125 24.05496978759765625 22.697595596313476563 23.847476959228515625 24.179866790771484375 24.457019805908203125 25.006696701049804688 25.738359451293945313 26.01194000244140625 26.019407272338867188 25.828586578369140625 25.43817901611328125 25.081777572631835938 25.002023696899414063 24.949312210083007813 24.5298614501953125 23.884378433227539063 23.388845443725585938 22.675090789794921875 22.093587875366210938 21.287975311279296875 20.369556427001953125 19.811458587646484375 19.928316116333007813 20.756925582885742188 21.381452560424804688 22.056882858276367188 23.21807098388671875 23.29039764404296875 23.13550567626953125 23.559474945068359375 24.566518783569335938 25.0713043212890625 25.122537612915039063 25.054683685302734375 24.962202072143554688 24.771848678588867188 24.595611572265625 24.438673019409179688 23.990156173706054688 22.53511810302734375 20.43927001953125 19.636987686157226563 19.57939910888671875 19.9784393310546875 21.018457412719726563 21.65645599365234375 21.905378341674804688 21.722124099731445313 22.000804901123046875 22.72918701171875 22.6961822509765625 22.495660781860351563 23.212888717651367188 25.180438995361328125 26.13613128662109375 26.264917373657226563 26.25392913818359375 26.301456451416015625 26.37972259521484375 26.257268905639648438 26.106096267700195313 26.073217391967773438 -9999 -9999 -9999 -9999 -9999 -9999 -9999 -9999 -9999 -9999 -9999 -9999 -9999 -9999 -9999 -9999 -9999 -9999 -9999 -9999 -9999 -9999
 -9999 -9999 -9999 -9999 -9999 -9999 -9999 -9999 -9999 -9999 -9999 -9999 -9999 -9999 -9999 -9999 -9999 -9999 -9999 -9999 -9999 -9999 -9999 -9999 -9999 -9999 -9999 -9999 -9999 -9999 -9999 27.807842254638671875 27.693914413452148438 27.450201034545898438 27.395540237426757813 27.493312835693359375 27.48828125 27.198760986328125 26.82906341552734375 26.548364639282226563 26.408323287963867188 26.376337051391601563 26.341066360473632813 26.136272430419921875 25.584768295288085938 24.793363571166992188 24.4171905517578125 23.535531997680664063 23.462200164794921875 25.159509658813476563 25.225191116333007813 24.949693679809570313 24.233201980590820313 23.898782730102539063 22.890508651733398438 22.937074661254882813 24.200748443603515625 24.705446243286132813 25.541517257690429688 25.883787155151367188 25.937192916870117188 25.795297622680664063 25.432870864868164063 25.147497177124023438 25.117162704467773438 25.087482452392578125 24.664403915405273438 23.9349212646484375 23.441209793090820313 22.765459060668945313 22.1165313720703125 21.399087905883789063 20.486309051513671875 20.039308547973632813 20.20124053955078125 20.985284805297851563 21.672346115112304688 22.358676910400390625 23.469150543212890625 23.600864410400390625 23.624429702758789063 24.084203720092773438 24.71228790283203125 25.0899200439453125 25.093191146850585938 24.955488204956054688 24.883838653564453125 24.795917510986328125 24.666013717651367188 24.512941360473632813 23.708530426025390625 21.75771331787109375 20.244714736938476563 19.770811080932617188 19.765544891357421875 20.449232101440429688 22.166196823120117188 23.210468292236328125 23.967594146728515625 24.374071121215820313 24.445709228515625 24.1685791015625 23.346372604370117188 22.863725662231445313 23.562868118286132813 25.567277908325195313 26.4212646484375 26.41648101806640625 26.352672576904296875 26.37055206298828125 26.396131515502929688 26.30605316162109375 26.202497482299804688 26.192552566528320313 26.28853607177734375 -9999 -9999 -9999 -9999 -9999 -9999 -9999 -9999 -9999 -9999 -9999 -9999 -9999 -9999 -9999 -9999 -9999 -9999 -9999 -9999 -9999
 -9999 -9999 -9999 -9999 -9999 -9999 -9999 -9999 -9999 -9999 -9999 -9999 -9999 -9999 -9999 -9999 -9999 -9999 -9999 -9999 -9999 -9999 -9999 -9999 -9999 -9999 -9999 -9999 -9999 -9999 -9999 27.597906112670898438 27.519762039184570313 27.31671142578125 27.196191787719726563 27.19074249267578125 27.165876388549804688 26.902658462524414063 26.568632125854492188 26.273761749267578125 26.10463714599609375 26.044374465942382813 25.94693756103515625 25.717182159423828125 25.276979446411132813 23.684131622314453125 23.591909408569335938 24.95407867431640625 25.076427459716796875 24.88361358642578125 24.725984573364257813 24.471492767333984375 24.154489517211914063 24.017332077026367188 23.96327972412109375 22.9613037109375 24.086956024169921875 24.45809173583984375 25.092456817626953125 25.399377822875976563 25.526348114013671875 25.456304550170898438 25.316217422485351563 25.138547897338867188 25.116098403930664063 25.16335296630859375 24.87021636962890625 24.117616653442382813 23.71092987060546875 23.2285919189453125 22.357763290405273438 21.461658477783203125 20.720476150512695313 20.388706207275390625 20.502628326416015625 21.024339675903320313 21.532316207885742188 22.320554733276367188 23.783435821533203125 24.083169937133789063 24.105665206909179688 24.215114593505859375 24.37693023681640625 24.899080276489257813 25.054971694946289063 24.956411361694335938 24.929056167602539063 24.907686233520507813 24.759490966796875 24.560289382934570313 23.626710891723632813 21.551843643188476563 20.2895965576171875 19.949354171752929688 19.977016448974609375 20.905134201049804688 23.232921600341796875 24.428068161010742188 24.844556808471679688 25.338558197021484375 25.520984649658203125 25.05753326416015625 23.976282119750976563 23.284832000732421875 23.839458465576171875 25.6454925537109375 26.445339202880859375 26.45908355712890625 26.343761444091796875 26.32635498046875 26.31256866455078125 26.284709930419921875 26.284473419189453125 26.315069198608398438 -9999 -9999 -9999 -9999 -9999 -9999 -9999 -9999 -9999 -9999 -9999 -9999 -9999 -9999 -9999 -9999 -9999 -9999 -9999 -9999 -9999 -9999
 -9999 -9999 -9999 -9999 -9999 -9999 -9999 -9999 -9999 -9999 -9999 -9999 -9999 -9999 -9999 -9999 -9999 -9999 -9999 -9999 -9999 -9999 -9999 -9999 -9999 -9999 -9999 -9999 -9999 -9999 -9999 27.28362274169921875 27.22309112548828125 27.068256378173828125 26.96192169189453125 26.895061492919921875 26.75786590576171875 26.447519302368164063 26.175390243530273438 25.944295883178710938 25.747144699096679688 25.623823165893554688 25.415735244750976563 24.1036376953125 24.057643890380859375 24.876974105834960938 24.927516937255859375 25.160022735595703125 25.147054672241210938 24.843044281005859375 24.617773056030273438 24.336488723754882813 24.132640838623046875 24.06266021728515625 24.019857406616210938 24.028507232666015625 24.142536163330078125 24.422109603881835938 24.849029541015625 25.0661163330078125 25.222705841064453125 25.341779708862304688 25.419679641723632813 25.290582656860351563 25.233514785766601563 25.271877288818359375 24.997983932495117188 24.268888473510742188 23.919523239135742188 23.568593978881835938 22.727277755737304688 21.702726364135742188 20.875797271728515625 20.593984603881835938 20.687023162841796875 21.02155303955078125 21.299715042114257813 22.152484893798828125 23.976720809936523438 24.341960906982421875 23.98697662353515625 23.704769134521484375 23.8502044677734375 24.57793426513671875 24.959438323974609375 24.884931564331054688 24.889570236206054688 24.980930328369140625 24.821638107299804688 24.591348648071289063 23.902530670166015625 22.229581832885742188 20.74184417724609375 20.219608306884765625 20.202207565307617188 21.034961700439453125 23.2765045166015625 24.685451507568359375 25.000013351440429688 25.20308685302734375 25.531108856201171875 25.298763275146484375 24.381580352783203125 23.68915557861328125 24.088224411010742188 25.591348648071289063 26.359888076782226563 26.435039520263671875 26.3150482177734375 26.29686737060546875 26.317508697509765625 26.339082717895507813 26.359020233154296875 26.381265640258789063 -9999 -9999 -9999 -9999 -9999 -9999 -9999 -9999 -9999 -9999 -9999 -9999 -9999 -9999 -9999 -9999 -9999 -9999 -9999 -9999 -9999 -9999
 -9999 -9999 -9999 -9999 -9999 -9999 -9999 -9999 -9999 -9999 -9999 -9999 -9999 -9999 -9999 -9999 -9999 -9999 -9999 -9999 -9999 -9999 -9999 -9999 -9999 -9999 -9999 -9999 -9999 -9999 -9999 27.0753936767578125 27.016351699829101563 26.927801132202148438 26.834531784057617188 26.68431854248046875 26.445928573608398438 26.140493392944335938 25.83553314208984375 25.623279571533203125 25.379701614379882813 25.253721237182617188 24.183427810668945313 24.157257080078125 25.207143783569335938 25.167684555053710938 25.200397491455078125 25.306041717529296875 25.326425552368164063 25.14422607421875 24.931484222412109375 24.540784835815429688 24.233150482177734375 24.176576614379882813 24.164930343627929688 24.220800399780273438 24.3568115234375 24.621952056884765625 24.898599624633789063 25.025177001953125 25.166675567626953125 25.373960494995117188 25.521474838256835938 25.460468292236328125 25.372510910034179688 25.391553878784179688 25.084634780883789063 24.459196090698242188 24.168760299682617188 23.893045425415039063 23.30682373046875 22.394735336303710938 21.242422103881835938 20.759366989135742188 20.793865203857421875 21.099596023559570313 21.360422134399414063 21.995710372924804688 23.374664306640625 23.76711273193359375 23.5532379150390625 23.560420989990234375 23.902118682861328125 24.421167373657226563 24.918397903442382813 24.916002273559570313 24.930896759033203125 25.076360702514648438 24.944746017456054688 24.735805511474609375 24.3989715576171875 23.315671920776367188 21.509185791015625 20.73290252685546875 20.7640380859375 21.48040771484375 23.4516448974609375 25.042491912841796875 25.485876083374023438 25.437528610229492188 25.569749832153320313 25.359716415405273438 24.717708587646484375 24.094995498657226563 24.410800933837890625 25.724224090576171875 26.368328094482421875 26.472845077514648438 26.435564041137695313 26.40476226806640625 26.432765960693359375 26.472688674926757813 -9999 -9999 -9999 -9999 -9999 -9999 -9999 -9999 -9999 -9999 -9999 -9999 -9999 -9999 -9999 -9999 -9999 -9999 -9999 -9999 -9999 -9999 -9999 -9999
 -9999 -9999 -9999 -9999 -9999 -9999 -9999 -9999 -9999 -9999 -9999 -9999 -9999 -9999 -9999 -9999 -9999 -9999 -9999 -9999 -9999 -9999 -9999 -9999 -9999 -9999 -9999 -9999 -9999 -9999 -9999 26.98358154296875 26.890760421752929688 26.883676528930664063 26.852857589721679688 26.698360443115234375 26.398021697998046875 25.933269500732421875 25.39298248291015625 25.41960906982421875 24.5809326171875 24.460119247436523438 25.607816696166992188 25.556825637817382813 25.499301910400390625 25.505767822265625 25.527376174926757813 25.473814010620117188 25.452432632446289063 25.309864044189453125 25.150259017944335938 24.829069137573242188 24.476240158081054688 24.3628082275390625 24.3742828369140625 24.49903106689453125 24.636678695678710938 24.874004364013671875 25.063264846801757813 25.137592315673828125 25.19947052001953125 25.250133514404296875 25.33990478515625 25.415636062622070313 25.490339279174804688 25.585973739624023438 25.25496673583984375 24.876918792724609375 24.732259750366210938 24.585741043090820313 24.25458526611328125 23.381460189819335938 21.909717559814453125 21.054010391235351563 20.92610931396484375 21.193185806274414063 21.566366195678710938 21.649602890014648438 21.956752777099609375 23.0584869384765625 23.497735977172851563 23.9202117919921875 24.709634780883789063 25.070886611938476563 25.13451385498046875 24.845714569091796875 24.837484359741210938 25.132564544677734375 25.135957717895507813 25.000354766845703125 24.753534317016601563 23.845554351806640625 21.94524383544921875 21.259214401245117188 21.616701126098632813 22.4749603271484375 24.455953598022460938 25.944629669189453125 26.285160064697265625 26.082696914672851563 25.75910186767578125 25.331426620483398438 24.797086715698242188 24.479160308837890625 24.7778472900390625 25.751132965087890625 26.297773361206054688 26.507665634155273438 26.554666519165039063 -9999 -9999 -9999 -9999 -9999 -9999 -9999 -9999 -9999 -9999 -9999 -9999 -9999 -9999 -9999 -9999 -9999 -9999 -9999 -9999 -9999 -9999 -9999 -9999 -9999 -9999 -9999
 -9999 -9999 -9999 -9999 -9999 -9999 -9999 -9999 -9999 -9999 -9999 -9999 -9999 -9999 -9999 -9999 -9999 -9999 -9999 -9999 -9999 -9999 -9999 -9999 -9999 -9999 -9999 -9999 -9999 -9999 -9999 26.953891754150390625 26.835988998413085938 26.847303390502929688 26.841020584106445313 26.679620742797851563 26.259782791137695313 25.760839462280273438 25.315160751342773438 24.477849960327148438 25.7914886474609375 25.891847610473632813 25.872751235961914063 25.746013641357421875 25.64312744140625 25.6727447509765625 25.741346359252929688 25.659765243530273438 25.56508636474609375 25.37235260009765625 25.229230880737304688 24.976938247680664063 24.631978988647460938 24.496063232421875 24.518402099609375 24.643924713134765625 24.76033782958984375 24.9727630615234375 25.154340744018554688 25.214399337768554688 25.222391128540039063 25.199270248413085938 25.260692596435546875 25.378473281860351563 25.491270065307617188 25.57463836669921875 25.3011932373046875 25.08867645263671875 25.007251739501953125 24.866489410400390625 24.563436508178710938 23.7204132080078125 22.262083053588867188 21.244245529174804688 20.991367340087890625 21.131900787353515625 21.38077545166015625 21.351995468139648438 21.587738037109375 22.958120346069335938 23.595487594604492188 24.123319625854492188 25.078395843505859375 25.401334762573242188 25.219326019287109375 24.77712249755859375 24.764982223510742188 25.14342498779296875 25.219236373901367188 25.109033584594726563 24.842233657836914063 23.902118682861328125 22.009202957153320313 21.500753402709960938 22.125341415405273438 23.108690261840820313 25.087606430053710938 26.367467880249023438 26.59711456298828125 26.3469390869140625 25.847431182861328125 25.306308746337890625 24.808282852172851563 24.66638946533203125 24.956075668334960938 25.72907257080078125 26.215856552124023438 26.44622039794921875 26.496332168579101563 -9999 -9999 -9999 -9999 -9999 -9999 -9999 -9999 -9999 -9999 -9999 -9999 -9999 -9999 -9999 -9999 -9999 -9999 -9999 -9999 -9999 -9999 -9999 -9999 -9999 -9999 -9999
 -9999 -9999 -9999 -9999 -9999 -9999 -9999 -9999 -9999 -9999 -9999 -9999 -9999 -9999 -9999 -9999 -9999 -9999 -9999 -9999 -9999 -9999 -9999 -9999 -9999 -9999 -9999 -9999 -9999 -9999 -9999 26.928424835205078125 26.7962493896484375 26.699432373046875 26.5494537353515625 26.339666366577148438 25.86434173583984375 24.617078781127929688 24.61684417724609375 25.77661895751953125 25.943677902221679688 26.004438400268554688 25.9945526123046875 25.879703521728515625 25.776729583740234375 25.825620651245117188 25.996280670166015625 26.008235931396484375 25.820981979370117188 25.545034408569335938 25.395145416259765625 25.178607940673828125 24.85776519775390625 24.701068878173828125 24.737646102905273438 24.837751388549804688 24.90598297119140625 25.051691055297851563 25.216527938842773438 25.26236724853515625 25.235578536987304688 25.219842910766601563 25.302593231201171875 25.41811370849609375 25.4169769287109375 25.385650634765625 25.295825958251953125 25.259613037109375 25.18425750732421875 24.89875030517578125 24.416839599609375 23.703157424926757813 22.651006698608398438 21.6120758056640625 21.091043472290039063 20.901033401489257813 20.74121856689453125 20.9982147216796875 22.090536117553710938 23.29935455322265625 23.790246963500976563 24.2525177001953125 25.1197052001953125 25.310718536376953125 25.099473953247070313 24.812021255493164063 24.851436614990234375 25.196252822875976563 25.289211273193359375 25.17652130126953125 24.769285202026367188 23.55924224853515625 21.884761810302734375 21.8013153076171875 22.785943984985351563 23.845668792724609375 25.594512939453125 26.443754196166992188 26.532011032104492188 26.32709503173828125 25.893686294555664063 25.295114517211914063 24.727245330810546875 24.632783889770507813 24.942876815795898438 25.67853546142578125 26.108858108520507813 26.307798385620117188 -9999 -9999 -9999 -9999 -9999 -9999 -9999 -9999 -9999 -9999 -9999 -9999 -9999 -9999 -9999 -9999 -9999 -9999 -9999 -9999 -9999 -9999 -9999 -9999 -9999 -9999 -9999 -9999
 -9999 -9999 -9999 -9999 -9999 -9999 -9999 -9999 -9999 -9999 -9999 -9999 -9999 -9999 -9999 -9999 -9999 -9999 -9999 -9999 -9999 -9999 -9999 -9999 -9999 -9999 -9999 -9999 -9999 -9999 -9999 26.914516448974609375 26.770360946655273438 26.405046463012695313 25.975772857666015625 24.868495941162109375 24.781238555908203125 25.898136138916015625 25.930482864379882813 25.953418731689453125 25.990468978881835938 26.024555206298828125 26.046831130981445313 25.961002349853515625 25.888307571411132813 25.982452392578125 26.2184906005859375 26.338464736938476563 26.184299468994140625 25.926837921142578125 25.78676605224609375 25.584669113159179688 25.250108718872070313 24.96216583251953125 24.97338104248046875 25.13488006591796875 25.177728652954101563 25.201213836669921875 25.24954986572265625 25.268667221069335938 25.256399154663085938 25.239511489868164063 25.359090805053710938 25.524301528930664063 25.468370437622070313 25.383697509765625 25.408452987670898438 25.513570785522460938 25.461700439453125 25.07958221435546875 24.4673919677734375 23.878810882568359375 23.157983779907226563 22.170505523681640625 21.336145401000976563 20.891614913940429688 20.686275482177734375 21.123453140258789063 22.549468994140625 23.732957839965820313 24.332685470581054688 24.66961669921875 25.23865509033203125 25.216955184936523438 25.135793685913085938 25.213628768920898438 25.297943115234375 25.41516876220703125 25.427328109741210938 25.271640777587890625 24.514806747436523438 22.843866348266601563 21.843740463256835938 22.37313079833984375 23.521717071533203125 24.400304794311523438 25.571123123168945313 26.014982223510742188 26.07221221923828125 26.124334335327148438 25.939783096313476563 25.341657638549804688 24.437246322631835938 24.211725234985351563 24.606660842895507813 25.534681320190429688 26.021739959716796875 -9999 -9999 -9999 -9999 -9999 -9999 -9999 -9999 -9999 -9999 -9999 -9999 -9999 -9999 -9999 -9999 -9999 -9999 -9999 -9999 -9999 -9999 -9999 -9999 -9999 -9999 -9999 -9999 -9999
 -9999 -9999 -9999 -9999 -9999 -9999 -9999 -9999 -9999 -9999 -9999 -9999 -9999 -9999 -9999 -9999 -9999 -9999 -9999 -9999 -9999 -9999 -9999 -9999 -9999 -9999 -9999 -9999 -9999 -9999 -9999 26.928722381591796875 26.68323516845703125 26.176122665405273438 24.92224884033203125 24.889692306518554688 26.228063583374023438 26.15006256103515625 26.071413040161132813 26.029720306396484375 26.008394241333007813 26.026540756225585938 26.062557220458984375 26.014104843139648438 25.991537094116210938 26.118818283081054688 26.428091049194335938 26.691686630249023438 26.664285659790039063 26.413110733032226563 26.269845962524414063 26.075616836547851563 25.685949325561523438 25.285478591918945313 25.160737991333007813 25.2979888916015625 25.359159469604492188 25.344312667846679688 25.359403610229492188 25.365148544311523438 25.3482208251953125 25.351909637451171875 25.471399307250976563 25.649888992309570313 25.626386642456054688 25.477445602416992188 25.473926544189453125 25.675373077392578125 25.679546356201171875 25.370271682739257813 24.912670135498046875 24.258724212646484375 23.131811141967773438 22.143253326416015625 21.594079971313476563 21.268648147583007813 21.28725433349609375 21.759290695190429688 23.074628829956054688 24.486715316772460938 25.494836807250976563 25.657695770263671875 25.646871566772460938 25.678140640258789063 25.73239898681640625 25.751420974731445313 25.7353668212890625 25.66088104248046875 25.501180648803710938 25.172155380249023438 24.231473922729492188 22.73801422119140625 22.257593154907226563 22.94281005859375 23.8896026611328125 24.41756439208984375 24.949224472045898438 25.21399688720703125 25.519287109375 25.897882461547851563 25.9310760498046875 25.547145843505859375 24.6738128662109375 24.342451095581054688 24.649785995483398438 25.432249069213867188 -9999 -9999 -9999 -9999 -9999 -9999 -9999 -9999 -9999 -9999 -9999 -9999 -9999 -9999 -9999 -9999 -9999 -9999 -9999 -9999 -9999 -9999 -9999 -9999 -9999 -9999 -9999 -9999 -9999 -9999
 -9999 -9999 -9999 -9999 -9999 -9999 -9999 -9999 -9999 -9999 -9999 -9999 -9999 -9999 -9999 -9999 -9999 -9999 -9999 -9999 -9999 -9999 -9999 -9999 -9999 -9999 -9999 -9999 -9999 -9999 -9999 -9999 -9999 26.139669418334960938 26.143947601318359375 26.354106903076171875 26.374399185180664063 26.21270751953125 26.149721145629882813 26.150119781494140625 26.148088455200195313 26.143323898315429688 26.139257431030273438 26.158712387084960938 26.219652175903320313 26.356298446655273438 26.599485397338867188 26.82012176513671875 26.829301834106445313 26.657899856567382813 26.540540695190429688 26.330537796020507813 25.940843582153320313 25.552248001098632813 25.304891586303710938 25.376008987426757813 25.463102340698242188 25.457630157470703125 25.435670852661132813 25.419342041015625 25.3896331787109375 25.385898590087890625 25.501836776733398438 25.712976455688476563 25.780351638793945313 25.681371688842773438 25.6043853759765625 25.704103469848632813 25.6970977783203125 25.480142593383789063 25.124376296997070313 24.208375930786132813 22.554407119750976563 21.833179473876953125 21.811130523681640625 21.7281494140625 21.792209625244140625 22.2796173095703125 23.747957229614257813 25.387037277221679688 26.203678131103515625 26.17760467529296875 25.845050811767578125 25.8208770751953125 25.834148406982421875 25.812349319458007813 25.793016433715820313 25.692949295043945313 25.424488067626953125 24.997838973999023438 24.124561309814453125 22.932455062866210938 22.441822052001953125 22.721963882446289063 23.448591232299804688 23.908189773559570313 24.403066635131835938 24.795824050903320313 25.188673019409179688 25.583425521850585938 25.784038543701171875 25.666032791137695313 25.2149658203125 24.961561203002929688 25.103359222412109375 25.5429840087890625 -9999 -9999 -9999 -9999 -9999 -9999 -9999 -9999 -9999 -9999 -9999 -9999 -9999 -9999 -9999 -9999 -9999 -9999 -9999 -9999 -9999 -9999 -9999 -9999 -9999 -9999 -9999 -9999 -9999 -9999
 -9999 -9999 -9999 -9999 -9999 -9999 -9999 -9999 -9999 -9999 -9999 -9999 -9999 -9999 -9999 -9999 -9999 -9999 -9999 -9999 -9999 -9999 -9999 -9999 -9999 -9999 -9999 -9999 -9999 -9999 -9999 -9999 -9999 26.403421401977539063 26.45282745361328125 26.531591415405273438 26.443990707397460938 26.28958892822265625 26.279298782348632813 26.3512115478515625 26.367628097534179688 26.3478851318359375 26.333980560302734375 26.432477951049804688 26.605466842651367188 26.753602981567382813 26.85984039306640625 26.88787841796875 26.809444427490234375 26.678995132446289063 26.59120941162109375 26.394716262817382813 26.038053512573242188 25.711103439331054688 25.442592620849609375 25.38352203369140625 25.45149993896484375 25.479419708251953125 25.449228286743164063 25.433088302612304688 25.420505523681640625 25.38836669921875 25.432500839233398438 25.635831832885742188 25.777217864990234375 25.811517715454101563 25.767210006713867188 25.81275177001953125 25.812963485717773438 25.614694595336914063 25.075845718383789063 24.040811538696289063 22.662919998168945313 22.285299301147460938 22.305110931396484375 22.099035263061523438 22.074842453002929688 22.795419692993164063 24.689992904663085938 25.909942626953125 26.278375625610351563 26.194507598876953125 25.960103988647460938 25.839864730834960938 25.805978775024414063 25.849802017211914063 25.815715789794921875 25.62073516845703125 25.311620712280273438 24.798341751098632813 24.06201934814453125 23.1860504150390625 22.553209304809570313 22.300161361694335938 22.577898025512695313 22.992420196533203125 23.738965988159179688 24.313097000122070313 24.664974212646484375 25.091394424438476563 25.55019378662109375 25.608989715576171875 25.45090484619140625 25.357164382934570313 25.438180923461914063 25.675523757934570313 -9999 -9999 -9999 -9999 -9999 -9999 -9999 -9999 -9999 -9999 -9999 -9999 -9999 -9999 -9999 -9999 -9999 -9999 -9999 -9999 -9999 -9999 -9999 -9999 -9999 -9999 -9999 -9999 -9999 -9999
 -9999 -9999 -9999 -9999 -9999 -9999 -9999 -9999 -9999 -9999 -9999 -9999 -9999 -9999 -9999 -9999 -9999 -9999 -9999 -9999 -9999 -9999 -9999 -9999 -9999 -9999 -9999 -9999 -9999 -9999 -9999 -9999 -9999 26.716949462890625 26.705640792846679688 26.640157699584960938 26.477725982666015625 26.385715484619140625 26.431377410888671875 26.53725433349609375 26.54618072509765625 26.538400650024414063 26.595647811889648438 26.82329559326171875 27.138233184814453125 27.226593017578125 27.151081085205078125 26.98314666748046875 26.811212539672851563 26.653375625610351563 26.576982498168945313 26.436967849731445313 26.119384765625 25.77642059326171875 25.512800216674804688 25.403461456298828125 25.423055648803710938 25.413356781005859375 25.389280319213867188 25.401416778564453125 25.4455413818359375 25.454883575439453125 25.479368209838867188 25.57403564453125 25.6485595703125 25.73583984375 25.845083236694335938 26.00179290771484375 26.02442169189453125 25.744703292846679688 24.9677734375 23.953907012939453125 23.136152267456054688 23.027692794799804688 23.048557281494140625 22.576833724975585938 22.371295928955078125 23.019060134887695313 24.765722274780273438 25.754549026489257813 25.959627151489257813 25.9482269287109375 25.91556549072265625 25.87758636474609375 25.911317825317382813 26.023366928100585938 25.913135528564453125 25.5240325927734375 25.169525146484375 24.466215133666992188 23.774393081665039063 23.306787490844726563 23.014316558837890625 22.8726806640625 22.913341522216796875 23.095790863037109375 23.563993453979492188 24.066631317138671875 24.574306488037109375 25.174938201904296875 25.550310134887695313 25.6234588623046875 25.620336532592773438 25.62845611572265625 25.692228317260742188 25.833709716796875 -9999 -9999 -9999 -9999 -9999 -9999 -9999 -9999 -9999 -9999 -9999 -9999 -9999 -9999 -9999 -9999 -9999 -9999 -9999 -9999 -9999 -9999 -9999 -9999 -9999 -9999 -9999 -9999 -9999 -9999
 -9999 -9999 -9999 -9999 -9999 -9999 -9999 -9999 -9999 -9999 -9999 -9999 -9999 -9999 -9999 -9999 -9999 -9999 -9999 -9999 -9999 -9999 -9999 -9999 -9999 -9999 -9999 -9999 -9999 -9999 -9999 -9999 -9999 26.94506072998046875 26.775999069213867188 26.603418350219726563 26.457828521728515625 26.466783523559570313 26.55687713623046875 26.691118240356445313 26.803989410400390625 26.860815048217773438 26.970056533813476563 27.241296768188476563 27.608243942260742188 27.64923858642578125 27.340509414672851563 26.963977813720703125 26.741346359252929688 26.656368255615234375 26.63259124755859375 26.567583084106445313 26.325855255126953125 25.941087722778320313 25.647182464599609375 25.493230819702148438 25.443836212158203125 25.41471099853515625 25.410999298095703125 25.441614151000976563 25.508371353149414063 25.525663375854492188 25.541370391845703125 25.611776351928710938 25.679368972778320313 25.827367782592773438 26.024425506591796875 26.115037918090820313 26.069654464721679688 25.708204269409179688 24.864749908447265625 24.021657943725585938 23.683109283447265625 23.84273529052734375 23.813510894775390625 23.318096160888671875 23.000278472900390625 23.18846893310546875 24.057752609252929688 25.006891250610351563 25.360765457153320313 25.527950286865234375 25.69196319580078125 25.83005523681640625 25.986852645874023438 26.143610000610351563 26.023843765258789063 25.571008682250976563 25.101978302001953125 24.315752029418945313 23.751329421997070313 23.586107254028320313 23.750646591186523438 23.982961654663085938 24.093563079833984375 24.096918106079101563 24.18792724609375 24.642602920532226563 25.120578765869140625 25.458484649658203125 25.631807327270507813 25.702684402465820313 25.7520294189453125 25.796262741088867188 25.865045547485351563 25.994365692138671875 -9999 -9999 -9999 -9999 -9999 -9999 -9999 -9999 -9999 -9999 -9999 -9999 -9999 -9999 -9999 -9999 -9999 -9999 -9999 -9999 -9999 -9999 -9999 -9999 -9999 -9999 -9999 -9999 -9999 -9999
 -9999 -9999 -9999 -9999 -9999 -9999 -9999 -9999 -9999 -9999 -9999 -9999 -9999 -9999 -9999 -9999 -9999 -9999 -9999 -9999 -9999 -9999 -9999 -9999 -9999 -9999 -9999 -9999 -9999 -9999 -9999 27.440097808837890625 27.325044631958007813 27.067262649536132813 26.762237548828125 26.561258316040039063 26.493183135986328125 26.608552932739257813 26.690603256225585938 26.844083786010742188 27.061422348022460938 27.220975875854492188 27.47455596923828125 27.748617172241210938 28.026681900024414063 28.044633865356445313 27.547153472900390625 27.004522323608398438 26.73088836669921875 26.710016250610351563 26.737932205200195313 26.70804595947265625 26.476606369018554688 26.1488189697265625 25.886781692504882813 25.678941726684570313 25.530908584594726563 25.463346481323242188 25.49897003173828125 25.540210723876953125 25.57434844970703125 25.564050674438476563 25.591312408447265625 25.701368331909179688 25.843523025512695313 26.090679168701171875 26.345672607421875 26.272523880004882813 26.072580337524414063 25.543252944946289063 24.700788497924804688 24.068567276000976563 24.08748626708984375 24.557039260864257813 24.561334609985351563 24.245157241821289063 24.05225372314453125 23.903911590576171875 23.79261016845703125 24.2044830322265625 24.683565139770507813 25.113668441772460938 25.541782379150390625 25.868640899658203125 26.085323333740234375 26.167301177978515625 26.05356597900390625 25.623126983642578125 24.995206832885742188 24.313543319702148438 23.983156204223632813 24.084659576416015625 24.7413177490234375 25.09824371337890625 25.142940521240234375 25.150976181030273438 25.238424301147460938 25.4484405517578125 25.579977035522460938 25.6217803955078125 25.678768157958984375 25.764772415161132813 25.822805404663085938 25.888156890869140625 25.97728729248046875 26.128919601440429688 -9999 -9999 -9999 -9999 -9999 -9999 -9999 -9999 -9999 -9999 -9999 -9999 -9999 -9999 -9999 -9999 -9999 -9999 -9999 -9999 -9999 -9999 -9999 -9999 -9999 -9999 -9999 -9999 -9999 -9999
 -9999 -9999 -9999 -9999 -9999 -9999 -9999 -9999 -9999 -9999 -9999 -9999 -9999 -9999 -9999 -9999 -9999 -9999 -9999 -9999 -9999 -9999 -9999 -9999 -9999 -9999 -9999 -9999 -9999 -9999 -9999 27.404745101928710938 27.343778610229492188 27.154928207397460938 26.841121673583984375 26.631259918212890625 26.59326934814453125 26.74625396728515625 26.874502182006835938 27.055234909057617188 27.26544952392578125 27.426174163818359375 27.681753158569335938 27.912656784057617188 28.150424957275390625 28.135938644409179688 27.623920440673828125 27.100498199462890625 26.814844131469726563 26.756139755249023438 26.771097183227539063 26.742916107177734375 26.534151077270507813 26.256483078002929688 25.973247528076171875 25.745557785034179688 25.586269378662109375 25.508953094482421875 25.53922271728515625 25.575319290161132813 25.60198974609375 25.59928131103515625 25.645326614379882813 25.778141021728515625 25.989637374877929688 26.308322906494140625 26.522397994995117188 26.36618804931640625 26.113422393798828125 25.508167266845703125 24.636465072631835938 24.094686508178710938 24.214939117431640625 24.781610488891601563 24.834506988525390625 24.617170333862304688 24.503467559814453125 24.264863967895507813 23.7838134765625 23.852056503295898438 24.35234832763671875 24.9430389404296875 25.512784957885742188 25.929449081420898438 26.150487899780273438 26.1843109130859375 26.065288543701171875 25.614664077758789063 24.893228530883789063 24.329685211181640625 24.196834564208984375 24.50116729736328125 25.260486602783203125 25.558076858520507813 25.565229415893554688 25.595586776733398438 25.695882797241210938 25.762836456298828125 25.746511459350585938 25.71648406982421875 25.754270553588867188 25.849140167236328125 25.917085647583007813 26.002191543579101563 26.092367172241210938 26.226696014404296875 -9999 -9999 -9999 -9999 -9999 -9999 -9999 -9999 -9999 -9999 -9999 -9999 -9999 -9999 -9999 -9999 -9999 -9999 -9999 -9999 -9999 -9999 -9999 -9999 -9999 -9999 -9999 -9999 -9999 -9999
 -9999 -9999 -9999 -9999 -9999 -9999 -9999 -9999 -9999 -9999 -9999 -9999 -9999 -9999 -9999 -9999 -9999 -9999 -9999 -9999 -9999 -9999 -9999 -9999 -9999 -9999 -9999 -9999 -9999 -9999 -9999 27.378278732299804688 27.367519378662109375 27.3461151123046875 27.0980224609375 26.855501174926757813 26.826097488403320313 26.997808456420898438 27.268665313720703125 27.50028228759765625 27.610179901123046875 27.67376708984375 27.771579742431640625 27.875253677368164063 28.06531524658203125 27.998748779296875 27.660753250122070313 27.3211212158203125 27.030557632446289063 26.834075927734375 26.773288726806640625 26.709775924682617188 26.54195404052734375 26.329141616821289063 26.0357818603515625 25.806997299194335938 25.690168380737304688 25.626775741577148438 25.597156524658203125 25.60076141357421875 25.631587982177734375 25.67840576171875 25.779445648193359375 25.980564117431640625 26.328338623046875 26.642148971557617188 26.678030014038085938 26.521860122680664063 26.343936920166015625 25.7586212158203125 24.724620819091796875 24.197309494018554688 24.314886093139648438 24.864437103271484375 24.954488754272460938 24.76766204833984375 24.652978897094726563 24.377874374389648438 23.7438201904296875 23.58042144775390625 24.036680221557617188 24.773387908935546875 25.518527984619140625 26.021518707275390625 26.213283538818359375 26.222471237182617188 26.102434158325195313 25.63214111328125 24.89006805419921875 24.480497360229492188 24.638406753540039063 25.165979385375976563 25.683147430419921875 25.824941635131835938 25.882184982299804688 25.910802841186523438 25.920030593872070313 25.930118560791015625 25.90643310546875 25.878541946411132813 25.941148757934570313 26.06649017333984375 26.158588409423828125 26.254682540893554688 26.318286895751953125 26.384901046752929688 -9999 -9999 -9999 -9999 -9999 -9999 -9999 -9999 -9999 -9999 -9999 -9999 -9999 -9999 -9999 -9999 -9999 -9999 -9999 -9999 -9999 -9999 -9999 -9999 -9999 -9999 -9999 -9999 -9999 -9999
 -9999 -9999 -9999 -9999 -9999 -9999 -9999 -9999 -9999 -9999 -9999 -9999 -9999 -9999 -9999 -9999 -9999 -9999 -9999 -9999 -9999 -9999 -9999 -9999 -9999 -9999 -9999 -9999 -9999 -9999 -9999 27.369709014892578125 27.375818252563476563 27.4944915771484375 27.336744308471679688 27.047807693481445313 27.022230148315429688 27.25478363037109375 27.604875564575195313 27.818225860595703125 27.826114654541015625 27.826803207397460938 27.860286712646484375 27.867069244384765625 27.89682769775390625 27.863397598266601563 27.798147201538085938 27.590602874755859375 27.246305465698242188 26.94120025634765625 26.794595718383789063 26.62209320068359375 26.44908905029296875 26.361904144287109375 26.285686492919921875 26.079229354858398438 25.942579269409179688 25.874727249145507813 25.749387741088867188 25.689126968383789063 25.681222915649414063 25.758989334106445313 25.985164642333984375 26.3902435302734375 26.8126068115234375 26.838792800903320313 26.759868621826171875 26.79956817626953125 26.8020172119140625 26.322061538696289063 25.0807647705078125 24.540792465209960938 24.71799468994140625 25.161470413208007813 25.17029571533203125 24.94136810302734375 24.801740646362304688 24.503206253051757813 23.79883575439453125 23.508281707763671875 23.838657379150390625 24.61804962158203125 25.575717926025390625 26.111242294311523438 26.23931121826171875 26.231023788452148438 26.144603729248046875 25.823476791381835938 25.293687820434570313 24.982320785522460938 25.26100921630859375 25.695634841918945313 25.93521881103515625 26.03055572509765625 26.140516281127929688 26.162069320678710938 26.120330810546875 26.124940872192382813 26.09943389892578125 26.067327499389648438 26.1443328857421875 26.305688858032226563 26.40169525146484375 26.448186874389648438 26.479763031005859375 26.525083541870117188 -9999 -9999 -9999 -9999 -9999 -9999 -9999 -9999 -9999 -9999 -9999 -9999 -9999 -9999 -9999 -9999 -9999 -9999 -9999 -9999 -9999 -9999 -9999 -9999 -9999 -9999 -9999 -9999 -9999 -9999
 -9999 -9999 -9999 -9999 -9999 -9999 -9999 -9999 -9999 -9999 -9999 -9999 -9999 -9999 -9999 -9999 -9999 -9999 -9999 -9999 -9999 -9999 -9999 -9999 -9999 -9999 -9999 -9999 -9999 -9999 -9999 27.393270492553710938 27.354496002197265625 27.526851654052734375 27.5406646728515625 27.18000030517578125 27.201328277587890625 27.502138137817382813 27.866306304931640625 27.966432571411132813 27.872285842895507813 27.84375762939453125 27.871427536010742188 27.8322296142578125 27.765287399291992188 27.80786895751953125 27.921483993530273438 27.841655731201171875 27.501245498657226563 27.102018356323242188 26.851575851440429688 26.559556961059570313 26.459135055541992188 26.482995986938476563 26.483491897583007813 26.376356124877929688 26.324617385864257813 26.247356414794921875 25.9237518310546875 25.771575927734375 25.753772735595703125 25.8360748291015625 26.184001922607421875 26.782495498657226563 27.025205612182617188 26.80672454833984375 26.717992782592773438 26.840467453002929688 26.859403610229492188 26.448556900024414063 25.513631820678710938 25.22769927978515625 25.44654083251953125 25.499683380126953125 25.226718902587890625 24.99169921875 24.990507125854492188 24.80384063720703125 24.201610565185546875 23.821386337280273438 24.030359268188476563 24.867855072021484375 25.7790374755859375 26.183746337890625 26.262218475341796875 26.265394210815429688 26.21234893798828125 26.007686614990234375 25.711301803588867188 25.602916717529296875 25.800985336303710938 26.007703781127929688 26.099582672119140625 26.194223403930664063 26.302366256713867188 26.332475662231445313 26.316358566284179688 26.306531906127929688 26.299160003662109375 26.307691574096679688 26.387502670288085938 26.478494644165039063 26.522050857543945313 26.547430038452148438 26.590076446533203125 26.697435379028320313 -9999 -9999 -9999 -9999 -9999 -9999 -9999 -9999 -9999 -9999 -9999 -9999 -9999 -9999 -9999 -9999 -9999 -9999 -9999 -9999 -9999 -9999 -9999 -9999 -9999 -9999 -9999 -9999 -9999 -9999
 -9999 -9999 -9999 -9999 -9999 -9999 -9999 -9999 -9999 -9999 -9999 -9999 -9999 -9999 -9999 -9999 -9999 -9999 -9999 -9999 -9999 -9999 -9999 -9999 -9999 -9999 -9999 -9999 -9999 -9999 27.614488601684570313 27.507080078125 27.481565475463867188 27.621456146240234375 27.634504318237304688 27.200000762939453125 27.509370803833007813 27.836908340454101563 28.080326080322265625 28.010839462280273438 27.873266220092773438 27.834188461303710938 27.840257644653320313 27.806226730346679688 27.688547134399414063 27.714061737060546875 27.887386322021484375 27.94275665283203125 27.712345123291015625 27.346117019653320313 27.109941482543945313 26.790330886840820313 26.52606201171875 26.431600570678710938 26.444540023803710938 26.551515579223632813 26.705898284912109375 26.583904266357421875 26.197431564331054688 26.012477874755859375 25.939161300659179688 26.002899169921875 26.354036331176757813 26.884510040283203125 27.003475189208984375 26.809658050537109375 26.658054351806640625 26.568891525268554688 26.413984298706054688 26.037200927734375 25.761068344116210938 25.7501068115234375 25.820178985595703125 25.594478607177734375 25.0001983642578125 24.752817153930664063 25.000110626220703125 24.970460891723632813 24.490537643432617188 24.12062835693359375 24.359552383422851563 25.22795867919921875 25.903656005859375 26.221006393432617188 26.311063766479492188 26.3149871826171875 26.273702621459960938 26.129655838012695313 26.005819320678710938 26.101900100708007813 26.197523117065429688 26.263446807861328125 26.347158432006835938 26.417934417724609375 26.470804214477539063 26.49974822998046875 26.511844635009765625 26.481048583984375 26.493228912353515625 26.519807815551757813 26.5787811279296875 26.6204833984375 26.611349105834960938 26.65244293212890625 26.7250823974609375 26.890857696533203125 27.081546783447265625 -9999 -9999 -9999 -9999 -9999 -9999 -9999 -9999 -9999 -9999 -9999 -9999 -9999 -9999 -9999 -9999 -9999 -9999 -9999 -9999 -9999 -9999 -9999 -9999 -9999 -9999 -9999 -9999 -9999
 -9999 -9999 -9999 -9999 -9999 -9999 -9999 -9999 -9999 -9999 -9999 -9999 -9999 -9999 -9999 -9999 -9999 -9999 -9999 -9999 -9999 -9999 -9999 -9999 -9999 -9999 -9999 -9999 -9999 27.77906036376953125 27.725553512573242188 27.647436141967773438 27.613554000854492188 27.594381332397460938 27.479001998901367188 27.219999313354492188 27.692213058471679688 28.077373504638671875 28.170070648193359375 27.959291458129882813 27.735181808471679688 27.659832000732421875 27.653818130493164063 27.67775726318359375 27.619968414306640625 27.575006484985351563 27.68194580078125 27.760982513427734375 27.714662551879882813 27.533702850341796875 27.36118316650390625 27.025648117065429688 26.636705398559570313 26.436626434326171875 26.458650588989257813 26.635419845581054688 26.793323516845703125 26.710063934326171875 26.65207672119140625 26.540109634399414063 26.297895431518554688 26.345861434936523438 26.640901565551757813 26.913692474365234375 27.026576995849609375 26.935758590698242188 26.700176239013671875 26.455564498901367188 26.268527984619140625 26.011312484741210938 25.935857772827148438 25.936534881591796875 25.942340850830078125 25.61862945556640625 24.81412506103515625 24.610784530639648438 24.94696807861328125 24.971048355102539063 24.60257720947265625 24.351831436157226563 24.630365371704101563 25.381870269775390625 25.934024810791015625 26.243328094482421875 26.35874176025390625 26.377044677734375 26.360385894775390625 26.302862167358398438 26.294691085815429688 26.412700653076171875 26.466716766357421875 26.512189865112304688 26.576444625854492188 26.556430816650390625 26.547266006469726563 26.56119537353515625 26.592706680297851563 26.621044158935546875 26.637908935546875 26.664609909057617188 26.727619171142578125 26.793369293212890625 26.81375885009765625 26.833456039428710938 26.87595367431640625 26.996019363403320313 27.129838943481445313 -9999 -9999 -9999 -9999 -9999 -9999 -9999 -9999 -9999 -9999 -9999 -9999 -9999 -9999 -9999 -9999 -9999 -9999 -9999 -9999 -9999 -9999 -9999 -9999 -9999 -9999 -9999 -9999 -9999
 -9999 -9999 -9999 -9999 -9999 -9999 -9999 -9999 -9999 -9999 -9999 -9999 -9999 -9999 -9999 -9999 -9999 -9999 -9999 -9999 -9999 -9999 -9999 -9999 -9999 -9999 -9999 -9999 -9999 27.774278640747070313 27.696523666381835938 27.622735977172851563 27.575941085815429688 27.482172012329101563 27.353891372680664063 27.229999542236328125 27.662733078002929688 28.072423934936523438 28.129350662231445313 27.88265228271484375 27.60730743408203125 27.498643875122070313 27.459733963012695313 27.481775283813476563 27.474424362182617188 27.4330291748046875 27.502223968505859375 27.577253341674804688 27.652067184448242188 27.664546966552734375 27.551752090454101563 27.1978759765625 26.8273162841796875 26.681304931640625 26.7226715087890625 26.803783416748046875 26.79384613037109375 26.735212326049804688 26.85828399658203125 26.809896469116210938 26.57137298583984375 26.6121368408203125 26.802501678466796875 26.925647735595703125 27.044271469116210938 27.036294937133789063 26.783639907836914063 26.486082077026367188 26.303863525390625 26.102003097534179688 26.04793548583984375 26.03485870361328125 26.0346221923828125 25.770252227783203125 25.074605941772460938 24.844873428344726563 25.020099639892578125 25.004014968872070313 24.751775741577148438 24.659168243408203125 24.819032669067382813 25.276866912841796875 25.884340286254882813 26.25341796875 26.414892196655273438 26.48096466064453125 26.513004302978515625 26.545131683349609375 26.520963668823242188 26.4950103759765625 26.540126800537109375 26.623178482055664063 26.630971908569335938 26.606281280517578125 26.60845947265625 26.606693267822265625 26.61074066162109375 26.673456192016601563 26.73903656005859375 26.78971099853515625 26.872301101684570313 26.962022781372070313 27.01251983642578125 27.035642623901367188 27.048875808715820313 27.088451385498046875 27.157716751098632813 -9999 -9999 -9999 -9999 -9999 -9999 -9999 -9999 -9999 -9999 -9999 -9999 -9999 -9999 -9999 -9999 -9999 -9999 -9999 -9999 -9999 -9999 -9999 -9999 -9999 -9999 -9999 -9999 -9999
 -9999 -9999 -9999 -9999 -9999 -9999 -9999 -9999 -9999 -9999 -9999 -9999 -9999 -9999 -9999 -9999 -9999 -9999 -9999 -9999 -9999 -9999 -9999 -9999 -9999 -9999 -9999 -9999 27.851076126098632813 27.73738861083984375 27.539113998413085938 27.406728744506835938 27.343839645385742188 27.266704559326171875 27.25910186767578125 27.342227935791015625 27.560792922973632813 27.832551956176757813 27.8867950439453125 27.73325347900390625 27.515577316284179688 27.421772003173828125 27.37872314453125 27.377452850341796875 27.394044876098632813 27.398084640502929688 27.451093673706054688 27.50939178466796875 27.587209701538085938 27.6515960693359375 27.573831558227539063 27.270313262939453125 27.013769149780273438 26.962131500244140625 26.996549606323242188 26.969236373901367188 26.915456771850585938 26.90431976318359375 26.97939300537109375 26.933431625366210938 26.798246383666992188 26.792970657348632813 26.851772308349609375 26.92813873291015625 27.046808242797851563 27.060947418212890625 26.8210601806640625 26.474863052368164063 26.291040420532226563 26.167928695678710938 26.192922592163085938 26.180418014526367188 26.154443740844726563 25.954622268676757813 25.508707046508789063 25.332027435302734375 25.327829360961914063 25.245380401611328125 25.062990188598632813 25.07884979248046875 25.170000076293945313 25.423662185668945313 25.971416473388671875 26.328554153442382813 26.411645889282226563 26.444051742553710938 26.48090362548828125 26.538095474243164063 26.54474639892578125 26.544658660888671875 26.61395263671875 26.635309219360351563 26.6337738037109375 26.663091659545898438 26.689718246459960938 26.6863250732421875 26.682008743286132813 26.749677658081054688 26.823869705200195313 26.865304946899414063 26.965274810791015625 27.083347320556640625 27.138372421264648438 -9999 -9999 -9999 -9999 -9999 -9999 -9999 -9999 -9999 -9999 -9999 -9999 -9999 -9999 -9999 -9999 -9999 -9999 -9999 -9999 -9999 -9999 -9999 -9999 -9999 -9999 -9999 -9999 -9999 -9999 -9999 -9999 -9999
 -9999 -9999 -9999 -9999 -9999 -9999 -9999 -9999 -9999 -9999 -9999 -9999 -9999 -9999 -9999 -9999 -9999 -9999 -9999 -9999 -9999 -9999 -9999 -9999 -9999 -9999 -9999 -9999 -9999 27.736286163330078125 27.52378082275390625 27.376665115356445313 27.316234588623046875 27.2728424072265625 27.317102432250976563 27.35074615478515625 27.380414962768554688 27.4690093994140625 27.51392364501953125 27.495204925537109375 27.437921524047851563 27.406644821166992188 27.38298797607421875 27.3859405517578125 27.431659698486328125 27.4554901123046875 27.4791412353515625 27.523448944091796875 27.584978103637695313 -9999 -9999 -9999 -9999 -9999 -9999 -9999 -9999 -9999 27.1155548095703125 27.089517593383789063 27.02442169189453125 26.968038558959960938 26.902059555053710938 26.949136734008789063 27.03554534912109375 27.00319671630859375 26.850582122802734375 26.639581680297851563 26.49322509765625 26.33737945556640625 26.326602935791015625 26.3299407958984375 26.291225433349609375 26.171924591064453125 25.915292739868164063 25.648235321044921875 25.759416580200195313 25.768497467041015625 25.626489639282226563 25.704898834228515625 25.758953094482421875 25.8530120849609375 26.138078689575195313 26.415792465209960938 26.313810348510742188 26.250789642333984375 26.262578964233398438 26.348751068115234375 26.570543289184570313 26.7130584716796875 26.747829437255859375 26.71485137939453125 26.720426559448242188 26.758998870849609375 26.785593032836914063 26.814937591552734375 26.87740325927734375 26.948492050170898438 -9999 -9999 -9999 -9999 -9999 -9999 -9999 -9999 -9999 -9999 -9999 -9999 -9999 -9999 -9999 -9999 -9999 -9999 -9999 -9999 -9999 -9999 -9999 -9999 -9999 -9999 -9999 -9999 -9999 -9999 -9999 -9999 -9999 -9999 -9999 -9999 -9999 -9999
 -9999 -9999 -9999 -9999 -9999 -9999 -9999 -9999 -9999 -9999 -9999 -9999 -9999 -9999 -9999 -9999 -9999 -9999 -9999 -9999 -9999 -9999 -9999 -9999 -9999 -9999 -9999 -9999 -9999 27.744466781616210938 27.562191009521484375 27.456995010375976563 27.422168731689453125 27.403400421142578125 27.424106597900390625 27.388914108276367188 27.3353118896484375 27.363195419311523438 27.415254592895507813 27.459598541259765625 27.475948333740234375 27.478656768798828125 27.482030868530273438 27.48638916015625 27.489910125732421875 27.492494583129882813 27.510690689086914063 27.570016860961914063 27.635044097900390625 -9999 -9999 -9999 -9999 -9999 -9999 -9999 -9999 -9999 27.177997589111328125 27.151571273803710938 27.100904464721679688 27.038265228271484375 26.933073043823242188 26.88921356201171875 26.9173431396484375 26.904890060424804688 26.828489303588867188 26.71440887451171875 26.60832977294921875 26.447284698486328125 26.38715362548828125 26.386293411254882813 26.361085891723632813 26.28833770751953125 26.111738204956054688 25.812643051147460938 25.9388427734375 25.98278045654296875 25.880950927734375 25.973104476928710938 26.014719009399414063 26.03716278076171875 26.170843124389648438 26.366796493530273438 26.2529144287109375 26.207567214965820313 26.23262786865234375 26.349365234375 26.636323928833007813 26.828294754028320313 26.881177902221679688 26.849628448486328125 26.839975357055664063 26.84606170654296875 26.872526168823242188 26.926273345947265625 27.010610580444335938 27.069139480590820313 -9999 -9999 -9999 -9999 -9999 -9999 -9999 -9999 -9999 -9999 -9999 -9999 -9999 -9999 -9999 -9999 -9999 -9999 -9999 -9999 -9999 -9999 -9999 -9999 -9999 -9999 -9999 -9999 -9999 -9999 -9999 -9999 -9999 -9999 -9999 -9999 -9999 -9999
 -9999 -9999 -9999 -9999 -9999 -9999 -9999 -9999 -9999 -9999 -9999 -9999 -9999 -9999 -9999 -9999 -9999 -9999 -9999 -9999 -9999 -9999 -9999 -9999 -9999 -9999 -9999 -9999 -9999 -9999 -9999 -9999 -9999 27.5058746337890625 27.542043685913085938 27.48366546630859375 27.432758331298828125 27.451944351196289063 27.5111846923828125 27.580274581909179688 27.610868453979492188 27.615858078002929688 27.62094879150390625 27.615823745727539063 -9999 -9999 -9999 -9999 -9999 -9999 -9999 -9999 -9999 -9999 -9999 -9999 -9999 -9999 -9999 -9999 -9999 27.071481704711914063 26.973199844360351563 26.753042221069335938 26.683580398559570313 26.750446319580078125 26.761226654052734375 26.730192184448242188 26.677648544311523438 26.55242156982421875 26.442934036254882813 26.41431427001953125 26.422435760498046875 26.377353668212890625 26.27281951904296875 26.070768356323242188 26.0416412353515625 26.0294342041015625 25.983425140380859375 26.055868148803710938 26.10468292236328125 26.0816192626953125 26.089513778686523438 26.162786483764648438 26.216936111450195313 26.315448760986328125 26.396821975708007813 26.548490524291992188 26.76808929443359375 26.963253021240234375 27.101133346557617188 27.086496353149414063 27.028177261352539063 26.964918136596679688 26.981618881225585938 27.015756607055664063 -9999 -9999 -9999 -9999 -9999 -9999 -9999 -9999 -9999 -9999 -9999 -9999 -9999 -9999 -9999 -9999 -9999 -9999 -9999 -9999 -9999 -9999 -9999 -9999 -9999 -9999 -9999 -9999 -9999 -9999 -9999 -9999 -9999 -9999 -9999 -9999 -9999 -9999 -9999 -9999
 -9999 -9999 -9999 -9999 -9999 -9999 -9999 -9999 -9999 -9999 -9999 -9999 -9999 -9999 -9999 -9999 -9999 -9999 -9999 -9999 -9999 -9999 -9999 -9999 -9999 -9999 -9999 -9999 -9999 -9999 -9999 -9999 -9999 -9999 -9999 27.579763412475585938 27.549556732177734375 27.551259994506835938 27.576860427856445313 -9999 -9999 -9999 -9999 -9999 -9999 -9999 -9999 -9999 -9999 -9999 -9999 -9999 -9999 -9999 -9999 -9999 -9999 -9999 -9999 -9999 -9999 -9999 27.019914627075195313 27 26.917299270629882813 26.797239303588867188 26.837146759033203125 26.859056472778320313 26.809970855712890625 26.633184432983398438 26.47055816650390625 26.431020736694335938 26.459262847900390625 26.412738800048828125 26.354898452758789063 26.26485443115234375 26.173673629760742188 26.122173309326171875 26.078451156616210938 26.111886978149414063 26.157819747924804688 26.105009078979492188 26.01909637451171875 26.054386138916015625 26.233488082885742188 26.455425262451171875 26.565418243408203125 26.687990188598632813 26.875101089477539063 27.104257583618164063 27.25778961181640625 -9999 -9999 -9999 -9999 -9999 -9999 -9999 -9999 -9999 -9999 -9999 -9999 -9999 -9999 -9999 -9999 -9999 -9999 -9999 -9999 -9999 -9999 -9999 -9999 -9999 -9999 -9999 -9999 -9999 -9999 -9999 -9999 -9999 -9999 -9999 -9999 -9999 -9999 -9999 -9999 -9999 -9999 -9999 -9999 -9999
 -9999 -9999 -9999 -9999 -9999 -9999 -9999 -9999 -9999 -9999 -9999 -9999 -9999 -9999 -9999 -9999 -9999 -9999 -9999 -9999 -9999 -9999 -9999 -9999 -9999 -9999 -9999 -9999 -9999 -9999 -9999 -9999 -9999 -9999 -9999 -9999 -9999 -9999 -9999 -9999 -9999 -9999 -9999 -9999 -9999 -9999 -9999 -9999 -9999 -9999 -9999 -9999 -9999 -9999 -9999 -9999 -9999 -9999 -9999 -9999 -9999 -9999 -9999 -9999 27.100000381469726563 27.016767501831054688 27.054046630859375 27.00063323974609375 26.920543670654296875 26.712366104125976563 26.445150375366210938 26.364278793334960938 26.4076995849609375 26.367130279541015625 26.373640060424804688 26.342527389526367188 26.245426177978515625 26.203754425048828125 26.197290420532226563 26.209592819213867188 26.221242904663085938 26.161722183227539063 26.070615768432617188 26.15643310546875 26.3880462646484375 26.674055099487304688 26.776411056518554688 26.81357574462890625 26.970607757568359375 27.224729537963867188 27.3722381591796875 -9999 -9999 -9999 -9999 -9999 -9999 -9999 -9999 -9999 -9999 -9999 -9999 -9999 -9999 -9999 -9999 -9999 -9999 -9999 -9999 -9999 -9999 -9999 -9999 -9999 -9999 -9999 -9999 -9999 -9999 -9999 -9999 -9999 -9999 -9999 -9999 -9999 -9999 -9999 -9999 -9999 -9999 -9999 -9999 -9999
 -9999 -9999 -9999 -9999 -9999 -9999 -9999 -9999 -9999 -9999 -9999 -9999 -9999 -9999 -9999 -9999 -9999 -9999 -9999 -9999 -9999 -9999 -9999 -9999 -9999 -9999 -9999 -9999 -9999 -9999 -9999 -9999 -9999 -9999 -9999 -9999 -9999 -9999 -9999 -9999 -9999 -9999 -9999 -9999 -9999 -9999 -9999 -9999 -9999 -9999 -9999 -9999 -9999 -9999 -9999 -9999 -9999 -9999 -9999 -9999 -9999 -9999 -9999 -9999 -9999 27.202016830444335938 27.186342239379882813 27.082582473754882813 26.99542236328125 26.775873184204101563 26.4087371826171875 26.254638671875 26.241306304931640625 26.178258895874023438 26.3032989501953125 26.366945266723632813 26.284509658813476563 26.260927200317382813 26.302423477172851563 26.32054901123046875 26.310138702392578125 26.269968032836914063 26.277278900146484375 26.499065399169921875 26.781660079956054688 26.916627883911132813 26.92954254150390625 26.927461624145507813 27.055646896362304688 27.288389205932617188 -9999 -9999 -9999 -9999 -9999 -9999 -9999 -9999 -9999 -9999 -9999 -9999 -9999 -9999 -9999 -9999 -9999 -9999 -9999 -9999 -9999 -9999 -9999 -9999 -9999 -9999 -9999 -9999 -9999 -9999 -9999 -9999 -9999 -9999 -9999 -9999 -9999 -9999 -9999 -9999 -9999 -9999 -9999 -9999 -9999 -9999
 -9999 -9999 -9999 -9999 -9999 -9999 -9999 -9999 -9999 -9999 -9999 -9999 -9999 -9999 -9999 -9999 -9999 -9999 -9999 -9999 -9999 -9999 -9999 -9999 -9999 -9999 -9999 -9999 -9999 -9999 -9999 -9999 -9999 -9999 -9999 -9999 -9999 -9999 -9999 -9999 -9999 -9999 -9999 -9999 -9999 -9999 -9999 -9999 -9999 -9999 -9999 -9999 -9999 -9999 -9999 -9999 -9999 -9999 -9999 -9999 -9999 -9999 -9999 -9999 -9999 -9999 27.200880050659179688 27.11139678955078125 27.045999526977539063 26.857892990112304688 26.503416061401367188 26.310544967651367188 26.274188995361328125 26.222202301025390625 26.35860443115234375 26.449949264526367188 26.387481689453125 26.37871551513671875 26.435024261474609375 26.424282073974609375 26.392513275146484375 26.40567779541015625 26.5106353759765625 26.784786224365234375 27.043649673461914063 27.061002731323242188 27.0256500244140625 27.013729095458984375 27.076135635375976563 -9999 -9999 -9999 -9999 -9999 -9999 -9999 -9999 -9999 -9999 -9999 -9999 -9999 -9999 -9999 -9999 -9999 -9999 -9999 -9999 -9999 -9999 -9999 -9999 -9999 -9999 -9999 -9999 -9999 -9999 -9999 -9999 -9999 -9999 -9999 -9999 -9999 -9999 -9999 -9999 -9999 -9999 -9999 -9999 -9999 -9999 -9999
 -9999 -9999 -9999 -9999 -9999 -9999 -9999 -9999 -9999 -9999 -9999 -9999 -9999 -9999 -9999 -9999 -9999 -9999 -9999 -9999 -9999 -9999 -9999 -9999 -9999 -9999 -9999 -9999 -9999 -9999 -9999 -9999 -9999 -9999 -9999 -9999 -9999 -9999 -9999 -9999 -9999 -9999 -9999 -9999 -9999 -9999 -9999 -9999 -9999 -9999 -9999 -9999 -9999 -9999 -9999 -9999 -9999 -9999 -9999 -9999 -9999 -9999 -9999 -9999 -9999 -9999 -9999 27.113248825073242188 27.073150634765625 26.950952529907226563 26.723222732543945313 26.534692764282226563 26.442483901977539063 26.412412643432617188 26.507633209228515625 26.605464935302734375 26.590606689453125 26.575067520141601563 26.578432083129882813 26.552381515502929688 26.493658065795898438 26.494771957397460938 26.67037200927734375 27.021511077880859375 27.271205902099609375 27.243925094604492188 27.183992385864257813 27.129274368286132813 -9999 -9999 -9999 -9999 -9999 -9999 -9999 -9999 -9999 -9999 -9999 -9999 -9999 -9999 -9999 -9999 -9999 -9999 -9999 -9999 -9999 -9999 -9999 -9999 -9999 -9999 -9999 -9999 -9999 -9999 -9999 -9999 -9999 -9999 -9999 -9999 -9999 -9999 -9999 -9999 -9999 -9999 -9999 -9999 -9999 -9999 -9999 -9999
 -9999 -9999 -9999 -9999 -9999 -9999 -9999 -9999 -9999 -9999 -9999 -9999 -9999 -9999 -9999 -9999 -9999 -9999 -9999 -9999 -9999 -9999 -9999 -9999 -9999 -9999 -9999 -9999 -9999 -9999 -9999 -9999 -9999 -9999 -9999 -9999 -9999 -9999 -9999 -9999 -9999 -9999 -9999 -9999 -9999 -9999 -9999 -9999 -9999 -9999 -9999 -9999 -9999 -9999 -9999 -9999 -9999 -9999 -9999 -9999 -9999 -9999 -9999 -9999 -9999 -9999 -9999 -9999 -9999 27.049905776977539063 26.989854812622070313 26.903575897216796875 26.751855850219726563 26.701944351196289063 26.740926742553710938 26.81449127197265625 26.883419036865234375 26.8616180419921875 26.742740631103515625 26.658430099487304688 26.6494598388671875 26.768110275268554688 26.979242324829101563 27.315280914306640625 27.529447555541992188 27.4989471435546875 27.430463790893554688 -9999 -9999 -9999 -9999 -9999 -9999 -9999 -9999 -9999 -9999 -9999 -9999 -9999 -9999 -9999 -9999 -9999 -9999 -9999 -9999 -9999 -9999 -9999 -9999 -9999 -9999 -9999 -9999 -9999 -9999 -9999 -9999 -9999 -9999 -9999 -9999 -9999 -9999 -9999 -9999 -9999 -9999 -9999 -9999 -9999 -9999 -9999 -9999 -9999
 -9999 -9999 -9999 -9999 -9999 -9999 -9999 -9999 -9999 -9999 -9999 -9999 -9999 -9999 -9999 -9999 -9999 -9999 -9999 -9999 -9999 -9999 -9999 -9999 -9999 -9999 -9999 -9999 -9999 -9999 -9999 -9999 -9999 -9999 -9999 -9999 -9999 -9999 -9999 -9999 -9999 -9999 -9999 -9999 -9999 -9999 -9999 -9999 -9999 -9999 -9999 -9999 -9999 -9999 -9999 -9999 -9999 -9999 -9999 -9999 -9999 -9999 -9999 -9999 -9999 -9999 -9999 -9999 -9999 -9999 -9999 27.176778793334960938 27.093938827514648438 27.06906890869140625 27.049047470092773438 26.994020462036132813 27.084268569946289063 27.086980819702148438 26.924999237060546875 26.788816452026367188 26.925054550170898438 27.333812713623046875 27.581174850463867188 27.693559646606445313 27.78733062744140625 -9999 -9999 -9999 -9999 -9999 -9999 -9999 -9999 -9999 -9999 -9999 -9999 -9999 -9999 -9999 -9999 -9999 -9999 -9999 -9999 -9999 -9999 -9999 -9999 -9999 -9999 -9999 -9999 -9999 -9999 -9999 -9999 -9999 -9999 -9999 -9999 -9999 -9999 -9999 -9999 -9999 -9999 -9999 -9999 -9999 -9999 -9999 -9999 -9999 -9999 -9999
 -9999 -9999 -9999 -9999 -9999 -9999 -9999 -9999 -9999 -9999 -9999 -9999 -9999 -9999 -9999 -9999 -9999 -9999 -9999 -9999 -9999 -9999 -9999 -9999 -9999 -9999 -9999 -9999 -9999 -9999 -9999 -9999 -9999 -9999 -9999 -9999 -9999 -9999 -9999 -9999 -9999 -9999 -9999 -9999 -9999 -9999 -9999 -9999 -9999 -9999 -9999 -9999 -9999 -9999 -9999 -9999 -9999 -9999 -9999 -9999 -9999 -9999 -9999 -9999 -9999 -9999 -9999 -9999 -9999 -9999 -9999 27.277364730834960938 27.245450973510742188 27.22734832763671875 27.1850433349609375 27.089208602905273438 27.15842437744140625 27.163543701171875 27.022535324096679688 26.923673629760742188 27.112073898315429688 27.565225601196289063 27.824024200439453125 27.854991912841796875 27.9008941650390625 -9999 -9999 -9999 -9999 -9999 -9999 -9999 -9999 -9999 -9999 -9999 -9999 -9999 -9999 -9999 -9999 -9999 -9999 -9999 -9999 -9999 -9999 -9999 -9999 -9999 -9999 -9999 -9999 -9999 -9999 -9999 -9999 -9999 -9999 -9999 -9999 -9999 -9999 -9999 -9999 -9999 -9999 -9999 -9999 -9999 -9999 -9999 -9999 -9999 -9999 -9999
 -9999 -9999 -9999 -9999 -9999 -9999 -9999 -9999 -9999 -9999 -9999 -9999 -9999 -9999 -9999 -9999 -9999 -9999 -9999 -9999 -9999 -9999 -9999 -9999 -9999 -9999 -9999 -9999 -9999 -9999 -9999 -9999 -9999 -9999 -9999 -9999 -9999 -9999 -9999 -9999 -9999 -9999 -9999 -9999 -9999 -9999 -9999 -9999 -9999 -9999 -9999 -9999 -9999 -9999 -9999 -9999 -9999 -9999 -9999 -9999 -9999 -9999 -9999 -9999 -9999 -9999 -9999 -9999 -9999 -9999 -9999 -9999 -9999 27.2738800048828125 27.2472381591796875 27.200056076049804688 27.226602554321289063 27.208614349365234375 27.126832962036132813 27.158647537231445313 27.335948944091796875 27.595630645751953125 27.834066390991210938 27.911413192749023438 27.933557510375976563 -9999 -9999 -9999 -9999 -9999 -9999 -9999 -9999 -9999 -9999 -9999 -9999 -9999 -9999 -9999 -9999 -9999 -9999 -9999 -9999 -9999 -9999 -9999 -9999 -9999 -9999 -9999 -9999 -9999 -9999 -9999 -9999 -9999 -9999 -9999 -9999 -9999 -9999 -9999 -9999 -9999 -9999 -9999 -9999 -9999 -9999 -9999 -9999 -9999 -9999 -9999
 -9999 -9999 -9999 -9999 -9999 -9999 -9999 -9999 -9999 -9999 -9999 -9999 -9999 -9999 -9999 -9999 -9999 -9999 -9999 -9999 -9999 -9999 -9999 -9999 -9999 -9999 -9999 -9999 -9999 -9999 -9999 -9999 -9999 -9999 -9999 -9999 -9999 -9999 -9999 -9999 -9999 -9999 -9999 -9999 -9999 -9999 -9999 -9999 -9999 -9999 -9999 -9999 -9999 -9999 -9999 -9999 -9999 -9999 -9999 -9999 -9999 -9999 -9999 -9999 -9999 -9999 -9999 -9999 -9999 -9999 -9999 -9999 -9999 -9999 -9999 27.271848678588867188 27.277191162109375 27.251562118530273438 27.207061767578125 27.302381515502929688 27.483125686645507813 27.610063552856445313 -9999 -9999 -9999 -9999 -9999 -9999 -9999 -9999 -9999 -9999 -9999 -9999 -9999 -9999 -9999 -9999 -9999 -9999 -9999 -9999 -9999 -9999 -9999 -9999 -9999 -9999 -9999 -9999 -9999 -9999 -9999 -9999 -9999 -9999 -9999 -9999 -9999 -9999 -9999 -9999 -9999 -9999 -9999 -9999 -9999 -9999 -9999 -9999 -9999 -9999 -9999 -9999 -9999 -9999
 -9999 -9999 -9999 -9999 -9999 -9999 -9999 -9999 -9999 -9999 -9999 -9999 -9999 -9999 -9999 -9999 -9999 -9999 -9999 -9999 -9999 -9999 -9999 -9999 -9999 -9999 -9999 -9999 -9999 -9999 -9999 -9999 -9999 -9999 -9999 -9999 -9999 -9999 -9999 -9999 -9999 -9999 -9999 -9999 -9999 -9999 -9999 -9999 -9999 -9999 -9999 -9999 -9999 -9999 -9999 -9999 -9999 -9999 -9999 -9999 -9999 -9999 -9999 -9999 -9999 -9999 -9999 -9999 -9999 -9999 -9999 -9999 -9999 -9999 -9999 -9999 -9999 -9999 -9999 -9999 -9999 -9999 -9999 -9999 -9999 -9999 -9999 -9999 -9999 -9999 -9999 -9999 -9999 -9999 -9999 -9999 -9999 -9999 -9999 -9999 -9999 -9999 -9999 -9999 -9999 -9999 -9999 -9999 -9999 -9999 -9999 -9999 -9999 -9999 -9999 -9999 -9999 -9999 -9999 -9999 -9999 -9999 -9999 -9999 -9999 -9999 -9999 -9999 -9999 -9999 -9999 -9999 -9999 -9999 -9999 -9999
