ncols          136
nrows          276
xllcorner      5645400.0000000
yllcorner      6136700.0000000
cellsize           100.0000000
NODATA_val       -9999.0000000
     -9999     -9999     -9999     -9999     -9999     -9999     -9999     -9999     -9999     -9999     -9999     -9999     -9999     -9999     -9999     -9999     -9999     -9999     -9999     -9999     -9999     -9999     -9999     -9999     -9999     -9999     -9999     -9999     -9999     -9999     -9999     -9999     -9999     -9999     -9999     -9999     -9999     -9999     -9999     -9999     -9999     -9999     -9999     -9999     -9999     -9999     -9999     -9999     -9999     -9999     -9999     -9999     -9999     -9999     -9999     -9999     -9999     -9999     -9999     -9999     -9999     -9999     -9999     -9999     -9999     -9999     -9999     -9999     -9999     -9999     -9999     -9999     -9999     -9999     -9999     -9999     -9999     -9999     -9999     -9999     -9999     -9999     -9999     -9999     -9999     -9999     -9999     -9999     -9999     -9999     -9999     -9999     -9999     -9999     -9999     -9999     -9999     -9999     -9999     -9999     -9999     -9999     -9999     -9999     -9999     -9999     -9999     -9999     -9999     -9999     -9999     -9999     -9999     -9999     -9999     -9999     -9999     -9999     -9999     -9999     -9999     -9999     -9999     -9999     -9999     -9999     -9999     -9999     -9999     -9999     -9999     -9999     -9999     -9999     -9999     -9999
     -9999     -9999     -9999     -9999     -9999     -9999     -9999     -9999     -9999     -9999     -9999     -9999     -9999     -9999     -9999     -9999     -9999     -9999     -9999     -9999     -9999     -9999     -9999     -9999     -9999     -9999     -9999     -9999     -9999     -9999     -9999     -9999     -9999     -9999     -9999     -9999     -9999     -9999     -9999     -9999     -9999     -9999     -9999     -9999     -9999     -9999     -9999     -9999     -9999     -9999     -9999     -9999     -9999     -9999     -9999     -9999     -9999     -9999     -9999     -9999     -9999     -9999     -9999     -9999     -9999     -9999     -9999     -9999     -9999     -9999     -9999     -9999     -9999     -9999     -9999     -9999     -9999     -9999     -9999     -9999     -9999     -9999     -9999     -9999     -9999     -9999     -9999         0         0         0     -9999     -9999     -9999     -9999     -9999     -9999     -9999     -9999     -9999     -9999     -9999     -9999     -9999     -9999     -9999     -9999     -9999     -9999     -9999     -9999     -9999     -9999     -9999     -9999     -9999     -9999     -9999     -9999     -9999     -9999     -9999     -9999     -9999     -9999     -9999     -9999     -9999     -9999     -9999     -9999     -9999     -9999     -9999     -9999     -9999     -9999
     -9999     -9999     -9999     -9999     -9999     -9999     -9999     -9999     -9999     -9999     -9999     -9999     -9999     -9999     -9999     -9999     -9999     -9999     -9999     -9999     -9999     -9999     -9999     -9999     -9999     -9999     -9999     -9999     -9999     -9999     -9999     -9999     -9999     -9999     -9999     -9999     -9999     -9999     -9999     -9999     -9999     -9999     -9999     -9999     -9999     -9999     -9999     -9999     -9999     -9999     -9999     -9999     -9999     -9999     -9999     -9999     -9999     -9999     -9999     -9999     -9999     -9999     -9999     -9999     -9999     -9999     -9999     -9999     -9999     -9999     -9999     -9999     -9999     -9999     -9999     -9999     -9999     -9999     -9999     -9999     -9999     -9999     -9999     -9999     -9999     -9999     -9999         0         0         0         0     -9999     -9999     -9999     -9999     -9999     -9999     -9999     -9999     -9999     -9999     -9999     -9999     -9999     -9999     -9999     -9999     -9999     -9999     -9999     -9999     -9999     -9999     -9999     -9999     -9999     -9999     -9999     -9999     -9999     -9999     -9999     -9999     -9999     -9999     -9999     -9999     -9999     -9999     -9999     -9999     -9999     -9999     -9999     -9999     -9999
     -9999     -9999     -9999     -9999     -9999     -9999     -9999     -9999     -9999     -9999     -9999     -9999     -9999     -9999     -9999     -9999     -9999     -9999     -9999     -9999     -9999     -9999     -9999     -9999     -9999     -9999     -9999     -9999     -9999     -9999     -9999     -9999     -9999     -9999     -9999     -9999     -9999     -9999     -9999     -9999     -9999     -9999     -9999     -9999     -9999     -9999     -9999     -9999     -9999     -9999     -9999     -9999     -9999     -9999     -9999     -9999     -9999     -9999     -9999     -9999     -9999     -9999     -9999     -9999     -9999     -9999     -9999     -9999     -9999     -9999     -9999     -9999     -9999     -9999     -9999     -9999     -9999     -9999     -9999     -9999     -9999     -9999     -9999     -9999     -9999         0         0         0         0         0         0         0         0     -9999     -9999     -9999     -9999     -9999     -9999     -9999     -9999     -9999     -9999     -9999     -9999     -9999     -9999     -9999     -9999     -9999     -9999     -9999     -9999     -9999     -9999     -9999     -9999     -9999     -9999     -9999     -9999     -9999     -9999     -9999     -9999     -9999     -9999     -9999     -9999     -9999     -9999     -9999     -9999     -9999     -9999     -9999
     -9999     -9999     -9999     -9999     -9999     -9999     -9999     -9999     -9999     -9999     -9999     -9999     -9999     -9999     -9999     -9999     -9999     -9999     -9999     -9999     -9999     -9999     -9999     -9999     -9999     -9999     -9999     -9999     -9999     -9999     -9999     -9999     -9999     -9999     -9999     -9999     -9999     -9999     -9999     -9999     -9999     -9999     -9999     -9999     -9999     -9999     -9999     -9999     -9999     -9999     -9999     -9999     -9999     -9999     -9999     -9999     -9999     -9999     -9999     -9999     -9999     -9999     -9999     -9999     -9999     -9999     -9999     -9999     -9999     -9999     -9999     -9999     -9999     -9999     -9999     -9999     -9999     -9999     -9999     -9999     -9999     -9999     -9999     -9999     -9999         0         0         0         0         0         0         0         0     -9999     -9999     -9999     -9999     -9999     -9999     -9999     -9999     -9999     -9999     -9999     -9999     -9999     -9999     -9999     -9999     -9999     -9999     -9999     -9999     -9999     -9999     -9999     -9999     -9999     -9999     -9999     -9999     -9999     -9999     -9999     -9999     -9999     -9999     -9999     -9999     -9999     -9999     -9999     -9999     -9999     -9999     -9999
     -9999     -9999     -9999     -9999     -9999     -9999     -9999     -9999     -9999     -9999     -9999     -9999     -9999     -9999     -9999     -9999     -9999     -9999     -9999     -9999     -9999     -9999     -9999     -9999     -9999     -9999     -9999     -9999     -9999     -9999     -9999     -9999     -9999     -9999     -9999     -9999     -9999     -9999     -9999     -9999     -9999     -9999     -9999     -9999     -9999     -9999     -9999     -9999     -9999     -9999     -9999     -9999     -9999     -9999     -9999     -9999     -9999     -9999     -9999     -9999     -9999     -9999     -9999     -9999     -9999     -9999     -9999     -9999     -9999     -9999     -9999     -9999     -9999     -9999     -9999     -9999     -9999     -9999     -9999     -9999     -9999     -9999     -9999         0         0         0         0         0         0         0         0         0         0         0         0         0     -9999     -9999     -9999     -9999     -9999     -9999     -9999     -9999     -9999     -9999     -9999     -9999     -9999     -9999     -9999     -9999     -9999     -9999     -9999     -9999     -9999     -9999     -9999     -9999     -9999     -9999     -9999     -9999     -9999     -9999     -9999     -9999     -9999     -9999     -9999     -9999     -9999     -9999     -9999     -9999
     -9999     -9999     -9999     -9999     -9999     -9999     -9999     -9999     -9999     -9999     -9999     -9999     -9999     -9999     -9999     -9999     -9999     -9999     -9999     -9999     -9999     -9999     -9999     -9999     -9999     -9999     -9999     -9999     -9999     -9999     -9999     -9999     -9999     -9999     -9999     -9999     -9999     -9999     -9999     -9999     -9999     -9999     -9999     -9999     -9999     -9999     -9999     -9999     -9999     -9999     -9999     -9999     -9999     -9999     -9999     -9999     -9999     -9999     -9999     -9999     -9999     -9999     -9999     -9999     -9999     -9999     -9999     -9999     -9999     -9999     -9999     -9999     -9999     -9999     -9999     -9999     -9999     -9999     -9999     -9999     -9999     -9999         0         0         0         0         0         0         0         0         0         0         0         0         0         0         0     -9999     -9999     -9999     -9999     -9999     -9999     -9999     -9999     -9999     -9999     -9999     -9999     -9999     -9999     -9999     -9999     -9999     -9999     -9999     -9999     -9999     -9999     -9999     -9999     -9999     -9999     -9999     -9999     -9999     -9999     -9999     -9999     -9999     -9999     -9999     -9999     -9999     -9999     -9999
     -9999     -9999     -9999     -9999     -9999     -9999     -9999     -9999     -9999     -9999     -9999     -9999     -9999     -9999     -9999     -9999     -9999     -9999     -9999     -9999     -9999     -9999     -9999     -9999     -9999     -9999     -9999     -9999     -9999     -9999     -9999     -9999     -9999     -9999     -9999     -9999     -9999     -9999     -9999     -9999     -9999     -9999     -9999     -9999     -9999     -9999     -9999     -9999     -9999     -9999     -9999     -9999     -9999     -9999     -9999     -9999     -9999     -9999     -9999     -9999     -9999     -9999     -9999     -9999     -9999     -9999     -9999     -9999     -9999     -9999     -9999     -9999     -9999     -9999     -9999     -9999     -9999     -9999     -9999     -9999     -9999         0         0         0         0         0         0         0         0         0         0         0         0         0         0         0         0         0     -9999     -9999     -9999     -9999     -9999     -9999     -9999     -9999     -9999     -9999     -9999     -9999     -9999     -9999     -9999     -9999     -9999     -9999     -9999     -9999     -9999     -9999     -9999     -9999     -9999     -9999     -9999     -9999     -9999     -9999     -9999     -9999     -9999     -9999     -9999     -9999     -9999     -9999
     -9999     -9999     -9999     -9999     -9999     -9999     -9999     -9999     -9999     -9999     -9999     -9999     -9999     -9999     -9999     -9999     -9999     -9999     -9999     -9999     -9999     -9999     -9999     -9999     -9999     -9999     -9999     -9999     -9999     -9999     -9999     -9999     -9999     -9999     -9999     -9999     -9999     -9999     -9999     -9999     -9999     -9999     -9999     -9999     -9999     -9999     -9999     -9999     -9999     -9999     -9999     -9999     -9999     -9999     -9999     -9999     -9999     -9999     -9999     -9999     -9999     -9999     -9999     -9999     -9999     -9999     -9999     -9999     -9999     -9999     -9999     -9999     -9999     -9999     -9999     -9999     -9999     -9999     -9999     -9999         0         0         0         0         0         0         0         0         0         0         0         0         0         0         0         0         0         0         0     -9999     -9999     -9999     -9999     -9999     -9999     -9999     -9999     -9999     -9999     -9999     -9999     -9999     -9999     -9999     -9999     -9999     -9999     -9999     -9999     -9999     -9999     -9999     -9999     -9999     -9999     -9999     -9999     -9999     -9999     -9999     -9999     -9999     -9999     -9999     -9999     -9999
     -9999     -9999     -9999     -9999     -9999     -9999     -9999     -9999     -9999     -9999     -9999     -9999     -9999     -9999     -9999     -9999     -9999     -9999     -9999     -9999     -9999     -9999     -9999     -9999     -9999     -9999     -9999     -9999     -9999     -9999     -9999     -9999     -9999     -9999     -9999     -9999     -9999     -9999     -9999     -9999     -9999     -9999     -9999     -9999     -9999     -9999     -9999     -9999     -9999     -9999     -9999     -9999     -9999     -9999     -9999     -9999     -9999     -9999     -9999     -9999     -9999     -9999     -9999     -9999     -9999     -9999     -9999     -9999     -9999     -9999     -9999     -9999     -9999     -9999     -9999     -9999     -9999     -9999     -9999         0         0         0         0         0         0         0         0         0         0         0         0         0         0         0         0         0         0         0         0         0         0     -9999     -9999     -9999     -9999     -9999     -9999     -9999     -9999     -9999     -9999     -9999     -9999     -9999     -9999     -9999     -9999     -9999     -9999     -9999     -9999     -9999     -9999     -9999     -9999     -9999     -9999     -9999     -9999     -9999     -9999     -9999     -9999     -9999     -9999     -9999
     -9999     -9999     -9999     -9999     -9999     -9999     -9999     -9999     -9999     -9999     -9999     -9999     -9999     -9999     -9999     -9999     -9999     -9999     -9999     -9999     -9999     -9999     -9999     -9999     -9999     -9999     -9999     -9999     -9999     -9999     -9999     -9999     -9999     -9999     -9999     -9999     -9999     -9999     -9999     -9999     -9999     -9999     -9999     -9999     -9999     -9999     -9999     -9999     -9999     -9999     -9999     -9999     -9999     -9999     -9999     -9999     -9999     -9999     -9999     -9999     -9999     -9999     -9999     -9999     -9999     -9999     -9999     -9999     -9999     -9999     -9999     -9999     -9999     -9999     -9999     -9999     -9999     -9999         0         0         0         0         0         0         0         0         0         0         0         0         0         0         0         0         0         0         0         0         0         0         0         0     -9999     -9999     -9999     -9999     -9999     -9999     -9999     -9999     -9999     -9999     -9999     -9999     -9999     -9999     -9999     -9999     -9999     -9999     -9999     -9999     -9999     -9999     -9999     -9999     -9999     -9999     -9999     -9999     -9999     -9999     -9999     -9999     -9999     -9999
     -9999     -9999     -9999     -9999     -9999     -9999     -9999     -9999     -9999     -9999     -9999     -9999     -9999     -9999     -9999     -9999     -9999     -9999     -9999     -9999     -9999     -9999     -9999     -9999     -9999     -9999     -9999     -9999     -9999     -9999     -9999     -9999     -9999     -9999     -9999     -9999     -9999     -9999     -9999     -9999     -9999     -9999     -9999     -9999     -9999     -9999     -9999     -9999     -9999     -9999     -9999     -9999     -9999     -9999     -9999     -9999     -9999     -9999     -9999     -9999     -9999     -9999     -9999     -9999     -9999     -9999     -9999     -9999     -9999     -9999     -9999     -9999     -9999     -9999     -9999     -9999         0         0         0         0         0         0         0         0         0         0         0         0         0         0         0         0         0         0         0         0         0         0         0         0         0         0         0     -9999     -9999     -9999     -9999     -9999     -9999     -9999     -9999     -9999     -9999     -9999     -9999     -9999     -9999     -9999     -9999     -9999     -9999     -9999     -9999     -9999     -9999     -9999     -9999     -9999     -9999     -9999     -9999     -9999     -9999     -9999     -9999     -9999
     -9999     -9999     -9999     -9999     -9999     -9999     -9999     -9999     -9999     -9999     -9999     -9999     -9999     -9999     -9999     -9999     -9999     -9999     -9999     -9999     -9999     -9999     -9999     -9999     -9999     -9999     -9999     -9999     -9999     -9999     -9999     -9999     -9999     -9999     -9999     -9999     -9999     -9999     -9999     -9999     -9999     -9999     -9999     -9999     -9999     -9999     -9999     -9999     -9999     -9999     -9999     -9999     -9999     -9999     -9999     -9999     -9999     -9999     -9999     -9999     -9999     -9999     -9999     -9999     -9999     -9999     -9999     -9999     -9999     -9999     -9999     -9999     -9999     -9999     -9999         0         0         0         0         0         0         0         0         0         0         0         0         0         0         0         0         0         0         0         0         0         0         0         0         0         0         0         0         0         0     -9999     -9999     -9999     -9999     -9999     -9999     -9999     -9999     -9999     -9999     -9999     -9999     -9999     -9999     -9999     -9999     -9999     -9999     -9999     -9999     -9999     -9999     -9999     -9999     -9999     -9999     -9999     -9999     -9999     -9999     -9999
     -9999     -9999     -9999     -9999     -9999     -9999     -9999     -9999     -9999     -9999     -9999     -9999     -9999     -9999     -9999     -9999     -9999     -9999     -9999     -9999     -9999     -9999     -9999     -9999     -9999     -9999     -9999     -9999     -9999     -9999     -9999     -9999     -9999     -9999     -9999     -9999     -9999     -9999     -9999     -9999     -9999     -9999     -9999     -9999     -9999     -9999     -9999     -9999     -9999     -9999     -9999     -9999     -9999     -9999     -9999     -9999     -9999     -9999     -9999     -9999     -9999     -9999     -9999     -9999     -9999     -9999     -9999     -9999     -9999     -9999     -9999     -9999     -9999     -9999     -9999         0         0         0         0         0         0         0         0         0         0         0         0         0         0         0         0         0         0         0         0         0         0         0         0         0         0         0         0         0         0     -9999     -9999     -9999     -9999     -9999     -9999     -9999     -9999     -9999     -9999     -9999     -9999     -9999     -9999     -9999     -9999     -9999     -9999     -9999     -9999     -9999     -9999     -9999     -9999     -9999     -9999     -9999     -9999     -9999     -9999     -9999
     -9999     -9999     -9999     -9999     -9999     -9999     -9999     -9999     -9999     -9999     -9999     -9999     -9999     -9999     -9999     -9999     -9999     -9999     -9999     -9999     -9999     -9999     -9999     -9999     -9999     -9999     -9999     -9999     -9999     -9999     -9999     -9999     -9999     -9999     -9999     -9999     -9999     -9999     -9999     -9999     -9999     -9999     -9999     -9999     -9999     -9999     -9999     -9999     -9999     -9999     -9999     -9999     -9999     -9999     -9999     -9999     -9999     -9999     -9999     -9999     -9999     -9999     -9999     -9999     -9999     -9999     -9999     -9999     -9999     -9999     -9999     -9999     -9999         0         0         0         0         0         0         0         0         0         0         0         0         0         0         0         0         0         0         0         0         0         0         0         0         0         0         0         0         0         0         0         0     -9999     -9999     -9999     -9999     -9999     -9999     -9999     -9999     -9999     -9999     -9999     -9999     -9999     -9999     -9999     -9999     -9999     -9999     -9999     -9999     -9999     -9999     -9999     -9999     -9999     -9999     -9999     -9999     -9999     -9999     -9999
     -9999     -9999     -9999     -9999     -9999     -9999     -9999     -9999     -9999     -9999     -9999     -9999     -9999     -9999     -9999     -9999     -9999     -9999     -9999     -9999     -9999     -9999     -9999     -9999     -9999     -9999     -9999     -9999     -9999     -9999     -9999     -9999     -9999     -9999     -9999     -9999     -9999     -9999     -9999     -9999     -9999     -9999     -9999     -9999     -9999     -9999     -9999     -9999     -9999     -9999     -9999     -9999     -9999     -9999     -9999     -9999     -9999     -9999     -9999     -9999     -9999     -9999     -9999     -9999     -9999     -9999     -9999     -9999     -9999     -9999     -9999     -9999         0         0         0         0         0         0         0         0         0         0         0         0         0         0         0         0         0         0         0         0         0         0         0         0         0         0         0         0         0         0         0         0         0     -9999     -9999     -9999     -9999     -9999     -9999     -9999     -9999     -9999     -9999     -9999     -9999     -9999     -9999     -9999     -9999     -9999     -9999     -9999     -9999     -9999     -9999     -9999     -9999     -9999     -9999     -9999     -9999     -9999     -9999     -9999
     -9999     -9999     -9999     -9999     -9999     -9999     -9999     -9999     -9999     -9999     -9999     -9999     -9999     -9999     -9999     -9999     -9999     -9999     -9999     -9999     -9999     -9999     -9999     -9999     -9999     -9999     -9999     -9999     -9999     -9999     -9999     -9999     -9999     -9999     -9999     -9999     -9999     -9999     -9999     -9999     -9999     -9999     -9999     -9999     -9999     -9999     -9999     -9999     -9999     -9999     -9999     -9999     -9999     -9999     -9999     -9999     -9999     -9999     -9999     -9999     -9999     -9999     -9999     -9999     -9999     -9999     -9999     -9999     -9999     -9999     -9999         0         0         0         0         0         0         0         0         0         0         0         0         0         0         0         0         0         0         0         0         0         0         0         0         0         0         0         0         0         0         0         0         0         0     -9999     -9999     -9999     -9999     -9999     -9999     -9999     -9999     -9999     -9999     -9999     -9999     -9999     -9999     -9999     -9999     -9999     -9999     -9999     -9999     -9999     -9999     -9999     -9999     -9999     -9999     -9999     -9999     -9999     -9999     -9999
     -9999     -9999     -9999     -9999     -9999     -9999     -9999     -9999     -9999     -9999     -9999     -9999     -9999     -9999     -9999     -9999     -9999     -9999     -9999     -9999     -9999     -9999     -9999     -9999     -9999     -9999     -9999     -9999     -9999     -9999     -9999     -9999     -9999     -9999     -9999     -9999     -9999     -9999     -9999     -9999     -9999     -9999     -9999     -9999     -9999     -9999     -9999     -9999     -9999     -9999     -9999     -9999     -9999     -9999     -9999     -9999     -9999     -9999     -9999     -9999     -9999     -9999     -9999     -9999     -9999     -9999     -9999     -9999     -9999     -9999     -9999         0         0         0         0         0         0         0         0         0         0         0         0         0         0         0         0         0         0         0         0         0         0         0         0         0         0         0         0         0         0         0         0         0         0     -9999     -9999     -9999     -9999     -9999     -9999     -9999     -9999     -9999     -9999     -9999     -9999     -9999     -9999     -9999     -9999     -9999     -9999     -9999     -9999     -9999     -9999     -9999     -9999     -9999     -9999     -9999     -9999     -9999     -9999     -9999
     -9999     -9999     -9999     -9999     -9999     -9999     -9999     -9999     -9999     -9999     -9999     -9999     -9999     -9999     -9999     -9999     -9999     -9999     -9999     -9999     -9999     -9999     -9999     -9999     -9999     -9999     -9999     -9999     -9999     -9999     -9999     -9999     -9999     -9999     -9999     -9999     -9999     -9999     -9999     -9999     -9999     -9999     -9999     -9999     -9999     -9999     -9999     -9999     -9999     -9999     -9999     -9999     -9999     -9999     -9999     -9999     -9999     -9999     -9999     -9999     -9999     -9999     -9999     -9999     -9999     -9999     -9999     -9999     -9999     -9999         0         0         0         0         0         0         0         0         0         0         0         0         0         0         0         0         0         0         0         0         0         0         0         0         0         0         0         0         0         0         0         0         0         0         0     -9999     -9999     -9999     -9999     -9999     -9999     -9999     -9999     -9999     -9999     -9999     -9999     -9999     -9999     -9999     -9999     -9999     -9999     -9999     -9999     -9999     -9999     -9999     -9999     -9999     -9999     -9999     -9999     -9999     -9999     -9999
     -9999     -9999     -9999     -9999     -9999     -9999     -9999     -9999     -9999     -9999     -9999     -9999     -9999     -9999     -9999     -9999     -9999     -9999     -9999     -9999     -9999     -9999     -9999     -9999     -9999     -9999     -9999     -9999     -9999     -9999     -9999     -9999     -9999     -9999     -9999     -9999     -9999     -9999     -9999     -9999     -9999     -9999     -9999     -9999     -9999     -9999     -9999     -9999     -9999     -9999     -9999     -9999     -9999     -9999     -9999     -9999     -9999     -9999     -9999     -9999     -9999     -9999     -9999     -9999     -9999     -9999     -9999     -9999     -9999         0         0         0         0         0         0         0         0         0         0         0         0         0         0         0         0         0         0         0         0         0         0         0         0         0         0         0         0         0         0         0         0         0         0     -9999     -9999     -9999     -9999     -9999     -9999     -9999     -9999     -9999     -9999     -9999     -9999     -9999     -9999     -9999     -9999     -9999     -9999     -9999     -9999     -9999     -9999     -9999     -9999     -9999     -9999     -9999     -9999     -9999     -9999     -9999     -9999     -9999
     -9999     -9999     -9999     -9999     -9999     -9999     -9999     -9999     -9999     -9999     -9999     -9999     -9999     -9999     -9999     -9999     -9999     -9999     -9999     -9999     -9999     -9999     -9999     -9999     -9999     -9999     -9999     -9999     -9999     -9999     -9999     -9999     -9999     -9999     -9999     -9999     -9999     -9999     -9999     -9999     -9999     -9999     -9999     -9999     -9999     -9999     -9999     -9999     -9999     -9999     -9999     -9999     -9999     -9999     -9999     -9999     -9999     -9999     -9999     -9999     -9999     -9999     -9999     -9999     -9999     -9999     -9999         0         0         0         0         0         0         0         0         0         0         0         0         0         0         0         0         0         0         0         0         0         0         0         0         0         0         0         0         0         0         0         0         0         0         0         0     -9999     -9999     -9999     -9999     -9999     -9999     -9999     -9999     -9999     -9999     -9999     -9999     -9999     -9999     -9999     -9999     -9999     -9999     -9999     -9999     -9999     -9999     -9999     -9999     -9999     -9999     -9999     -9999     -9999     -9999     -9999     -9999     -9999
     -9999     -9999     -9999     -9999     -9999     -9999     -9999     -9999     -9999     -9999     -9999     -9999     -9999     -9999     -9999     -9999     -9999     -9999     -9999     -9999     -9999     -9999     -9999     -9999     -9999     -9999     -9999     -9999     -9999     -9999     -9999     -9999     -9999     -9999     -9999     -9999     -9999     -9999     -9999     -9999     -9999     -9999     -9999     -9999     -9999     -9999     -9999     -9999     -9999     -9999     -9999     -9999     -9999     -9999     -9999     -9999     -9999     -9999     -9999     -9999     -9999     -9999     -9999     -9999     -9999     -9999     -9999         0         0         0         0         0         0         0         0         0         0         0         0         0         0         0         0         0         0         0         0         0         0         0         0         0         0         0         0         0         0         0         0         0         0         0         0     -9999     -9999     -9999     -9999     -9999     -9999     -9999     -9999     -9999     -9999     -9999     -9999     -9999     -9999     -9999     -9999     -9999     -9999     -9999     -9999     -9999     -9999     -9999     -9999     -9999     -9999     -9999     -9999     -9999     -9999     -9999     -9999     -9999
     -9999     -9999     -9999     -9999     -9999     -9999     -9999     -9999     -9999     -9999     -9999     -9999     -9999     -9999     -9999     -9999     -9999     -9999     -9999     -9999     -9999     -9999     -9999     -9999     -9999     -9999     -9999     -9999     -9999     -9999     -9999     -9999     -9999     -9999     -9999     -9999     -9999     -9999     -9999     -9999     -9999     -9999     -9999     -9999     -9999     -9999     -9999     -9999     -9999     -9999     -9999     -9999     -9999     -9999     -9999     -9999     -9999     -9999     -9999     -9999     -9999     -9999     -9999     -9999     -9999     -9999     -9999         0         0         0         0         0         0         0         0         0         0         0         0         0         0         0         0         0         0         0         0         0         0         0         0         0         0         0         0         0         0         0         0         0         0         0         0     -9999     -9999     -9999     -9999     -9999     -9999     -9999     -9999     -9999     -9999     -9999     -9999     -9999     -9999     -9999     -9999     -9999     -9999     -9999     -9999     -9999     -9999     -9999     -9999     -9999     -9999     -9999     -9999     -9999     -9999     -9999     -9999     -9999
     -9999     -9999     -9999     -9999     -9999     -9999     -9999     -9999     -9999     -9999     -9999     -9999     -9999     -9999     -9999     -9999     -9999     -9999     -9999     -9999     -9999     -9999     -9999     -9999     -9999     -9999     -9999     -9999     -9999     -9999     -9999     -9999     -9999     -9999     -9999     -9999     -9999     -9999     -9999     -9999     -9999     -9999     -9999     -9999     -9999     -9999     -9999     -9999     -9999     -9999     -9999     -9999     -9999     -9999     -9999     -9999     -9999     -9999     -9999     -9999     -9999     -9999     -9999     -9999         0         0         0         0         0         0         0         0         0         0         0         0         0         0         0         0         0         0         0         0         0         0         0         0         0         0         0         0         0         0         0         0         0         0         0         0         0         0     -9999     -9999     -9999     -9999     -9999     -9999     -9999     -9999     -9999     -9999     -9999     -9999     -9999     -9999     -9999     -9999     -9999     -9999     -9999     -9999     -9999     -9999     -9999     -9999     -9999     -9999     -9999     -9999     -9999     -9999     -9999     -9999     -9999     -9999
     -9999     -9999     -9999     -9999     -9999     -9999     -9999     -9999     -9999     -9999     -9999     -9999     -9999     -9999     -9999     -9999     -9999     -9999     -9999     -9999     -9999     -9999     -9999     -9999     -9999     -9999     -9999     -9999     -9999     -9999     -9999     -9999     -9999     -9999     -9999     -9999     -9999     -9999     -9999     -9999     -9999     -9999     -9999     -9999     -9999     -9999     -9999     -9999     -9999     -9999     -9999     -9999     -9999     -9999     -9999     -9999     -9999     -9999     -9999     -9999     -9999     -9999         0         0         0         0         0         0         0         0         0         0         0         0         0         0         0         0         0         0         0         0         0         0         0         0         0         0         0         0         0         0         0         0         0         0         0         0         0         0     -9999     -9999     -9999     -9999     -9999     -9999     -9999     -9999     -9999     -9999     -9999     -9999     -9999     -9999     -9999     -9999     -9999     -9999     -9999     -9999     -9999     -9999     -9999     -9999     -9999     -9999     -9999     -9999     -9999     -9999     -9999     -9999     -9999     -9999     -9999     -9999
     -9999     -9999     -9999     -9999     -9999     -9999     -9999     -9999     -9999     -9999     -9999     -9999     -9999     -9999     -9999     -9999     -9999     -9999     -9999     -9999     -9999     -9999     -9999     -9999     -9999     -9999     -9999     -9999     -9999     -9999     -9999     -9999     -9999     -9999     -9999     -9999     -9999     -9999     -9999     -9999     -9999     -9999     -9999     -9999     -9999     -9999     -9999     -9999     -9999     -9999     -9999     -9999     -9999     -9999     -9999         0         0     -9999     -9999     -9999     -9999     -9999         0         0         0         0         0         0         0         0         0         0         0         0         0         0         0         0         0         0         0         0         0         0         0         0         0         0         0         0         0         0         0         0         0         0         0         0         0     -9999     -9999     -9999     -9999     -9999     -9999     -9999     -9999     -9999     -9999     -9999     -9999     -9999     -9999     -9999     -9999     -9999     -9999     -9999     -9999     -9999     -9999     -9999     -9999     -9999     -9999     -9999     -9999     -9999     -9999     -9999     -9999     -9999     -9999     -9999     -9999     -9999
     -9999     -9999     -9999     -9999     -9999     -9999     -9999     -9999     -9999     -9999     -9999     -9999     -9999     -9999     -9999     -9999     -9999     -9999     -9999     -9999     -9999     -9999     -9999     -9999     -9999     -9999     -9999     -9999     -9999     -9999     -9999     -9999     -9999     -9999     -9999     -9999     -9999     -9999     -9999     -9999     -9999     -9999     -9999     -9999     -9999     -9999     -9999     -9999     -9999     -9999     -9999     -9999     -9999     -9999         0         0         0         0     -9999     -9999     -9999         0         0         0         0         0         0         0         0         0         0         0         0         0         0         0         0         0         0         0         0         0         0         0         0         0         0         0         0         0         0         0         0         0         0         0         0         0     -9999     -9999     -9999     -9999     -9999     -9999     -9999     -9999     -9999     -9999     -9999     -9999     -9999     -9999     -9999     -9999     -9999     -9999     -9999     -9999     -9999     -9999     -9999     -9999     -9999     -9999     -9999     -9999     -9999     -9999     -9999     -9999     -9999     -9999     -9999     -9999     -9999     -9999
     -9999     -9999     -9999     -9999     -9999     -9999     -9999     -9999     -9999     -9999     -9999     -9999     -9999     -9999     -9999     -9999     -9999     -9999     -9999     -9999     -9999     -9999     -9999     -9999     -9999     -9999     -9999     -9999     -9999     -9999     -9999     -9999     -9999     -9999     -9999     -9999     -9999     -9999     -9999     -9999     -9999     -9999     -9999     -9999     -9999     -9999     -9999     -9999     -9999     -9999     -9999     -9999     -9999         0         0         0         0         0         0         0         0         0         0         0         0         0         0         0         0         0         0         0         0         0         0         0         0         0         0         0         0         0         0         0         0         0         0         0         0         0         0         0         0         0         0         0         0     -9999     -9999     -9999     -9999     -9999     -9999     -9999     -9999     -9999     -9999     -9999     -9999     -9999     -9999     -9999     -9999     -9999     -9999     -9999     -9999     -9999     -9999     -9999     -9999     -9999     -9999     -9999     -9999     -9999     -9999     -9999     -9999     -9999     -9999     -9999     -9999     -9999     -9999     -9999
     -9999     -9999     -9999     -9999     -9999     -9999     -9999     -9999     -9999     -9999     -9999     -9999     -9999     -9999     -9999     -9999     -9999     -9999     -9999     -9999     -9999     -9999     -9999     -9999     -9999     -9999     -9999     -9999     -9999     -9999     -9999     -9999     -9999     -9999     -9999     -9999     -9998     -9999     -9999     -9999     -9999     -9999     -9999     -9999     -9999     -9999     -9999     -9999     -9999     -9999     -9999     -9999         0         0         0         0         0         0         0         0         0         0         0         0         0         0         0         0         0         0         0         0         0         0         0         0         0         0         0         0         0         0         0         0         0         0         0         0         0         0         0         0         0         0         0         0     -9999     -9999     -9999     -9999     -9999     -9999     -9999     -9999     -9999     -9999     -9999     -9999     -9999     -9999     -9999     -9999     -9999     -9999     -9999     -9999     -9999     -9999     -9999     -9999     -9999     -9999     -9999     -9999     -9999     -9999     -9999     -9999     -9999     -9999     -9999     -9999     -9999     -9999     -9999     -9999
     -9999     -9999     -9999     -9999     -9999     -9999     -9999     -9999     -9999     -9999     -9999     -9999     -9999     -9999     -9999     -9999     -9999     -9999     -9999     -9999     -9999     -9999     -9999     -9999     -9999     -9999     -9999     -9999     -9999     -9999     -9999     -9999     -9999     -9999     -9999     -9999     -9999     -9998     -9999     -9999     -9999     -9999         0         0         0         0     -9999     -9999     -9999     -9999     -9999         0         0         0         0         0         0         0         0         0         0         0         0         0         0         0         0         0         0         0         0         0         0         0         0         0         0         0         0         0         0         0         0         0         0         0         0         0         0         0         0         0         0         0     -9999     -9999     -9999     -9999     -9999     -9999     -9999     -9999     -9999     -9999     -9999     -9999     -9999     -9999     -9999     -9999     -9999     -9999     -9999     -9999     -9999     -9999     -9999     -9999     -9999     -9999     -9999     -9999     -9999     -9999     -9999     -9999     -9999     -9999     -9999     -9999     -9999     -9999     -9999     -9999     -9999     -9999
     -9999     -9999     -9999     -9999     -9999     -9999     -9999     -9999     -9999     -9999     -9999     -9999     -9999     -9999     -9999     -9999     -9999     -9999     -9999     -9999     -9999     -9999     -9999     -9999     -9999     -9999     -9999     -9999     -9999     -9999     -9999     -9999     -9999     -9999     -9999     -9999     -9999     -9999     -9999     -9998         0         0         0         0         0         0         0     -9999     -9999         0         0         0         0         0         0         0         0         0         0         0         0         0         0         0         0         0         0         0         0         0         0         0         0         0         0         0         0         0         0         0         0         0         0         0         0         0         0         0         0         0         0         0         0     -9999     -9999     -9999     -9999     -9999     -9999     -9999     -9999     -9999     -9999     -9999     -9999     -9999     -9999     -9999     -9999     -9999     -9999     -9999     -9999     -9999     -9999     -9999     -9999     -9999     -9999     -9999     -9999     -9999     -9999     -9999     -9999     -9999     -9999     -9999     -9999     -9999     -9999     -9999     -9999     -9999     -9999     -9999
     -9999     -9999     -9999     -9999     -9999     -9999     -9999     -9999     -9999     -9999     -9999     -9999     -9999     -9999     -9999     -9999     -9999     -9999     -9999     -9999     -9999     -9999     -9999     -9999     -9999     -9999     -9999     -9999     -9999     -9999     -9999     -9999     -9999     -9999     -9999     -9999     -9999     -9999     -9999     -9999         0         1         0         0         0         0         0     -9999     -9999         0         0         0         0         0         0         0         0         0         0         0         0         0         0         0         0         0         0         0         0         0         0         0         0         0         0         0         0         0         0         0         0         0         0         0         0         0         0         0         0         0         0         0         0     -9999     -9999     -9999     -9999     -9999     -9999     -9999     -9999     -9999     -9999     -9999     -9999     -9999     -9999     -9999     -9999     -9999     -9999     -9999     -9999     -9999     -9999     -9999     -9999     -9999     -9999     -9999     -9999     -9999     -9999     -9999     -9999     -9999     -9999     -9999     -9999     -9999     -9999     -9999     -9999     -9999     -9999     -9999
     -9999     -9999     -9999     -9999     -9999     -9999     -9999     -9999     -9999     -9999     -9999     -9999     -9999     -9999     -9999     -9999     -9999     -9999     -9999     -9999     -9999     -9999     -9999     -9999     -9999     -9999     -9999     -9999     -9999     -9999     -9999     -9999     -9999     -9999     -9999     -9999     -9999     -9999         0         0         0         0         0         0         0         0         0         0         0         0         0         0         0         0         0         0         0         0         0         0         0         0         0         0         0         0         0         0         0         0         0         0         0         0         0         0         0         0         0         0         0         0         0         0         0         0         0         0         0         0         0     -9999     -9999     -9999     -9999     -9999     -9999     -9999     -9999     -9999     -9999     -9999     -9999     -9999     -9999     -9999     -9999     -9999     -9999     -9999     -9999     -9999     -9999     -9999     -9999     -9999     -9999     -9999     -9999     -9999     -9999     -9999     -9999     -9999     -9999     -9999     -9999     -9999     -9999     -9999     -9999     -9999     -9999     -9999     -9999     -9999
     -9999     -9999     -9999     -9999     -9999     -9999     -9999     -9999     -9999     -9999     -9999     -9999     -9999     -9999     -9999     -9999     -9999     -9999     -9999     -9999     -9999     -9999     -9999     -9999     -9999     -9999     -9999     -9999     -9999     -9999     -9999     -9999     -9999     -9999     -9999     -9999     -9999         0         0         0         0         0         0         1         0         0         0         0         0         0         0         0         0         0         0         0         0         0         0         0         0         0         0         0         0         0         0         0         0         0         0         0         0         0         0         0         0         0         0         0         0         0         0         0         0         0         0         0         0         0     -9999     -9999     -9999     -9999     -9999     -9999     -9999     -9999     -9999     -9999     -9999     -9999     -9999     -9999     -9999     -9999     -9999     -9999     -9999     -9999     -9999     -9999     -9999     -9999     -9999     -9999     -9999     -9999     -9999     -9999     -9999     -9999     -9999     -9999     -9999     -9999     -9999     -9999     -9999     -9999     -9999     -9999     -9999     -9999     -9999     -9999
     -9999     -9999     -9999     -9999     -9999     -9999     -9999     -9999     -9999     -9999     -9999     -9999     -9999     -9999     -9999     -9999     -9999     -9999     -9999     -9999     -9999     -9999     -9999     -9999     -9999     -9999     -9999     -9999     -9999     -9999     -9999     -9999     -9999     -9999     -9999     -9999         0         0         0         0         0         0         0         0         0         1         0         0         0         0         0         0         0         0         0         2         0         0         0         0         0         0         0         0         0         0         0         0         0         0         0         0         0         0         0         0         0         0         0         0         0         0         0         0         0         0         0         0         0     -9999     -9999     -9999     -9999     -9999     -9999     -9999     -9999     -9999     -9999     -9999     -9999     -9999     -9999     -9999     -9999     -9999     -9999     -9999     -9999     -9999     -9999     -9999     -9999     -9999     -9999     -9999     -9999     -9999     -9999     -9999     -9999     -9999     -9999     -9999     -9999     -9999     -9999     -9999     -9999     -9999     -9999     -9999     -9999     -9999     -9999     -9999
     -9999     -9999     -9999     -9999     -9999     -9999     -9999     -9999     -9999     -9999     -9999     -9999     -9999     -9999     -9999     -9999     -9999     -9999     -9999     -9999     -9999     -9999     -9999     -9999     -9999     -9999     -9999     -9999     -9999     -9999     -9999     -9999     -9999     -9999     -9999         0         0         0         0         0         0         0         0         0         0         0         0         1         0         0         0         0         0         0         1         0         0         0         0         0         0         0         0         0         0         0         0         0         0         0         0         0         0         0         0         0         0         0         0         0         0         0         0         0         0         0         0         0     -9999     -9999     -9999     -9999     -9999     -9999     -9999     -9999     -9999     -9999     -9999     -9999     -9999     -9999     -9999     -9999     -9999     -9999     -9999     -9999     -9999     -9999     -9999     -9999     -9999     -9999     -9999     -9999     -9999     -9999     -9999     -9999     -9999     -9999     -9999     -9999     -9999     -9999     -9999     -9999     -9999     -9999     -9999     -9999     -9999     -9999     -9999     -9999
     -9999     -9999     -9999     -9999     -9999     -9999     -9999     -9999     -9999     -9999     -9999     -9999     -9999     -9999     -9999     -9999     -9999     -9999     -9999     -9999     -9999     -9999     -9999     -9999     -9999     -9999     -9999         0     -9999         0         0         0         0         0         0         0         0         0         0         0         0         0         0         0         0         0         0         0         0         1         0         0         0         0         0         0         0         0         0         0         0         0         0         0         0         0         0         0         0         0         0         0         0         0         0         0         0         0         0         0         0         0         0         0         0         0         0     -9999     -9999     -9999     -9999     -9999     -9999     -9999     -9999     -9999     -9999     -9999     -9999     -9999     -9999     -9999     -9999     -9999     -9999     -9999     -9999     -9999     -9999     -9999     -9999     -9999     -9999     -9999     -9999     -9999     -9999     -9999     -9999     -9999     -9999     -9999     -9999     -9999     -9999     -9999     -9999     -9999     -9999     -9999     -9999     -9999     -9999     -9999     -9999     -9999
     -9999     -9999     -9999     -9999     -9999     -9999     -9999     -9999     -9999     -9999     -9999     -9999     -9999     -9999     -9999     -9999     -9999     -9999     -9999     -9999     -9999     -9999     -9999     -9999     -9999     -9999         0         0         0         0         0         0         0         0         0         0         0         0         0         0         0         0         0         0         0         0         0         0         1         0         0         0         0         1         0         0         0         0         0         0         0         0         0         0         0         0         0         0         0         0         0         0         0         0         0         0         0         0         0         0         0         0         0         0         0         0         0     -9999     -9999     -9999     -9999     -9999     -9999     -9999     -9999     -9999     -9999     -9999     -9999     -9999     -9999     -9999     -9999     -9999     -9999     -9999     -9999     -9999     -9999     -9999     -9999     -9999     -9999     -9999     -9999     -9999     -9999     -9999     -9999     -9999     -9999     -9999     -9999     -9999     -9999     -9999     -9999     -9999     -9999     -9999     -9999     -9999     -9999     -9999     -9999     -9999
     -9999     -9999     -9999     -9999     -9999     -9999     -9999     -9999     -9999     -9999     -9999     -9999     -9999     -9999     -9999     -9999     -9999     -9999     -9999     -9999     -9999     -9999     -9999     -9999     -9999     -9999         0         0         0         0         0         0         0         0         0         0         0         0         0         0         0         0         0         0         0         0         0         0         0         0         0         0         0         0         0         0         0         0         0         0         0         0         0         0         0         0         0         0         0         0         0         0         0         0         0         0         0         0         0         0         0         0         0         0         0     -9999     -9999     -9999     -9999     -9999     -9999     -9999     -9999     -9999     -9999     -9999     -9999     -9999     -9999     -9999     -9999     -9999     -9999     -9999     -9999     -9999     -9999     -9999     -9999     -9999     -9999     -9999     -9999     -9999     -9999     -9999     -9999     -9999     -9999     -9999     -9999     -9999     -9999     -9999     -9999     -9999     -9999     -9999     -9999     -9999     -9999     -9999     -9999     -9999     -9999     -9999
     -9999     -9999     -9999     -9999     -9999     -9999     -9999     -9999     -9999     -9999     -9999     -9999     -9999     -9999     -9999     -9999     -9999     -9999     -9999     -9999     -9999     -9999     -9999     -9999     -9999     -9999         0         0         0         0         0         0         0         0         0         0         0         0         0         0         0         0         0         0         0         0         0         0         0         0         1         0         0         0         0         0         0         0         0         0         0         0         0         0         0         0         0         0         0         0         0         0         0         0         0         0         0         0         0         0         0         0         0         0     -9999     -9999     -9999     -9999     -9999     -9999     -9999     -9999     -9999     -9999     -9999     -9999     -9999     -9999     -9999     -9999     -9999     -9999     -9999     -9999     -9999     -9999     -9999     -9999     -9999     -9999     -9999     -9999     -9999     -9999     -9999     -9999     -9999     -9999     -9999     -9999     -9999     -9999     -9999     -9999     -9999     -9999     -9999     -9999     -9999     -9999     -9999     -9999     -9999     -9999     -9999     -9999
     -9999     -9999     -9999     -9999     -9999     -9999     -9999     -9999     -9999     -9999     -9999     -9999     -9999     -9999     -9999     -9999     -9999     -9999     -9999     -9999     -9999     -9999     -9999     -9999     -9999     -9999         0         0         0         0         0         0         0         0         0         0         0         0         0         0         0         0         0         0         0         0         0         0         0         0         0         1         0         0         0         0         0         0         0         0         0         0         0         0         0         0         0         0         0         0         0         0         0         0         0         0         0         0         0         0         0         0         0         0     -9999     -9999     -9999     -9999     -9999     -9999     -9999     -9999     -9999     -9999     -9999     -9999     -9999     -9999     -9999     -9999     -9999     -9999     -9999     -9999     -9999     -9999     -9999     -9999     -9999     -9999     -9999     -9999     -9999     -9999     -9999     -9999     -9999     -9999     -9999     -9999     -9999     -9999     -9999     -9999     -9999     -9999     -9999     -9999     -9999     -9999     -9999     -9999     -9999     -9999     -9999     -9999
     -9999     -9999     -9999     -9999     -9999     -9999     -9999     -9999     -9999     -9999     -9999     -9999     -9999     -9999     -9999     -9999     -9999     -9999     -9999     -9999     -9999     -9999     -9999     -9999     -9999         0         0         0         0         0         0         0         0         0         0         0         0         0         0         0         0         0         0         0         0         0         0         0         0         0         0         0         0         0         0         0         0         0         0         0         0         0         0         0         0         0         0         0         0         0         0         0         0         0         0         0         0         0         0         0         0         0         0         0     -9999     -9999     -9999     -9999     -9999     -9999     -9999     -9999     -9999     -9999     -9999     -9999     -9999     -9999     -9999     -9999     -9999     -9999     -9999     -9999     -9999     -9999     -9999     -9999     -9999     -9999     -9999     -9999     -9999     -9999     -9999     -9999     -9999     -9999     -9999     -9999     -9999     -9999     -9999     -9999     -9999     -9999     -9999     -9999     -9999     -9999     -9999     -9999     -9999     -9999     -9999     -9999
     -9999     -9999     -9999     -9999     -9999     -9999     -9999     -9999     -9999     -9999     -9999     -9999     -9999     -9999     -9999     -9999     -9999     -9999     -9999     -9999     -9999     -9999     -9999     -9999     -9999         0         0         0         0         0         0         0         0         0         0         0         0         0         0         0         0         0         0         0         0         0         0         0         0         0         1         0         0         0         0         0         0         0         0         0         0         0         0         0         0         0         0         0         0         0         0         0         0         0         0         0         0         0         0         0         0         0         0         0     -9999     -9999     -9999     -9999     -9999     -9999     -9999     -9999     -9999     -9999     -9999     -9999     -9999     -9999     -9999     -9999     -9999     -9999     -9999     -9999     -9999     -9999     -9999     -9999     -9999     -9999     -9999     -9999     -9999     -9999     -9999     -9999     -9999     -9999     -9999     -9999     -9999     -9999     -9999     -9999     -9999     -9999     -9999     -9999     -9999     -9999     -9999     -9999     -9999     -9999     -9999     -9999
     -9999     -9999     -9999     -9999     -9999     -9999     -9999     -9999     -9999     -9999     -9999     -9999     -9999     -9999     -9999     -9999     -9999     -9999     -9999     -9999     -9999     -9999     -9999     -9999         0         0         0         0         0         0         0         0         0         0         0         0         0         0         0         0         0         0         0         0         0         0         0         0         0         0         1         0         0         0         0         0         0         0         0         0         0         0         0         0         0         0         0         0         0         0         0         0         0         0         0         0         0         0         0         0         0         0         0         0     -9999     -9999     -9999     -9999     -9999     -9999     -9999     -9999     -9999     -9999     -9999     -9999     -9999     -9999     -9999     -9999     -9999     -9999     -9999     -9999     -9999     -9999     -9999     -9999     -9999     -9999     -9999     -9999     -9999     -9999     -9999     -9999     -9999     -9999     -9999     -9999     -9999     -9999     -9999     -9999     -9999     -9999     -9999     -9999     -9999     -9999     -9999     -9999     -9999     -9999     -9999     -9999
     -9999     -9999     -9999     -9999     -9999     -9999     -9999     -9999     -9999     -9999     -9999     -9999     -9999     -9999     -9999     -9999     -9999     -9999     -9999     -9999     -9999     -9999     -9999     -9999         0         0         0         0         0         0         0         0         0         0         0         0         0         0         0         0         0         0         0         0         0         0         0         0         0         0         1         0         0         0         0         0         0         0         0         0         0         0         0         0         0         0         0         0         0         0         0         0         0         0         0         0         0         0         0         0         0         0         0         0     -9999     -9999     -9999     -9999     -9999     -9999     -9999     -9999     -9999     -9999     -9999     -9999     -9999     -9999     -9999     -9999     -9999     -9999     -9999     -9999     -9999     -9999     -9999     -9999     -9999     -9999     -9999     -9999     -9999     -9999     -9999     -9999     -9999     -9999     -9999     -9999     -9999     -9999     -9999     -9999     -9999     -9999     -9999     -9999     -9999     -9999     -9999     -9999     -9999     -9999     -9999     -9999
     -9999     -9999     -9999     -9999     -9999     -9999     -9999     -9999     -9999     -9999     -9999     -9999     -9999     -9999     -9999     -9999     -9999     -9999     -9999     -9999     -9999     -9999     -9999     -9999         0         0         0         0         0         0         0         0         0         0         0         0         0         0         0         0         0         0         0         0         0         0         0         0         0         0         0         0         0         0         0         0         0         0         0         0         0         0         0         0         0         0         0         0         0         0         0         0         0         0         0         0         0         0         0         0         0         0         0         0     -9999     -9999     -9999     -9999     -9999     -9999     -9999     -9999     -9999     -9999     -9999     -9999     -9999     -9999     -9999     -9999     -9999     -9999     -9999     -9999     -9999     -9999     -9999     -9999     -9999     -9999     -9999     -9999     -9999     -9999     -9999     -9999     -9999     -9999     -9999     -9999     -9999     -9999     -9999     -9999     -9999     -9999     -9999     -9999     -9999     -9999     -9999     -9999     -9999     -9999     -9999     -9999
     -9999     -9999     -9999     -9999     -9999     -9999     -9999     -9999     -9999     -9999     -9999     -9999     -9999     -9999     -9999     -9999     -9999     -9999     -9999     -9999     -9999     -9999         0         0         0         0         0         0         0         0         0         0         0         0         0         0         0         0         0         0         0         0         0         0         0         0         0         0         0         0         0         0         0         0         0         0         0         0         0         0         0         0         0         0         0         0         0         0         0         0         0         0         0         0         0         0         0         0         0         0         0         0         0     -9999     -9999     -9999     -9999     -9999     -9999     -9999     -9999     -9999     -9999     -9999     -9999     -9999     -9999     -9999     -9999     -9999     -9999     -9999     -9999     -9999     -9999     -9999     -9999     -9999     -9999     -9999     -9999     -9999     -9999     -9999     -9999     -9999     -9999     -9999     -9999     -9999     -9999     -9999     -9999     -9999     -9999     -9999     -9999     -9999     -9999     -9999     -9999     -9999     -9999     -9999     -9999     -9999
     -9999     -9999     -9999     -9999     -9999     -9999     -9999     -9999     -9999     -9999     -9999     -9999     -9999     -9999     -9999     -9999     -9999     -9999     -9999     -9999     -9999     -9999         0         0         0         0         0         0         0         0         0         0         0         0         0         0         0         0         0         0         0         0         0         0         0         0         0         0         0         0         2         0         0         0         0         0         0         0         0         0         0         0         0         0         0         0         0         0         0         0         0         0         0         0         0         0         0         0         0         0         0         0         0     -9999     -9999     -9999     -9999     -9999     -9999     -9999     -9999     -9999     -9999     -9999     -9999     -9999     -9999     -9999     -9999     -9999     -9999     -9999     -9999     -9999     -9999     -9999     -9999     -9999     -9999     -9999     -9999     -9999     -9999     -9999     -9999     -9999     -9999     -9999     -9999     -9999     -9999     -9999     -9999     -9999     -9999     -9999     -9999     -9999     -9999     -9999     -9999     -9999     -9999     -9999     -9999     -9999
     -9999     -9999     -9999     -9999     -9999     -9999     -9999     -9999     -9999     -9999     -9999     -9999     -9999     -9999     -9999     -9999     -9999     -9999     -9999     -9999     -9999     -9999         0         0         0         0         0         0         0         0         0         0         0         0         0         0         0         0         0         0         0         0         0         0         0         0         0         0         0         0         0         0         0         0         0         0         0         0         0         0         0         0         0         0         0         0         0         0         0         0         0         0         0         0         0         0         0         0         0         0         0         0         0         0         0     -9999     -9999     -9999     -9999     -9999     -9999     -9999     -9999     -9999     -9999     -9999     -9999     -9999     -9999     -9999     -9999     -9999     -9999     -9999     -9999     -9999     -9999     -9999     -9999     -9999     -9999     -9999     -9999     -9999     -9999     -9999     -9999     -9999     -9999     -9999     -9999     -9999     -9999     -9999     -9999     -9999     -9999     -9999     -9999     -9999     -9999     -9999     -9999     -9999     -9999     -9999
     -9999     -9999     -9999     -9999     -9999     -9999     -9999     -9999     -9999     -9999     -9999     -9999     -9999     -9999     -9999     -9999     -9999     -9999     -9999     -9999     -9999     -9999         0         0         0         0         0         0         0         0         0         0         0         0         0         0         0         0         0         0         0         0         0         0         0         0         0         0         0         0         0         0         0         0         0         0         0         0         0         0         0         0         0         0         0         0         0         0         0         0         0         0         0         0         0         0         0         0         0         0         0         0         0         0         0     -9999     -9999     -9999     -9999     -9999     -9999     -9999     -9999     -9999     -9999     -9999     -9999     -9999     -9999     -9999     -9999     -9999     -9999     -9999     -9999     -9999     -9999     -9999     -9999     -9999     -9999     -9999     -9999     -9999     -9999     -9999     -9999     -9999     -9999     -9999     -9999     -9999     -9999     -9999     -9999     -9999     -9999     -9999     -9999     -9999     -9999     -9999     -9999     -9999     -9999     -9999
     -9999     -9999     -9999     -9999     -9999     -9999     -9999     -9999     -9999     -9999     -9999     -9999     -9999     -9999     -9999     -9999     -9999     -9999     -9999     -9999     -9999     -9999         0         0         0         0         0         0         0         0         0         0         0         0         0         0         0         0         0         0         0         0         0         0         0         0         0         0         0         0         0         0         0         0         0         0         0         0         0         0         0         0         0         0         0         0         0         0         0         0         0         0         0         0         0         0         0         0         0         0         0         0         0         0         0         0         0     -9999     -9999     -9999     -9999     -9999     -9999     -9999     -9999     -9999     -9999     -9999     -9999     -9999     -9999     -9999     -9999     -9999     -9999     -9999     -9999     -9999     -9999     -9999     -9999     -9999     -9999     -9999     -9999     -9999     -9999     -9999     -9999     -9999     -9999     -9999     -9999     -9999     -9999     -9999     -9999     -9999     -9999     -9999     -9999     -9999     -9999     -9999     -9999     -9999
     -9999     -9999     -9999     -9999     -9999     -9999     -9999     -9999     -9999     -9999     -9999     -9999     -9999     -9999     -9999     -9999     -9999     -9999     -9999     -9999     -9999     -9999         0         0         0         0         0         0         0         0         0         0         0         0         0         0         0         0         0         0         0         0         0         0         0         0         0         0         0         0         0         1         0         0         0         0         0         0         0         0         0         0         0         0         0         0         0         0         0         0         0         0         0         0         0         0         0         0         0         0         0         0         0         0         0         0         0     -9999     -9999     -9999     -9999     -9999     -9999     -9999     -9999     -9999     -9999     -9999     -9999     -9999     -9999     -9999     -9999     -9999     -9999     -9999     -9999     -9999     -9999     -9999     -9999     -9999     -9999     -9999     -9999     -9999     -9999     -9999     -9999     -9999     -9999     -9999     -9999     -9999     -9999     -9999     -9999     -9999     -9999     -9999     -9999     -9999     -9999     -9999     -9999     -9999
     -9999     -9999     -9999     -9999     -9999     -9999     -9999     -9999     -9999     -9999     -9999     -9999     -9999     -9999     -9999     -9999     -9999     -9999     -9999     -9999     -9999     -9999         0         0         0         0         0         0         0         0         0         0         0         0         0         0         0         0         0         0         0         0         0         0         0         0         0         0         0         0         0         0         0         0         0         0         0         0         0         0         0         0         0         0         0         0         0         0         0         0         0         0         0         0         0         0         0         0         0         0         0         0         0         0         0         0         0         0         0     -9999     -9999     -9999     -9999     -9999     -9999     -9999     -9999     -9999     -9999     -9999     -9999     -9999     -9999     -9999     -9999     -9999     -9999     -9999     -9999     -9999     -9999     -9999     -9999     -9999     -9999     -9999     -9999     -9999     -9999     -9999     -9999     -9999     -9999     -9999     -9999     -9999     -9999     -9999     -9999     -9999     -9999     -9999     -9999     -9999     -9999     -9999
     -9999     -9999     -9999     -9999     -9999     -9999     -9999     -9999     -9999     -9999     -9999     -9999     -9999     -9999     -9999     -9999     -9999     -9999     -9999     -9999     -9999         0         0         0         0         0         0         0         0         0         0         0         0         0         0         0         0         0         0         0         0         0         0         0         0         0         0         0         0         0         0         0         1         0         0         0         0         0         0         0         0         0         0         0         0         0         0         0         0         0         0         0         0         0         0         0         0         0         0         0         0         0         0         0         0         0         0         0         0         0         0         0         0         0     -9999     -9999     -9999     -9999     -9999     -9999     -9999     -9999     -9999     -9999     -9999     -9999     -9999     -9999     -9999     -9999     -9999     -9999     -9999     -9999     -9999     -9999     -9999     -9999     -9999     -9999     -9999     -9999     -9999     -9999     -9999     -9999     -9999     -9999     -9999     -9999     -9999     -9999     -9999     -9999     -9999     -9999
     -9999     -9999     -9999     -9999     -9999     -9999     -9999     -9999     -9999     -9999     -9999     -9999     -9999     -9999     -9999     -9999     -9999     -9999     -9999     -9999     -9999         0         0         0         0         0         0         0         0         0         0         0         0         1         0         0         0         0         0         0         0         0         0         0         0         0         0         0         0         0         0         0         1         0         0         0         0         0         0         0         0         0         0         0         0         0         0         0         0         0         0         0         0         0         0         0         0         0         0         0         0         0         0         0         0         0         0         0         0         0         0         0         0         0         0         0     -9999     -9999     -9999     -9999     -9999     -9999     -9999     -9999     -9999     -9999     -9999     -9999     -9999     -9999     -9999     -9999     -9999     -9999     -9999     -9999     -9999     -9999     -9999     -9999     -9999     -9999     -9999     -9999     -9999     -9999     -9999     -9999     -9999     -9999     -9999     -9999     -9999     -9999     -9999     -9999
     -9999     -9999     -9999     -9999     -9999     -9999     -9999     -9999     -9999     -9999     -9999     -9999     -9999     -9999     -9999     -9999     -9999     -9999     -9999     -9999     -9999         0         0         0         0         0         0         0         0         0         0         0         0         0         0         1         0         0         0         0         0         0         0         0         0         0         0         0         0         0         0         0         0         0         0         0         0         0         0         0         0         0         0         0         0         0         0         0         0         0         0         0         0         0         0         0         0         0         0         0         0         0         0         0         0         0         0         0         0         0         0         0         0         0         0         0         0         0         0         0     -9999     -9999     -9999     -9999     -9999     -9999     -9999     -9999     -9999     -9999     -9999     -9999     -9999     -9999     -9999     -9999     -9999     -9999     -9999     -9999     -9999     -9999     -9999     -9999     -9999     -9999     -9999     -9999     -9999     -9999     -9999     -9999     -9999     -9999     -9999     -9999
     -9999     -9999     -9999     -9999     -9999     -9999     -9999     -9999     -9999     -9999     -9999     -9999     -9999     -9999     -9999     -9999     -9999     -9999     -9999     -9999         0         0         0         0         0         0         0         0         0         0         0         0         0         0         0         0         1         0         0         0         0         0         0         0         0         0         0         0         0         0         0         0         0         0         0         0         0         0         0         0         0         0         0         0         0         0         0         0         0         0         0         0         0         0         0         0         0         0         0         0         0         0         0         0         0         0         0         0         0         0         0         0         0         0         0         0         0         0         0         0         0     -9999     -9999     -9999     -9999     -9999     -9999     -9999     -9999     -9999     -9999     -9999     -9999     -9999     -9999     -9999     -9999     -9999     -9999     -9999     -9999     -9999     -9999     -9999     -9999     -9999     -9999     -9999     -9999     -9999     -9999     -9999     -9999     -9999     -9999     -9999
     -9999     -9999     -9999     -9999     -9999     -9999     -9999     -9999     -9999     -9999     -9999     -9999     -9999     -9999     -9999     -9999     -9999     -9999     -9999     -9999         0         0         0         0         0         0         0         0         0         0         0         0         0         0         0         1         0         0         0         0         0         0         0         0         0         0         0         0         0         0         0         0         0         1         0         0         0         0         0         0         0         0         0         0         0         0         0         0         0         0         0         0         0         0         0         0         0         0         0         0         0         0         0         0         0         0         0         0         0         0         0         0         0         0         0         0         0         0         0         0         0         0         0         0         0         0     -9999     -9999     -9999     -9999     -9999     -9999     -9999     -9999     -9999     -9999     -9999     -9999     -9999     -9999     -9999     -9999     -9999     -9999     -9999     -9999     -9999     -9999     -9999     -9999     -9999     -9999     -9999     -9999     -9999     -9999
     -9999     -9999     -9999     -9999     -9999     -9999     -9999     -9999     -9999     -9999     -9999     -9999     -9999     -9999     -9999     -9999     -9999     -9999     -9999     -9999         0         0         0         0         0         0         0         0         0         0         0         0         0         0         0         0         0         0         0         0         0         0         0         0         0         0         0         0         0         0         0         0         0         0         0         0         0         0         0         0         0         0         0         0         0         0         0         0         0         0         0         0         0         0         0         0         0         0         0         0         1         0         0         0         0         0         0         0         0         0         0         0         0         0         0         0         0         0         0         0         0         0         0         0         0         0     -9999     -9999     -9999     -9999     -9999     -9999     -9999     -9999     -9999     -9999     -9999     -9999     -9999     -9999     -9999     -9999     -9999     -9999     -9999     -9999     -9999     -9999     -9999     -9999     -9999     -9999     -9999     -9999     -9999     -9999
     -9999     -9999     -9999     -9999     -9999     -9999     -9999     -9999     -9999     -9999     -9999     -9999     -9999     -9999     -9999     -9999     -9999     -9999     -9999         0         0         0         0         0         0         0         0         0         0         0         0         0         0         0         1         0         0         0         0         0         0         0         0         0         0         0         0         0         0         0         0         0         0         0         1         0         0         0         0         0         0         0         0         0         0         0         0         0         0         0         0         0         0         0         0         0         0         0         0         0         0         0         0         0         0         0         0         0         0         0         0         0         0         0         0         0         0         0         0         0         0         0         0         0         0         0         0         0     -9999     -9999     -9999     -9999     -9999     -9999     -9999     -9999     -9999     -9999     -9999     -9999     -9999     -9999     -9999     -9999     -9999     -9999     -9999     -9999     -9999     -9999     -9999     -9999     -9999     -9999     -9999     -9999
     -9999     -9999     -9999     -9999     -9999     -9999     -9999     -9999     -9999     -9999     -9999     -9999     -9999     -9999     -9999     -9999     -9999     -9999     -9999         0         0         0         0         0         0         0         0         0         0         0         0         0         0         0         0         0         0         0         0         0         0         0         0         0         0         0         0         0         0         0         0         0         0         0         0         0         0         0         0         0         0         0         0         0         0         0         0         0         0         0         0         0         0         0         0         0         0         0         0         0         1         0         0         0         0         0         0         0         0         0         0         0         0         0         0         0         0         0         0         0         0         0         0         0         0         0         0         0         0     -9999     -9999     -9999     -9999     -9999     -9999     -9999     -9999     -9999     -9999     -9999     -9999     -9999     -9999     -9999     -9999     -9999     -9999     -9999     -9999     -9999     -9999     -9999     -9999     -9999     -9999     -9999
     -9999     -9999     -9999     -9999     -9999     -9999     -9999     -9999     -9999     -9999     -9999     -9999     -9999     -9999     -9999     -9999     -9999     -9999     -9999         0         0         0         0         0         0         0         0         0         0         0         0         0         1         0         0         0         0         0         0         0         0         0         0         0         0         0         0         0         0         0         0         0         0         0         0         0         1         0         0         0         0         0         0         0         0         0         0         0         0         0         0         0         0         0         0         0         0         0         0         0         0         0         0         0         0         0         0         0         0         0         0         0         0         0         0         0         0         0         0         0         0         0         0         0         0         0         0         0         0         0     -9999     -9999     -9999     -9999     -9999     -9999     -9999     -9999     -9999     -9999     -9999     -9999     -9999     -9999     -9999     -9999     -9999     -9999     -9999     -9999     -9999     -9999     -9999     -9999     -9999     -9999
     -9999     -9999     -9999     -9999     -9999     -9999     -9999     -9999     -9999     -9999     -9999     -9999     -9999     -9999     -9999     -9999     -9999     -9999     -9999         0         0         0         0         0         0         0         0         0         0         0         0         0         0         0         0         0         0         0         0         0         0         0         0         0         0         0         0         0         0         0         0         0         0         0         0         0         0         0         0         0         0         0         0         0         0         0         0         0         0         0         0         0         0         0         0         0         0         0         0         0         0         1         0         0         0         0         0         0         0         0         0         0         0         0         0         0         0         0         0         0         0         0         0         0         0         0         0         0         0         0         0     -9999     -9999     -9999     -9999     -9999     -9999     -9999     -9999     -9999     -9999     -9999     -9999     -9999     -9999     -9999     -9999     -9999     -9999     -9999     -9999     -9999     -9999     -9999     -9999     -9999
     -9999     -9999     -9999     -9999     -9999     -9999     -9999     -9999     -9999     -9999     -9999     -9999     -9999     -9999     -9999     -9999     -9999     -9999     -9999         0         0         0         0         0         0         0         0         0         0         0         0         0         0         0         0         0         0         0         0         0         0         0         0         0         0         0         0         0         0         0         0         0         0         0         0         0         0         0         1         0         0         0         0         0         0         0         0         0         0         0         0         0         0         0         0         0         0         0         0         0         0         0         1         0         0         0         0         0         0         0         0         0         0         0         0         0         0         0         0         0         0         0         0         0         0         0         0         0         0         0         0     -9999     -9999     -9999     -9999     -9999     -9999     -9999     -9999     -9999     -9999     -9999     -9999     -9999     -9999     -9999     -9999     -9999     -9999     -9999     -9999     -9999     -9999     -9999     -9999     -9999
     -9999     -9999     -9999     -9999     -9999     -9999     -9999     -9999     -9999     -9999     -9999     -9999     -9999     -9999     -9999     -9999     -9999     -9999     -9999         0         0         0         0         0         0         0         0         0         0         0         0         1         0         0         0         0         0         0         0         0         0         0         0         0         0         0         0         0         0         0         0         0         0         0         0         0         0         0         0         0         0         0         0         0         0         0         0         0         0         0         0         0         0         0         0         0         0         0         0         0         0         0         0         1         0         0         0         0         0         0         0         0         0         0         0         0         0         0         0         0         0         0         0         0         0         0         0         0         0         0         0         0     -9999     -9999     -9999     -9999     -9999     -9999     -9999     -9999     -9999     -9999     -9999     -9999     -9999     -9999     -9999     -9999     -9999     -9999     -9999     -9999     -9999     -9999     -9999     -9999
     -9999     -9999     -9999     -9999     -9999     -9999     -9999     -9999     -9999     -9999     -9999     -9999     -9999     -9999     -9999     -9999     -9999     -9999     -9999         0         0         0         0         0         0         0         0         0         0         0         0         0         0         0         0         0         0         0         0         0         0         0         0         0         0         0         0         0         0         0         0         0         0         0         0         0         0         0         0         0         1         0         0         0         0         0         0         0         0         0         0         0         0         0         0         0         0         0         0         0         0         0         0         0         0         0         0         0         0         0         0         0         0         0         0         0         0         0         0         0         0         0         0         0         0         0         0         0         0         0         0         0         0         0     -9999     -9999     -9999     -9999     -9999     -9999     -9999     -9999     -9999     -9999     -9999     -9999     -9999     -9999     -9999     -9999     -9999     -9999     -9999     -9999     -9999     -9999
     -9999     -9999     -9999     -9999     -9999     -9999     -9999     -9999     -9999     -9999     -9999     -9999     -9999     -9999     -9999     -9999     -9999     -9999     -9999         0         0         0         0         0         0         0         0         0         0         0         1         0         0         0         0         0         0         0         0         0         0         0         0         0         0         0         0         0         0         0         0         0         0         0         0         0         0         0         0         0         1         0         0         0         0         0         0         0         0         0         0         0         0         0         0         0         0         0         0         0         0         0         0         1         0         0         0         0         0         0         0         0         0         0         0         0         0         0         0         0         0         0         0         0         0         0         0         0         0         0         0         0         0         0         0     -9999     -9999     -9999     -9999     -9999     -9999     -9999     -9999     -9999     -9999     -9999     -9999     -9999     -9999     -9999     -9999     -9999     -9999     -9999     -9999     -9999
     -9999     -9999     -9999     -9999     -9999     -9999     -9999     -9999     -9999     -9999     -9999     -9999     -9999     -9999     -9999     -9999     -9999     -9999     -9999         0         0         0         0         0         0         0         0         0         0         0         0         0         0         0         0         0         0         0         0         0         0         0         0         0         0         0         0         0         0         0         0         0         0         0         0         0         0         0         0         0         0         0         0         0         0         0         0         0         0         0         0         0         0         0         0         0         0         0         0         0         0         0         0         0         1         0         0         0         0         0         0         0         0         0         0         1         0         0         0         0         0         0         0         0         0         0         0         0         0         0         0         0         0         0         0     -9999     -9999     -9999     -9999     -9999     -9999     -9999     -9999     -9999     -9999     -9999     -9999     -9999     -9999     -9999     -9999     -9999     -9999     -9999     -9999     -9999
     -9999     -9999     -9999     -9999     -9999     -9999     -9999     -9999     -9999     -9999     -9999     -9999     -9999     -9999     -9999     -9999     -9999     -9999         0         0         0         0         0         0         0         0         0         0         0         1         0         0         0         0         0         0         0         0         0         0         0         0         0         0         0         0         0         0         0         1         0         0         0         0         0         0         0         0         0         0         0         0         1         0         0         0         0         0         0         0         0         0         0         0         0         0         0         0         0         0         0         0         0         0         0         1         0         0         0         0         0         0         0         0         0         0         0         0         0         0         0         0         0         0         0         0         0         0         0         0         0         0         0         0         0         0     -9999     -9999     -9999     -9999     -9999     -9999     -9999     -9999     -9999     -9999     -9999     -9999     -9999     -9999     -9999     -9999     -9999     -9999     -9999     -9999
     -9999     -9999     -9999     -9999     -9999     -9999     -9999     -9999     -9999     -9999     -9999     -9999     -9999     -9999     -9999     -9999     -9999     -9999         0         0         0         0         0         0         0         0         0         0         0         0         0         0         0         0         0         0         0         0         0         0         0         0         0         0         0         0         0         0         0         0         0         1         0         0         0         0         0         0         0         0         0         0         0         0         0         0         0         0         0         0         0         0         0         0         0         0         0         0         0         0         0         0         0         0         0         0         0         0         0         0         0         0         0         0         1         0         0         0         0         0         0         0         0         0         0         0         0         0         0         0         0         0         0         0         0         0         0     -9999     -9999     -9999     -9999     -9999     -9999     -9999     -9999     -9999     -9999     -9999     -9999     -9999     -9999     -9999     -9999     -9999     -9999     -9999
     -9999     -9999     -9999     -9999     -9999     -9999     -9999     -9999     -9999     -9999     -9999     -9999     -9999     -9999     -9999     -9999     -9999     -9999         0         0         0         0         0         0         0         0         0         1         0         0         0         0         0         0         0         0         0         0         0         0         0         0         0         0         0         0         0         0         0         0         0         0         0         0         1         0         0         1         0         0         0         0         0         0         2         0         0         0         0         0         0         0         0         0         0         0         0         0         0         0         0         0         0         0         0         0         0         1         0         0         0         0         0         0         0         0         0         0         0         0         0         0         0         0         0         0         0         0         0         0         0         0         0         0         0         0         0     -9999     -9999     -9999     -9999     -9999     -9999     -9999     -9999     -9999     -9999     -9999     -9999     -9999     -9999     -9999     -9999     -9999     -9999     -9999
     -9999     -9999     -9999     -9999     -9999     -9999     -9999     -9999     -9999     -9999     -9999     -9999     -9999     -9999     -9999     -9999     -9999     -9999         0         0         0         0         0         0         0         0         0         0         0         0         0         0         0         0         0         0         0         0         0         0         0         0         0         0         0         0         0         0         0         0         0         0         0         0         0         0         0         0         0         0         0         0         0         0         1         0         0         0         0         0         0         0         0         0         0         0         0         0         0         0         0         0         0         0         0         0         0         0         0         0         0         0         0         1         0         0         0         0         0         0         0         0         0         0         0         0         0         0         0         0         0         0         0         0         0         0         0         0     -9999     -9999     -9998     -9999     -9999     -9999     -9999     -9999     -9999     -9999     -9999     -9999     -9999     -9999     -9999     -9999     -9999     -9999
     -9999     -9999     -9999     -9999     -9999     -9999     -9999     -9999     -9999     -9999     -9999     -9999     -9999     -9999     -9999     -9999     -9999     -9999         0         0         0         0         0         0         0         0         1         0         0         0         0         0         0         0         0         0         0         0         0         0         0         0         0         0         0         0         0         0         0         0         0         0         0         0         0         0         0         0         0         1         1         0         1         0         0         0         0         1         2         0         0         0         0         0         0         0         0         0         0         0         0         0         0         0         0         0         0         0         1         0         0         0         0         0         0         0         0         0         0         0         0         0         0         0         0         0         0         0         0         0         0         0         0         0         0         0         1         0     -9999     -9999     -9998     -9999     -9999     -9999     -9999     -9999     -9999     -9999     -9999     -9999     -9999     -9999     -9999     -9999     -9999     -9999
     -9999     -9999     -9999     -9999     -9999     -9999     -9999     -9999     -9999     -9999     -9999     -9999     -9999     -9999     -9999     -9999     -9999     -9999         0         0         0         0         0         0         0         0         0         0         0         0         0         0         0         0         0         0         0         0         0         0         0         0         0         0         0         0         0         0         0         0         0         0         0         0         0         0         0         0         0         0         0         0         0         0         0         0         0         0         0         1         0         1         1         1         0         0         0         0         0         0         0         0         0         0         0         0         0         0         1         0         0         0         2         0         0         0         0         0         0         0         0         0         0         0         0         0         0         0         0         0         0         0         0         0         0         0         0         1     -9999     -9999     -9999     -9999     -9999     -9999     -9999     -9999     -9999     -9999     -9999     -9999     -9999     -9999     -9999     -9999     -9999     -9999
     -9999     -9999     -9999     -9999     -9999     -9999     -9999     -9999     -9999     -9999     -9999     -9999     -9999     -9999     -9999     -9999     -9999     -9999         0         0         0         0         0         0         0         1         0         0         0         0         0         0         0         0         0         0         0         0         0         0         0         0         0         0         0         0         0         0         0         0         0         0         0         0         0         0         0         0         0         0         0         0         0         0         0         0         0         0         0         0         0         0         0         0         0         3         1         0         0         0         0         0         0         0         0         0         0         0         0         0         0         0         0         0         0         0         0         0         0         0         0         0         0         0         0         0         0         0         0         0         0         0         1         0         0         1         0         0         0     -9999     -9999     -9998     -9999     -9999     -9999     -9999     -9999     -9999     -9999     -9999     -9999     -9999     -9999     -9999     -9999     -9999
     -9999     -9999     -9999     -9999     -9999     -9999     -9999     -9999     -9999     -9999     -9999     -9999     -9999     -9999     -9999     -9999     -9999     -9999         0         0         0         0         0         0         0         0         0         0         0         0         0         0         0         0         0         0         0         0         0         0         0         0         0         0         0         0         0         0         0         0         0         0         0         0         0         0         0         0         0         0         0         0         0         0         0         0         0         0         0         0         0         0         0         0         0         0         0         0         0         0         0         0         0         0         0         0         0         0         0         1         0         0         0         0         0         0         0         0         0         0         0         0         0         0         0         0         0         0         0         0         0         0         0         0         0         0         1         1         1         0     -9999     -9999     -9999     -9999     -9999     -9999     -9999     -9999     -9999     -9999     -9999     -9999     -9999     -9999     -9999     -9999
     -9999     -9999     -9999     -9999     -9999     -9999     -9999     -9999     -9999     -9999     -9999     -9999     -9999     -9999     -9999     -9999     -9999     -9999         0         0         0         0         0         0         1         0         0         0         0         0         0         0         0         0         0         0         0         0         0         0         0         0         0         0         0         0         0         0         0         0         0         0         0         0         0         0         0         0         0         0         0         0         0         0         0         0         0         0         0         0         0         0         0         0         0         0         0         1         0         0         0         0         0         0         0         0         0         0         0         0         0         0         1         0         0         0         0         0         0         0         0         0         0         0         0         0         0         0         0         0         0         1         0         0         1         0         0         0         0         0     -9998     -9999     -9999     -9999     -9999     -9999     -9999     -9999     -9999     -9999     -9999     -9999     -9999     -9999     -9999     -9999
     -9999     -9999     -9999     -9999     -9999     -9999     -9999     -9999     -9999     -9999     -9999     -9999     -9999     -9999     -9999     -9999     -9999     -9999         0         0         0         0         0         0         0         0         0         0         0         0         1         1         0         0         0         0         0         0         0         0         0         0         0         0         0         0         0         0         0         0         0         0         0         0         0         0         0         0         0         0         0         0         0         0         0         0         0         0         0         0         0         0         0         0         0         0         0         0         0         1         0         0         0         0         0         0         0         0         0         0         1         2         0         0         0         0         0         0         0         0         0         0         0         0         0         0         0         0         0         0         0         0         0         0         0         0         0         1         0     -9999     -9999     -9998     -9999     -9999     -9998     -9999     -9999     -9999     -9999     -9999     -9999     -9999     -9999     -9999     -9999     -9999
     -9999     -9999     -9999     -9999     -9999     -9999     -9999     -9999     -9999     -9999     -9999     -9999     -9999     -9999     -9999     -9999     -9999         0         0         0         0         0         0         1         0         0         0         0         0         2         1         1         0         1         0         0         0         0         0         0         0         0         0         0         0         0         0         0         0         0         0         0         0         0         0         0         0         0         0         0         0         0         0         0         0         0         0         0         0         0         0         0         0         0         0         0         0         0         0         0         1         0         0         0         0         0         0         0         0         0         1         0         0         0         0         0         0         0         0         0         0         0         0         0         0         0         0         0         0         0         0         0         0         2         1         0         1         1         1     -9999     -9999     -9998     -9999     -9999     -9999     -9999     -9999     -9999     -9999     -9999     -9999     -9999     -9999     -9999     -9999     -9999
     -9999     -9999     -9999     -9999     -9999     -9999     -9999     -9999     -9999     -9999     -9999     -9999     -9999     -9999     -9999     -9999     -9999         0         0         0         0         0         0         2         0         0         0         0         0         0         0         1         1         0         0         0         0         0         0         0         0         0         0         0         0         0         0         0         0         0         0         0         0         0         0         0         0         0         0         0         0         0         0         0         0         0         0         0         0         0         0         0         0         0         0         0         0         0         0         0         0         2         0         1         0         0         0         0         0         0         0         0         0         0         0         0         0         0         0         0         0         0         0         0         0         0         0         0         0         0         0         0         0         0         0         1         1         0         0     -9999     -9999     -9998     -9998     -9999     -9998     -9999     -9999     -9999     -9999     -9999     -9999     -9999     -9999     -9999     -9999     -9999
     -9999     -9999     -9999     -9999     -9999     -9999     -9999     -9999     -9999     -9999     -9999     -9999     -9999     -9999     -9999     -9999     -9999         0         0         0         0         0         1         1         0         0         0         0         0         0         0         0         0         1         0         0         0         0         1         0         0         0         0         1         0         0         0         0         0         0         0         0         0         0         0         0         0         0         0         0         0         0         0         0         0         0         0         0         0         0         0         0         0         0         0         0         0         0         0         0         0         0         0         0         0         1         0         1         0         1         0         0         0         0         0         0         0         0         0         0         0         0         0         0         0         0         0         0         0         0         0         0         0         0         1         0         0         1     -9999     -9999     -9999     -9999     -9999     -9999     -9999     -9998     -9999     -9999     -9999     -9999     -9999     -9999     -9999     -9999     -9999     -9999
     -9999     -9999     -9999     -9999     -9999     -9999     -9999     -9999     -9999     -9999     -9999     -9999     -9999     -9999     -9999     -9999     -9999         0         0         0         0         0         0         0         0         0         0         0         0         0         0         0         0         0         1         0         0         0         0         0         0         0         0         0         0         0         0         0         0         0         0         0         0         0         0         0         0         0         0         0         0         0         0         0         0         0         0         0         0         0         0         0         0         0         0         0         0         0         0         0         0         0         0         0         0         0         1         0         0         2         0         0         0         0         0         0         0         0         0         0         0         0         0         0         0         0         0         0         0         0         0         0         0         0         0         1         0         1     -9999     -9998     -9999     -9999     -9999     -9999     -9999     -9999     -9999     -9999     -9999     -9999     -9999     -9999     -9999     -9999     -9999     -9999
     -9999     -9999     -9999     -9999     -9999     -9999     -9999     -9999     -9999     -9999     -9999     -9999     -9999     -9999     -9999     -9999     -9999         0         0         0         0         0         1         1         0         0         0         0         0         0         1         1         1         0         0         0         1         1         0         0         0         0         0         0         0         0         0         0         0         0         0         0         0         0         0         0         0         0         0         0         0         0         0         0         0         0         0         0         0         0         0         0         0         0         0         0         0         0         0         0         0         0         0         0         0         0         0         0         0         2         3         0         0         0         0         0         0         0         0         0         0         0         0         0         0         0         0         0         0         0         0         0         0         0         0         0         0     -9998     -9999         0         0         0         0     -9999     -9999     -9999     -9999     -9999     -9999     -9999     -9999     -9999     -9999     -9999     -9999     -9999
     -9999     -9999     -9999     -9999     -9999     -9999     -9999     -9999     -9999     -9999     -9999     -9999     -9999     -9999     -9999     -9999         0         0         0         0         0         0         0         0         0         0         0         0         0         0         0         0         1         0         0         0         0         0         1         1         0         0         0         1         0         0         0         0         0         0         0         0         0         0         0         0         0         0         0         0         0         0         0         0         0         0         0         0         0         0         0         0         0         0         0         0         0         0         0         0         0         0         0         0         0         0         0         0         0         0         0         0         0         0         0         0         0         0         0         0         0         0         0         0         0         0         0         0         0         0         0         0         1         0         1         0         0         0         0         0         0         1         0         0         0     -9999     -9999     -9999     -9999     -9999     -9999     -9999     -9999     -9999     -9999     -9999
     -9999     -9999     -9999     -9999     -9999     -9999     -9999     -9999     -9999     -9999     -9999     -9999     -9999     -9999     -9999     -9999         0         0         0         0         0         0         0         0         0         1         0         0         0         0         0         0         1         0         0         0         0         0         1         0         0         0         0         0         0         0         0         0         0         0         0         0         0         0         0         0         0         0         0         0         0         0         0         0         0         0         0         0         0         0         0         0         0         0         0         0         0         0         0         0         0         0         0         0         0         0         0         0         0         0         0         0         2         0         0         0         0         0         0         0         0         0         0         0         0         0         0         0         0         0         0         1         0         0         0         0         0         1         0         0         1         0         0         0         0     -9999     -9999     -9999     -9999     -9999     -9999     -9999     -9999     -9999     -9999     -9999
     -9999     -9999     -9999     -9999     -9999     -9999     -9999     -9999     -9999     -9999     -9999     -9999     -9999     -9999     -9999     -9999         0         0         0         0         0         0         0         0         1         0         0         0         0         0         0         0         0         0         1         0         1         0         0         0         0         1         0         0         0         0         0         0         0         0         0         0         0         0         0         0         0         0         0         0         0         0         0         0         0         0         0         0         0         0         0         0         0         0         0         0         0         0         0         0         0         0         0         0         0         0         0         0         0         0         0         3         0         0         0         0         0         0         0         0         0         0         0         0         0         0         0         0         0         0         0         0         0         1         0         0         0         0         0         0         0         0         0         0         0     -9999     -9999     -9999     -9999     -9999     -9999     -9999     -9999     -9999     -9999     -9999
     -9999     -9999     -9999     -9999     -9999     -9999     -9999     -9999     -9999     -9999     -9999     -9999     -9999     -9999     -9999         0         0         0         0         0         0         0         0         0         1         1         1         1         0         0         0         0         0         0         0         1         0         1         0         0         0         0         1         0         0         0         0         0         0         0         0         0         0         0         0         0         0         0         0         0         0         0         0         0         0         0         0         0         0         0         0         0         0         0         0         0         0         0         0         0         0         0         0         0         0         0         0         0         0         0         0         0         0         0         0         0         0         0         0         0         0         0         0         0         0         0         0         0         0         0         1         0         0         0         0         1         0         0         0         0         1         1         0         0         0     -9999     -9999     -9999     -9999     -9999     -9999     -9999     -9999     -9999     -9999     -9999
     -9999     -9999     -9999     -9999     -9999     -9999     -9999     -9999     -9999     -9999     -9999     -9999     -9999         0         0         0         0         0         0         0         0         0         0         0         0         0         0         0         0         1         0         0         0         0         0         0         0         0         0         0         0         0         0         0         0         0         0         0         0         0         0         0         0         0         0         0         0         0         0         0         0         0         0         0         0         0         0         0         0         0         0         0         0         0         0         0         0         0         0         0         0         0         0         0         0         0         0         0         0         0         0         0         0         0         0         0         0         0         0         0         0         0         0         0         0         0         0         0         0         1         0         0         1         0         0         1         0         0         0         0         1         1         0         0         0     -9999     -9999     -9999     -9999     -9999     -9999     -9999     -9999     -9999     -9999     -9999
     -9999     -9999     -9999     -9999     -9999     -9999     -9999     -9999     -9999     -9999     -9999     -9999     -9999         0         0         0         0         0         0         0         0         0         0         1         1         0         0         0         0         0         1         0         0         0         0         0         0         0         0         0         0         0         1         0         0         0         0         0         0         0         0         0         0         0         0         1         1         0         0         0         0         0         0         0         0         0         0         0         0         0         0         0         0         0         0         0         0         0         0         0         0         0         0         0         0         0         0         0         0         0         0         1         0         0         0         0         0         0         0         0         0         0         0         0         0         0         0         0         0         0         1         1         0         0         0         0         0         1         0         1         1         1         1         0         0     -9999     -9999     -9999     -9999     -9999     -9999     -9999     -9999     -9999     -9999     -9999
     -9999     -9999     -9999     -9999     -9999     -9999     -9999     -9999     -9999     -9999     -9999     -9999     -9999         0         0         0         0         0         0         0         0         0         0         0         0         0         0         0         0         0         0         1         0         0         0         0         0         0         0         0         1         0         1         0         0         0         0         0         0         0         0         0         0         0         0         1         0         0         1         0         0         0         0         0         0         0         0         0         0         0         0         0         0         0         0         0         0         0         0         0         0         0         0         0         0         0         0         0         0         0         0         1         0         0         0         0         0         0         0         0         0         0         0         0         0         0         0         0         0         0         0         0         0         0         0         0         0         0         0         0         0         0         0         0         0     -9999     -9999     -9999     -9999     -9999     -9999     -9999     -9999     -9999     -9999     -9999
     -9999     -9999     -9999     -9999     -9999     -9999     -9999     -9999     -9999     -9999     -9999     -9999     -9999         0         0         0         0         0         0         0         0         0         0         0         0         0         0         0         0         0         0         0         0         1         0         0         0         0         0         0         1         0         1         1         0         0         0         0         0         0         0         0         0         0         0         0         0         0         0         0         0         0         0         0         0         0         0         0         0         0         0         0         0         0         0         0         0         0         0         0         0         0         0         0         0         0         0         0         0         0         0         0         1         0         0         0         0         0         0         0         0         0         0         0         0         0         0         0         0         1         0         0         0         0         0         0         1         1         1         0         0         0         0     -9999     -9999     -9999     -9999     -9999     -9999     -9999     -9999     -9999     -9999     -9999     -9999     -9999
     -9999     -9999     -9999     -9999     -9999     -9999     -9999     -9999     -9999     -9999     -9999     -9999     -9999         0         0         0         0         0         0         0         0         0         0         0         1         0         0         0         0         0         0         0         0         0         0         1         0         0         0         0         0         0         0         0         0         1         0         0         0         0         0         0         0         0         0         0         0         0         1         0         1         1         0         0         0         0         0         0         0         0         0         0         0         0         0         0         0         0         0         0         0         0         0         0         0         0         0         0         0         0         0         0         0         0         0         0         0         0         0         0         0         0         0         0         0         0         0         0         0         0         0         0         0         0         0         0         0         1         0         0         0         0         0     -9999     -9999     -9999     -9999     -9999     -9999     -9999     -9999     -9999     -9999     -9999     -9999     -9999
     -9999     -9999     -9999     -9999     -9999     -9999     -9999     -9999     -9999     -9999     -9999     -9999     -9999         0         0         0         0         0         0         0         0         1         0         0         1         0         0         0         0         0         0         0         0         0         0         0         0         0         1         2         0         1         0         0         0         0         0         0         0         0         0         0         0         0         0         0         1         1         0         0         0         0         0         1         0         0         0         0         0         0         0         0         0         0         0         0         0         0         0         0         0         0         0         0         0         0         0         0         0         0         0         0         1         0         0         0         0         0         0         0         0         0         0         0         0         0         0         0         0         1         0         0         0         0         0         1         0         0         0         1         0         0         0     -9999     -9999     -9999     -9999     -9999     -9999     -9999     -9999     -9999     -9999     -9999     -9999     -9999
     -9999     -9999     -9999     -9999     -9999     -9999     -9999     -9999     -9999     -9999     -9999     -9999     -9999         0         0         0         0         0         0         0         0         0         0         0         0         2         0         0         0         0         0         0         0         0         0         0         0         1         0         0         0         1         0         1         0         0         0         0         0         0         0         0         0         0         0         0         0         0         0         0         0         1         0         0         0         0         0         0         0         0         0         0         0         0         0         0         0         0         0         0         0         0         0         0         0         0         0         0         0         0         0         0         0         0         0         0         0         0         0         0         0         0         0         0         0         0         0         0         1         0         0         0         0         0         0         0         0         0         0         0         0         0         0     -9999     -9999     -9999     -9999     -9999     -9999     -9999     -9999     -9999     -9999     -9999     -9999     -9999
     -9999     -9999     -9999     -9999     -9999     -9999     -9999     -9999     -9999     -9999     -9999     -9999         0         0         0         0         0         0         0         0         0         0         0         1         1         0         1         0         0         0         0         1         0         0         0         0         1         0         1         0         0         1         0         0         0         0         0         0         0         0         0         0         0         0         0         0         0         0         0         0         0         0         1         0         0         0         0         0         0         0         0         0         0         0         0         0         0         0         0         0         0         0         0         0         0         0         0         0         0         0         0         0         1         0         0         0         0         0         0         0         0         0         0         0         0         0         0         0         0         1         0         0         0         0         1         0         0         0         0         0         0         0         0         0         0     -9999     -9999     -9999     -9999     -9999     -9999     -9999     -9999     -9999     -9999     -9999
     -9999     -9999     -9999     -9999     -9999     -9999     -9999     -9999     -9999     -9999     -9999     -9999         0         0         0         0         0         0         0         0         0         0         0         0         1         1         0         0         0         0         1         0         0         0         0         1         0         1         0         0         0         0         0         0         0         1         0         0         0         0         0         0         0         0         0         0         0         0         0         0         1         0         1         1         0         0         0         0         0         0         0         0         0         0         0         0         0         0         0         0         0         0         0         0         0         0         0         0         0         0         0         0         1         0         0         0         0         0         0         0         0         0         0         0         0         0         0         0         0         0         0         0         1         0         0         0         0         0         0         0         1         0         0         0         0         0         0         0     -9999     -9999     -9999     -9999     -9999     -9999     -9999     -9999
     -9999     -9999     -9999     -9999     -9999     -9999     -9999     -9999     -9999     -9999     -9999     -9999         0         0         0         0         0         0         0         0         0         0         0         0         0         0         0         1         0         1         0         1         0         0         0         0         1         0         1         1         0         0         0         0         0         0         0         0         0         0         0         0         0         0         0         1         0         1         0         0         0         0         0         0         0         0         1         0         0         0         0         0         0         0         0         0         0         0         0         0         0         0         0         0         0         0         0         0         0         0         0         0         0         0         0         0         0         0         0         0         0         0         0         0         0         0         0         0         0         0         0         1         1         1         1         0         0         1         0         2         0         0         0         0         0         0         0         0     -9999     -9999     -9999     -9999     -9999     -9999     -9999     -9999
     -9999     -9999     -9999     -9999     -9999     -9999     -9999     -9999     -9999     -9999     -9999     -9999         0         0         0         0         0         0         0         0         0         0         0         1         0         0         1         0         0         0         0         1         1         0         0         0         0         0         0         0         0         0         0         0         0         0         0         1         0         0         0         0         1         0         1         0         0         0         0         0         0         0         0         0         0         0         0         0         0         0         0         0         0         0         0         0         0         0         0         0         0         0         0         0         0         0         0         0         0         0         0         1         0         0         0         0         0         0         0         0         0         0         0         0         0         1         0         0         0         0         0         0         0         1         0         0         0         0         1         0         0         0         0         0         0         0         0         0     -9999     -9999     -9999     -9999     -9999     -9999     -9999     -9999
     -9999     -9999     -9999     -9999     -9999     -9999     -9999     -9999     -9999     -9999     -9999     -9999         0         0         0         0         0         0         0         0         0         1         1         0         0         0         0         0         1         1         1         0         0         1         0         0         0         1         0         0         0         0         0         0         0         0         0         0         0         0         0         0         0         0         0         0         0         0         0         0         0         0         0         0         0         0         0         0         1         0         0         0         0         0         0         0         0         0         0         0         0         0         0         0         0         0         0         0         0         0         0         1         0         0         0         0         0         0         0         0         0         0         0         0         0         0         0         0         0         0         1         0         0         0         0         0         1         0         0         0         0         0         0         0         0         0         0         0     -9999     -9999     -9999     -9999     -9999     -9999     -9999     -9999
     -9999     -9999     -9999     -9999     -9999     -9999     -9999     -9999     -9999     -9999     -9999         0         0         0         0         0         0         0         0         0         0         0         0         0         0         0         0         0         0         1         0         0         0         0         0         0         0         1         0         0         0         0         0         0         0         0         0         0         1         0         0         0         0         0         0         0         0         0         0         0         0         0         0         0         0         0         0         0         0         0         0         0         0         0         0         0         0         0         0         0         0         0         0         0         0         0         0         0         0         0         0         1         0         0         0         0         0         0         0         0         0         0         0         0         1         0         0         0         0         0         0         0         0         0         0         0         0         0         0         0         0         0         0         0         0         0         0         0     -9999     -9999     -9999     -9999     -9999     -9999     -9999     -9999
     -9999     -9999     -9999     -9999     -9999     -9999     -9999     -9999     -9999     -9999         0         0         0         0         0         0         0         0         0         0         0         0         0         0         1         0         0         1         1         0         0         1         0         0         0         0         0         0         0         0         0         0         0         0         0         0         0         0         0         0         1         0         0         0         0         0         0         0         0         0         0         0         0         0         0         0         0         0         1         0         0         0         0         0         0         0         0         0         0         0         0         0         0         0         0         0         0         0         0         0         0         0         0         0         0         0         0         0         0         0         0         0         0         1         0         0         0         0         0         1         0         0         0         0         0         0         0         0         0         0         0         0         0         0         0         0         0         0         0     -9999     -9999     -9999     -9999     -9999     -9999     -9999
     -9999     -9999     -9999     -9999     -9999     -9999     -9999     -9999     -9999     -9999         0         0         0         0         0         0         0         0         0         0         1         0         0         0         0         0         1         1         2         0         0         0         0         0         1         0         0         0         0         0         0         0         0         0         0         0         0         0         0         2         0         0         0         0         0         0         0         0         0         0         0         0         0         0         0         0         0         0         0         0         0         0         0         0         0         0         0         0         0         0         0         0         0         0         0         0         0         0         0         0         1         0         0         0         0         0         0         0         0         0         0         0         0         0         0         0         1         0         0         1         1         0         1         0         0         1         0         1         0         1         0         0         0         0         0         0         0         0         0         0     -9999     -9999     -9999     -9999     -9999     -9999
     -9999     -9999     -9999     -9999     -9999     -9999     -9999     -9999     -9999     -9999         0         0         0         0         0         0         0         0         0         0         0         0         1         0         0         0         0         0         2         0         1         0         0         0         0         0         1         1         0         0         0         0         0         0         0         0         0         0         0         0         0         0         0         0         0         0         0         0         0         0         0         0         0         0         0         0         0         0         0         1         0         0         0         0         0         0         0         0         0         0         0         0         0         0         0         1         0         0         0         0         1         0         0         0         0         0         0         0         0         0         0         0         0         0         0         0         0         0         1         0         0         0         0         0         0         0         0         0         0         0         0         0         0         0         0         0         0         0         0         0     -9999     -9999     -9999     -9999     -9999     -9999
     -9999     -9999     -9999     -9999     -9999     -9999     -9999     -9999         0         0         0         0         0         0         0         0         0         0         0         0         0         0         0         1         0         0         0         0         0         0         1         0         0         0         0         0         0         1         0         0         0         0         0         0         0         0         0         0         0         0         0         0         0         0         0         0         0         0         0         0         0         0         0         0         0         0         0         0         0         1         0         0         0         0         0         0         0         0         0         0         0         0         0         0         1         0         0         1         0         0         0         1         0         0         0         0         0         0         0         0         0         0         0         0         0         0         0         0         0         0         0         0         0         0         0         0         0         0         0         0         0         0         0         0         0         0         0         0         0         0         0         0     -9999     -9999     -9999     -9999
     -9999     -9999     -9999     -9999     -9999     -9999     -9999     -9999         0         0         0         0         0         0         0         0         0         0         0         0         0         0         0         0         0         1         0         1         0         0         0         0         0         0         0         0         1         0         0         0         0         1         0         0         0         0         0         0         0         0         1         0         0         0         0         0         0         0         0         1         0         0         0         0         0         0         0         0         0         0         1         1         0         0         0         0         0         0         0         0         0         0         0         1         0         0         0         0         1         0         0         1         0         0         0         0         0         0         0         0         0         0         0         1         1         0         0         1         0         0         0         0         0         0         0         1         0         0         1         0         0         0         0         0         0         0         0         0         0         0         0         0     -9999     -9999     -9999     -9999
     -9999     -9999     -9999     -9999     -9999     -9999     -9999         0         0         0         0         0         0         0         0         0         0         0         0         0         0         0         1         0         0         0         1         1         0         0         0         0         0         0         0         0         1         2         0         0         0         1         0         1         0         0         0         0         0         0         1         1         0         0         0         0         0         0         1         0         2         0         0         0         0         0         0         0         0         0         0         0         0         0         0         0         0         0         0         0         0         0         0         0         0         0         0         0         0         0         1         0         0         0         0         0         0         0         0         0         0         0         0         0         0         0         1         0         0         0         0         0         0         0         0         0         0         0         0         0         0         1         0         0         0         0         0         0         0         0         0         0     -9999     -9999     -9999     -9999
     -9999     -9999     -9999     -9999     -9999     -9999     -9999         0         0         0         0         0         0         0         0         0         0         0         0         0         1         0         0         0         0         0         0         0         0         0         0         0         0         1         0         0         0         0         1         0         0         0         1         1         0         0         0         0         0         0         0         0         1         0         0         0         0         0         0         1         0         0         0         0         0         0         0         0         0         0         0         0         0         1         1         0         0         0         0         0         0         0         0         0         0         0         1         0         0         0         0         1         1         0         0         0         0         0         0         0         0         0         1         0         0         0         0         1         0         0         0         0         0         1         1         0         0         0         0         0         0         0         0         0         0         0         0         0         0         0     -9999     -9999     -9999     -9999     -9999     -9999
     -9999     -9999     -9999     -9999     -9999     -9999         0         0         0         0         0         0         0         0         0         0         0         0         0         0         0         1         1         0         0         0         1         0         0         1         1         0         0         0         0         1         0         0         0         0         1         1         0         0         1         0         0         0         0         0         0         0         0         0         0         0         0         1         0         0         0         0         1         0         0         0         0         0         1         0         0         0         1         0         0         0         0         0         0         0         0         0         0         0         0         0         0         0         0         0         0         0         1         0         0         0         0         0         0         0         0         0         0         1         0         1         0         0         0         1         0         0         1         2         0         0         0         0         0         0         0         0         0         0         0         0         0         0         0         0     -9999     -9999     -9999     -9999     -9999     -9999
     -9999     -9999     -9999     -9999     -9999     -9999         0         0         0         0         0         0         0         0         0         0         0         1         0         0         1         0         0         1         0         0         0         0         0         1         0         0         1         0         0         0         0         0         0         0         0         0         0         0         0         0         0         0         0         0         0         0         0         1         0         0         0         0         0         0         0         0         0         0         0         0         0         0         0         0         0         0         0         0         0         0         1         0         0         0         0         0         0         0         0         0         0         0         1         0         0         2         0         1         0         0         0         0         0         0         0         0         1         0         0         0         0         0         0         1         0         1         0         0         0         0         0         0         0         0         0         0         0         0         0         0         0         0         0     -9999     -9999     -9999     -9999     -9999     -9999     -9999
     -9999     -9999     -9999     -9999     -9999     -9999         0         0         0         0         0         0         0         0         0         0         0         0         1         0         0         0         0         0         0         1         0         0         0         0         0         0         0         0         0         0         0         0         1         0         0         0         0         0         0         0         0         0         0         0         0         0         0         0         0         0         1         0         0         0         0         0         0         0         0         0         0         1         0         0         1         1         0         0         0         0         0         0         0         1         0         0         0         0         0         0         1         0         0         0         0         1         0         0         0         1         1         0         0         0         0         0         1         0         1         0         0         0         0         0         0         0         0         1         0         1         0         0         0         0         0         0         0         0         0     -9999     -9999     -9999     -9999     -9999     -9999     -9999     -9999     -9999     -9999     -9999
     -9999     -9999     -9999     -9999     -9999     -9999         0         0         0         0         0         0         0         0         0         0         0         0         1         0         0         0         0         0         0         0         2         0         0         0         0         1         0         0         0         0         0         0         0         1         0         0         1         0         0         0         0         0         0         0         0         0         0         0         0         1         0         1         0         0         0         0         0         0         0         0         0         0         1         0         0         0         0         0         0         0         0         0         0         0         0         1         0         1         0         0         0         0         0         0         1         0         1         0         0         2         0         1         0         0         0         1         0         0         0         0         0         0         2         0         0         0         0         1         1         1         1         0         0         0         0         0         0         0     -9999     -9999     -9999     -9999     -9999     -9999     -9999     -9999     -9999     -9999     -9999     -9999
     -9999     -9999     -9999     -9999     -9999     -9999         0         0         0         0         0         1         0         0         0         0         0         0         0         0         1         0         0         0         0         0         0         0         0         0         1         0         1         0         0         0         0         0         0         0         0         0         0         1         0         0         0         0         0         0         0         0         0         0         0         0         1         0         0         0         0         0         0         0         0         0         0         0         0         2         0         0         0         0         0         0         0         0         0         0         0         0         0         0         0         0         0         0         0         0         0         0         0         0         0         1         1         0         0         1         0         0         3         0         0         0         0         0         2         0         0         0         0         0         0         1         1         0         0         0         0         0         0         0     -9999     -9999     -9999     -9999     -9999     -9999     -9999     -9999     -9999     -9999     -9999     -9999
     -9999     -9999     -9999     -9999     -9999     -9999         1         0         0         0         0         1         1         0         0         0         0         1         0         0         0         0         0         0         0         0         0         0         0         1         0         1         0         0         1         1         0         1         1         0         0         0         0         0         0         1         0         0         0         0         0         0         0         1         0         0         1         0         0         0         0         0         0         0         0         0         0         0         0         0         0         0         0         0         0         0         0         0         0         0         0         0         0         0         0         0         0         0         0         0         0         0         0         0         0         0         0         1         0         0         0         1         0         0         0         0         0         1         0         0         0         0         0         0         0         0         0         0         0         0         0         0         0         0     -9999     -9999     -9999     -9999     -9999     -9999     -9999     -9999     -9999     -9999     -9999     -9999
     -9999     -9999     -9999     -9999         0         0         0         0         1         0         0         0         0         0         0         0         0         0         0         0         0         0         0         0         0         0         0         0         0         0         0         1         0         0         0         0         0         0         1         1         0         0         1         0         1         0         1         0         0         0         0         0         0         0         0         0         0         1         0         0         0         0         0         0         0         0         0         0         0         0         0         0         0         0         0         0         0         0         0         0         0         0         0         0         0         0         0         0         0         1         0         0         0         1         0         0         0         0         0         0         0         2         0         0         0         0         0         0         0         0         0         0         0         0         0         0         0         0         0         0         0         0         0         0     -9999     -9999     -9999     -9999     -9999     -9999     -9999     -9999     -9999     -9999     -9999     -9999
     -9999     -9999     -9999     -9999         0         0         0         0         0         1         0         1         1         1         0         1         1         0         0         0         1         0         0         0         0         0         0         0         0         0         0         0         1         0         0         0         0         1         0         0         0         1         1         0         0         1         0         0         0         0         0         0         0         0         0         0         0         1         0         2         1         0         0         0         0         0         0         0         0         0         0         0         0         0         0         0         0         0         0         0         0         0         0         0         0         0         0         0         0         0         0         0         0         0         0         0         0         0         1         0         0         0         0         0         0         0         0         0         0         0         0         0         0         0         0         0         0         0         0         0         0         0         0         0         0     -9999     -9999     -9999     -9999     -9999     -9999     -9999     -9999     -9999     -9999     -9999
     -9999     -9999     -9999     -9999         0         0         0         0         0         0         0         1         1         0         1         1         0         0         0         0         0         0         0         0         0         0         0         0         0         0         0         1         0         1         0         0         0         0         0         1         0         0         0         0         0         1         1         0         0         0         0         0         0         0         0         0         0         0         0         0         0         0         0         0         0         0         0         0         0         0         0         0         0         0         0         0         0         0         1         0         0         0         0         0         0         0         0         0         1         0         0         0         1         0         0         0         0         0         0         2         1         0         0         0         0         0         0         0         0         0         0         0         0         0         0         0         0         0         0         0         0         0         0         0         0         0     -9999     -9999     -9999     -9999     -9999     -9999     -9999     -9999     -9999     -9999
     -9999     -9999     -9999     -9999         0         0         0         0         0         0         0         1         1         1         0         0         0         0         0         0         1         0         0         0         0         0         0         0         0         0         0         0         0         1         0         0         0         0         1         1         0         0         1         0         1         0         0         1         0         0         0         0         0         0         0         0         0         0         0         1         0         0         0         0         0         0         0         0         0         0         0         0         0         0         0         0         0         0         1         0         0         0         0         0         0         0         0         0         0         0         0         0         0         0         0         0         0         0         0         1         1         0         0         0         0         0         0         0         0         0         0         0         0         0         0         0         0         0         0         0         0         0         0         0         0         0     -9999     -9999     -9999     -9999     -9999     -9999     -9999     -9999     -9999     -9999
     -9999     -9999     -9999     -9999         0         0         0         0         0         0         0         0         0         0         1         0         0         0         0         0         0         0         1         0         0         0         0         0         0         0         0         0         1         0         0         0         0         0         0         0         0         0         0         0         0         0         0         0         0         0         0         0         0         0         0         0         0         0         0         1         0         0         0         0         0         0         0         0         0         0         0         0         0         0         0         0         0         0         0         0         1         0         0         1         0         0         0         1         0         0         0         0         0         0         0         0         0         0         0         0         1         0         0         0         0         0         0         0         0         0         0         0         0         0         0         0         0         0         0         0         0         0         0         0         0         0         0     -9999     -9999     -9999     -9999     -9999     -9999     -9999     -9999     -9999
     -9999     -9999     -9999     -9999         0         0         0         1         0         0         1         0         0         0         0         0         0         0         0         0         0         0         0         0         0         0         0         0         0         0         0         0         0         0         1         0         0         0         0         1         1         0         2         1         0         0         0         0         0         0         0         0         0         0         0         0         0         0         0         0         0         0         1         0         0         0         0         0         0         0         0         0         0         0         0         0         0         0         0         0         1         1         0         1         1         0         1         0         0         0         0         0         0         0         0         0         0         0         1         0         0         0         0         0         0         0         0         0         0         0         0         0         0         0         0         0         0         0         0         0         0         0         0         0         0         0         0     -9999     -9999     -9999     -9999     -9999     -9999     -9999     -9999     -9999
     -9999     -9999     -9999     -9999         0         0         0         0         0         1         0         0         0         1         0         0         0         0         0         0         1         0         0         0         0         0         0         0         0         0         0         0         0         0         0         0         0         1         1         0         1         0         0         1         0         0         0         0         0         0         0         0         0         0         0         0         1         0         0         0         0         2         1         0         0         0         1         1         0         1         0         0         0         0         0         0         0         0         0         0         1         0         0         0         1         0         0         0         0         0         0         0         0         0         0         0         0         0         0         0         1         0         0         0         0         0         0         0         0         0         0         0         0         0         0         0         0         0         0         0         0         0         0         0         0         0         0     -9999     -9999     -9999     -9999     -9999     -9999     -9999     -9999     -9999
     -9999     -9999     -9999     -9999         0         0         0         0         0         0         0         0         0         1         0         0         0         0         0         0         0         0         0         0         0         0         0         0         0         0         0         0         0         1         0         0         1         1         0         1         0         1         1         0         0         0         0         0         0         1         0         0         0         0         0         1         0         0         0         0         0         0         0         1         0         0         0         0         0         0         0         0         0         0         0         0         0         0         0         0         1         1         0         0         0         1         0         0         0         0         0         0         0         0         0         0         1         0         0         0         1         0         0         0         0         0         0         0         0         0         0         0         0         0         0         0         0         0         0         0         0         0         0         0         0         0         0     -9999     -9999     -9999     -9999     -9999     -9999     -9999     -9999     -9999
     -9999     -9999     -9999     -9999         0         0         0         0         0         0         0         1         1         0         0         0         0         0         0         0         1         0         0         0         0         0         0         0         0         0         0         0         0         0         0         1         0         0         1         0         1         1         0         1         0         0         0         0         0         1         1         0         0         0         1         0         0         0         0         0         0         0         0         0         0         0         0         0         0         0         0         0         0         0         0         0         0         0         0         0         0         1         0         0         1         0         0         0         0         0         0         0         0         0         0         1         0         0         0         0         0         0         0         0         0         0         0         0         0         0         0         0         0         0         0         0         0         1         1         0         1         1         1         0         0         0         0     -9999     -9999     -9999     -9999     -9999     -9999     -9999     -9999     -9999
     -9999     -9999     -9999     -9999         0         0         0         0         0         0         0         0         0         0         0         0         0         0         0         0         0         0         1         0         0         0         0         0         0         0         0         0         0         0         0         0         1         0         0         2         0         0         0         0         0         0         0         0         0         0         0         0         0         0         1         0         0         0         0         1         0         0         2         0         0         0         0         0         0         0         0         0         0         0         0         0         0         0         0         0         0         0         0         0         0         0         0         0         0         0         0         0         0         0         0         0         0         0         0         0         0         1         0         0         0         0         0         0         0         0         0         0         0         0         0         0         0         0         0         0         1         0         1         0         0         0         0     -9999     -9999     -9999     -9999     -9999     -9999     -9999     -9999     -9999
     -9999     -9999     -9999     -9999         0         0         0         0         0         0         0         0         0         0         0         1         1         0         0         0         1         1         0         0         0         0         0         0         0         0         0         0         0         0         0         0         1         1         1         0         0         0         0         0         0         0         0         0         0         0         0         1         0         1         0         0         1         0         1         0         0         0         0         0         0         0         0         0         0         0         0         0         0         0         0         0         0         0         0         0         0         0         0         0         0         0         0         0         0         0         0         0         0         0         0         0         0         0         0         0         0         0         0         0         0         0         0         0         0         0         0         0         0         0         0         0         0         0         1         1         1         0         0         0         0         0         0         0     -9999     -9999     -9999     -9999     -9999     -9999     -9999     -9999
     -9999     -9999     -9999     -9999         0         0         0         0         0         0         0         0         0         0         0         0         0         1         0         0         0         0         0         0         0         0         0         0         0         0         0         0         0         0         0         0         1         0         0         0         0         0         0         0         0         0         0         0         0         0         0         0         0         1         0         0         1         0         1         0         0         0         0         0         0         0         0         0         0         0         0         0         0         0         0         0         0         0         0         0         0         0         0         0         0         0         0         0         0         0         0         0         0         0         0         1         0         0         0         0         0         1         0         0         0         0         0         0         0         0         0         0         0         0         0         0         0         0         1         0         0         0         0         0         0         0         0         0         0         0     -9999     -9999     -9999     -9999     -9999     -9999
     -9999     -9999     -9999     -9999         0         0         0         0         0         0         0         0         0         0         0         1         1         0         0         1         1         2         0         0         0         0         0         0         0         0         0         0         0         0         0         0         0         0         0         0         0         1         0         0         0         0         0         0         1         0         0         0         0         0         0         1         0         1         1         1         0         0         1         0         0         0         0         0         1         0         0         0         0         0         0         0         0         0         0         0         0         0         0         0         0         0         0         0         0         0         0         0         0         0         0         0         0         1         0         0         0         1         0         0         0         0         0         0         0         0         0         0         0         0         0         0         1         2         0         0         0         0         0         0         0         0         0         0         0         0         0         0     -9999     -9999     -9999     -9999
     -9999     -9999     -9999     -9999         0         0         0         0         0         0         0         1         0         0         0         0         0         0         0         0         1         1         1         0         0         0         0         0         0         0         0         1         0         0         0         1         0         0         1         0         0         0         0         0         0         0         0         1         0         0         0         0         0         0         0         0         0         0         0         0         1         1         0         0         0         0         0         0         0         1         0         0         0         0         0         0         0         0         0         0         0         0         0         0         0         0         0         0         0         0         0         0         0         0         0         0         0         0         0         1         0         2         0         0         0         0         1         0         0         0         0         0         0         0         0         0         0         0         0         0         0         0         0         0         0         0         0         0         0         0         0         0     -9999     -9999     -9999     -9999
     -9999     -9999     -9999     -9999         0         0         0         0         0         0         1         0         0         0         0         0         0         0         0         0         1         1         1         0         0         0         0         0         0         0         0         0         0         0         0         0         0         1         0         0         0         0         0         1         1         0         0         1         0         0         0         0         0         0         0         0         0         0         0         0         0         1         0         0         0         0         0         0         1         0         0         0         0         0         0         0         0         0         0         0         0         0         0         0         0         0         0         0         0         0         0         0         0         0         0         0         0         0         0         0         0         0         2         0         0         0         0         1         0         0         0         0         0         0         0         1         0         0         0         0         1         0         0         0         0         0         0         0         0         0         0         0     -9999     -9999     -9999     -9999
     -9999     -9999     -9999     -9999         0         0         0         0         0         0         0         1         0         0         0         0         0         0         0         0         1         1         1         1         0         0         0         0         0         0         0         0         0         0         1         0         0         0         0         0         0         0         0         0         0         0         0         0         0         0         0         0         0         0         0         0         0         0         0         0         0         0         0         0         0         0         0         0         0         1         1         0         0         0         0         0         0         0         0         0         0         0         0         0         0         0         0         0         0         0         0         0         0         0         0         0         0         0         1         1         1         1         0         0         0         0         0         0         1         0         0         0         0         0         0         0         0         0         0         0         0         0         0         0         0         0         0         0         0         0         0         0         0     -9999     -9999     -9999
     -9999     -9999     -9999     -9999         0         0         0         0         0         0         0         0         1         0         0         0         0         0         0         0         1         0         0         0         0         0         0         0         0         0         0         0         0         0         0         0         0         0         0         1         0         0         0         0         0         0         2         0         0         0         0         0         0         0         0         0         0         0         0         0         0         0         0         0         0         0         0         0         1         0         0         1         0         0         0         0         0         0         0         0         0         0         0         0         0         0         0         0         0         0         0         0         0         0         0         0         0         0         0         0         0         0         0         0         0         0         0         0         0         0         1         0         1         0         1         0         0         0         0         1         0         1         0         0         0         0         0         0         0         0         0         0         0     -9999     -9999     -9999
     -9999     -9999     -9999     -9999         0         0         0         0         0         0         0         0         1         0         0         0         0         0         0         0         0         1         0         0         0         0         0         0         0         0         0         0         0         0         0         0         0         0         0         0         0         1         0         0         1         0         0         0         0         0         0         0         0         0         0         0         0         1         0         0         0         0         1         0         0         0         0         1         2         1         1         0         0         0         0         0         0         0         0         0         0         0         0         0         0         0         0         0         0         0         0         0         0         0         0         0         0         0         0         0         0         0         0         1         0         0         0         0         0         0         0         1         0         1         0         0         0         0         0         0         0         0         0         0         0         0         0         0         0         0         0         0         0         0         0     -9999
     -9999     -9999     -9999     -9999         0         0         0         0         0         0         0         0         1         0         0         0         0         0         0         0         1         0         0         0         0         0         0         0         0         0         0         0         0         0         0         0         0         0         0         0         1         0         0         0         1         0         0         0         0         0         0         0         0         0         0         0         1         0         0         1         0         0         0         0         0         0         1         0         0         0         0         0         0         0         0         0         0         0         0         0         0         0         0         0         0         0         0         0         0         0         0         0         0         0         0         0         0         0         0         0         1         0         0         0         0         0         0         0         0         0         0         0         0         0         0         0         0         1         0         0         0         0         0         0         0         0         0         0         0         0         0         0         0         0     -9999     -9999
     -9999     -9999     -9999     -9999         0         0         0         0         0         0         0         0         0         0         0         0         0         0         0         0         0         0         0         0         0         0         0         0         0         0         0         0         0         0         0         0         0         0         0         0         0         0         1         1         1         0         0         0         0         0         0         0         0         0         0         0         0         0         0         0         1         0         0         1         0         0         0         0         0         1         0         0         0         0         0         0         0         0         0         0         0         0         0         0         0         0         0         0         0         0         0         0         0         0         0         0         0         0         0         0         0         0         0         1         0         0         0         1         0         0         2         0         0         0         0         0         0         1         0         0         0         2         0         0         0         0         0         0         0         0         0         0     -9999     -9999     -9999     -9999
     -9999     -9999     -9999     -9998     -9998     -9999         0         0         0         0         0         0         1         0         0         0         0         0         0         0         1         0         0         0         0         0         0         0         0         1         0         0         0         0         0         0         0         0         0         0         0         0         0         1         0         0         0         0         0         0         0         0         0         0         0         0         0         0         0         0         0         0         1         0         0         0         0         0         1         0         0         0         0         0         0         0         0         0         0         0         0         0         0         0         0         0         0         0         0         0         0         0         0         0         0         0         0         0         0         1         0         0         0         1         0         0         1         1         0         0         0         0         0         0         0         0         0         0         0         1         0         0         0         1         0         0         0         0         1     -9999     -9999     -9999     -9999     -9999     -9999     -9999
     -9999     -9999     -9999     -9999         0         0         0         1         0         0         0         0         1         0         0         0         0         0         0         0         1         0         0         1         0         0         0         0         0         0         1         0         0         0         0         0         0         0         0         0         1         0         0         1         1         0         0         0         0         0         0         0         0         0         1         0         0         0         0         1         0         0         0         1         0         0         0         1         0         0         1         0         0         0         1         0         1         0         0         0         0         0         0         0         0         0         0         0         0         0         0         0         0         0         0         0         0         0         0         0         0         0         0         0         0         0         1         1         1         1         0         0         1         0         0         1         0         0         0         0         0         1         0         0         0         1         0         0         0     -9999     -9999     -9999     -9999     -9999     -9999     -9999
     -9999     -9999     -9999     -9999         0         0         0         0         0         0         0         0         0         0         0         0         0         0         0         0         0         1         1         0         0         0         0         0         0         0         0         0         1         0         0         0         0         0         0         0         0         0         0         0         1         0         0         0         0         1         0         0         0         1         0         0         0         0         1         0         0         0         1         0         0         2         0         0         1         0         0         1         0         0         1         0         2         0         0         0         0         0         0         0         0         0         0         0         0         0         0         0         0         0         0         0         0         1         0         0         0         0         1         0         0         1         1         0         2         0         1         0         1         0         0         0         0         0         0         0         0         0         0         0         0         0         1         1         0     -9999     -9999     -9999     -9999     -9999     -9999     -9999
     -9999     -9999         0         0         1         0         0         0         0         1         1         0         0         1         1         0         0         0         0         1         0         0         1         0         0         0         0         0         0         0         0         0         0         0         1         0         0         0         0         0         0         1         0         1         0         0         1         0         0         0         1         0         0         0         0         0         1         0         0         0         0         1         0         0         1         0         0         0         0         0         0         0         0         0         0         0         0         0         0         0         0         0         0         0         0         0         0         0         0         0         0         0         0         0         0         0         0         1         0         0         0         1         0         0         0         0         0         0         1         0         1         0         1         1         1         0         0         0         0         0         0         1         0         0         1         0         0         0         0     -9999     -9999     -9999     -9999     -9999     -9999     -9999
     -9999         0         0         0         1         0         0         0         0         0         0         0         0         0         0         0         0         0         0         0         0         1         0         0         0         0         0         0         0         0         0         0         0         0         0         0         0         0         0         0         0         0         0         1         0         0         0         0         1         0         0         0         0         0         0         0         0         1         0         0         0         0         0         0         0         0         2         0         0         1         1         0         1         0         0         1         0         0         0         0         0         0         0         0         0         0         0         0         0         0         0         0         0         0         0         0         0         0         2         0         1         0         0         0         0         0         0         0         0         0         0         0         0         2         0         0         0         1         0         0         0         0         0         1         0         0         0         0         0         0     -9999     -9999     -9999     -9999     -9999     -9999
     -9999         0         0         0         0         0         0         0         0         0         0         0         1         0         1         1         1         0         0         1         1         0         0         0         0         0         0         0         0         0         0         0         0         0         0         0         1         1         0         0         0         1         0         0         1         0         0         1         0         0         1         0         0         0         0         0         0         0         0         0         0         0         1         0         0         0         1         0         1         0         1         1         0         0         0         0         0         0         1         0         0         0         0         0         1         0         0         0         0         0         0         0         0         0         0         0         0         0         1         0         1         0         0         0         0         0         0         0         0         0         1         0         1         0         0         0         0         0         0         0         0         0         0         1         1         1         0         0         0         1     -9998     -9999     -9999     -9999     -9999     -9999
     -9999         0         0         0         1         0         0         0         0         0         0         0         0         0         1         0         0         0         0         1         0         0         0         0         0         0         0         0         0         0         0         0         0         0         0         0         0         0         0         0         0         1         1         0         0         1         0         0         0         0         1         0         0         0         0         0         0         0         2         1         0         0         0         0         0         0         0         0         0         0         1         0         0         1         0         0         0         0         1         0         0         0         0         1         0         0         0         0         0         0         0         0         0         0         0         1         0         0         0         0         0         0         0         0         0         1         0         0         0         0         0         0         1         0         1         0         1         1         0         0         1         0         0         0         0         0         0         1         0         0     -9999     -9999     -9999     -9999     -9999     -9999
         0         0         0         0         0         0         0         0         0         0         0         0         0         0         0         0         0         1         0         0         0         1         0         0         0         0         0         0         0         0         0         0         0         0         0         0         0         0         0         0         1         0         1         1         0         0         1         0         0         0         0         0         1         0         0         0         0         0         0         1         0         1         0         0         0         0         0         1         1         0         0         0         1         0         0         0         0         1         0         0         1         0         2         0         0         0         0         0         0         0         0         0         0         0         1         0         0         1         0         0         0         0         0         0         0         0         0         0         0         0         0         0         0         0         1         0         0         1         0         0         1         0         0         0         0         0         0         0         0         0         0         0     -9999     -9999     -9999     -9999
         0         0         0         0         0         1         0         0         0         0         0         0         0         1         1         0         1         0         1         0         0         0         0         0         0         0         0         0         1         0         0         0         1         0         0         1         0         0         0         0         0         1         2         0         0         1         0         0         0         1         0         1         0         1         1         0         0         0         0         0         2         0         0         0         0         0         0         0         0         1         1         0         0         1         0         0         0         0         0         0         1         1         1         0         0         0         0         0         0         0         0         0         0         1         0         0         0         0         0         0         1         0         0         0         1         0         0         0         0         0         0         0         0         0         0         0         0         0         0         1         0         0         0         0         0         0         0         0         0         0         0         0     -9999     -9999     -9999     -9999
     -9999         0         0         0         0         0         0         0         0         0         0         1         0         0         1         1         0         0         1         0         1         0         0         0         0         0         0         0         0         1         0         0         0         0         1         0         0         1         0         0         0         1         1         0         0         1         1         0         0         0         0         0         1         0         0         0         0         1         0         0         1         0         1         0         0         0         0         0         1         0         0         0         0         0         0         2         0         0         0         0         0         0         0         0         0         0         0         0         0         0         0         0         0         0         0         1         0         0         0         1         0         0         0         0         0         0         0         0         0         0         0         0         0         0         0         0         1         0         0         0         0         1         0         0         0         0         0         0         0         0         0         0     -9999     -9999     -9999     -9999
     -9999     -9999         0         0         0         0         0         0         0         0         0         0         0         1         0         0         0         1         0         1         0         0         0         0         0         0         0         0         1         0         0         0         0         0         0         0         0         0         1         0         0         0         0         0         1         1         1         1         1         0         0         0         0         1         0         0         0         0         0         1         0         0         0         0         0         0         0         0         0         0         0         0         1         0         0         0         1         0         0         0         1         0         0         0         0         0         0         0         0         0         0         0         0         0         0         0         0         0         0         0         0         0         1         0         0         0         0         0         0         0         0         0         0         0         0         0         0         0         1         0         0         0         0         1         0         0         0         0         0         0         0         1     -9999     -9999     -9999     -9999
     -9999     -9999         0         0         0         1         0         0         0         0         0         0         0         0         0         0         0         0         0         0         0         1         0         0         0         0         1         0         0         0         0         1         0         0         0         0         0         0         0         1         1         0         0         0         0         0         0         1         1         0         0         1         0         0         0         0         0         0         1         0         1         0         0         0         0         0         0         0         0         1         0         0         0         1         0         2         0         0         1         1         0         0         0         0         0         0         0         0         0         0         0         0         0         0         0         0         0         0         1         0         0         1         2         0         1         0         0         0         0         0         0         0         0         0         0         1         0         0         0         0         0         0         0         0         0         0         0         0         0         0         0         0     -9999     -9999     -9999     -9999
     -9999     -9999         0         0         0         0         1         0         0         0         0         0         0         0         0         0         1         0         0         0         0         1         0         0         1         0         0         1         0         0         0         1         1         0         0         0         0         0         0         0         0         0         1         0         0         0         0         1         0         1         2         0         0         0         0         0         1         1         0         0         0         0         1         0         0         0         0         0         0         0         3         0         0         0         0         0         0         0         0         0         1         0         0         0         0         0         0         0         0         0         0         0         0         0         0         1         0         0         0         0         0         0         1         0         0         0         1         0         0         0         0         0         0         0         0         0         0         0         0         0         0         0         0         0         0         0         0         0     -9999     -9998     -9999     -9999     -9999     -9999     -9999     -9999
     -9999     -9999         0         0         0         0         0         0         0         0         0         0         0         0         0         0         0         0         1         0         0         0         0         0         0         1         0         0         0         0         0         1         0         0         1         0         0         0         0         0         0         0         1         0         0         1         0         0         0         1         0         0         0         0         0         0         0         0         1         0         0         0         0         1         0         0         1         1         0         0         0         2         0         0         1         0         1         0         1         0         0         0         0         0         0         0         0         0         0         0         0         1         0         0         0         0         1         0         0         0         1         3         0         0         0         0         0         1         1         0         0         1         1         0         1         1         0         0         0         0         0         0         0         0     -9999     -9999     -9998     -9998     -9998     -9999     -9998     -9999     -9999     -9999     -9999     -9999
     -9999     -9999         0         0         1         1         0         0         0         0         0         0         0         0         0         0         0         0         0         0         1         0         0         0         0         0         0         0         0         0         0         0         0         1         0         0         0         0         0         0         0         1         0         0         0         1         0         0         0         1         1         0         0         0         0         0         0         1         1         1         0         0         1         0         0         0         0         0         1         0         0         0         2         1         0         1         0         1         0         0         1         0         0         0         0         0         0         0         0         0         0         0         0         0         0         0         0         0         1         2         0         0         1         0         1         0         1         1         0         0         0         0         0         0         1         0         0         1         0         0         0         0         0         0     -9998     -9999     -9999     -9998     -9999     -9997     -9999     -9999     -9999     -9999     -9999     -9999
     -9999         0         0         0         0         0         0         1         0         0         0         0         1         0         0         0         0         1         0         0         0         0         0         0         0         0         0         0         0         0         1         0         0         0         1         0         0         0         0         0         1         0         0         0         1         1         0         0         0         0         0         0         1         0         0         0         0         1         0         0         0         0         1         1         0         0         0         0         0         1         0         0         1         1         0         1         0         0         0         1         0         0         0         0         0         0         0         0         2         0         0         0         0         1         0         0         0         0         1         0         0         0         0         0         1         0         1         0         1         0         1         0         0         1         0         0         0         1         0         0         1         0         0     -9999     -9999     -9999     -9998     -9999     -9998     -9999     -9999     -9999     -9999     -9999     -9999     -9999
     -9999         0         0         0         0         0         1         0         0         1         0         0         0         0         0         0         0         0         1         0         0         0         0         0         0         0         0         0         0         0         0         0         1         1         1         0         0         0         0         0         0         0         0         1         0         1         0         1         0         1         0         0         0         0         0         0         0         0         1         0         0         0         0         2         1         0         0         0         0         0         0         0         1         0         0         0         3         0         0         0         0         0         0         0         0         0         0         0         0         0         0         0         0         0         0         1         0         0         1         0         0         0         0         0         0         0         1         1         1         1         0         0         1         0         0         0         0         0         0         1         0     -9998     -9999     -9998     -9999     -9999     -9999     -9999     -9998     -9999     -9999     -9999     -9999     -9999     -9999     -9999
     -9999         0         0         0         0         0         0         0         0         0         0         1         0         0         0         0         0         0         0         0         0         0         0         0         0         0         0         0         0         0         0         0         0         0         0         0         1         0         0         0         0         0         0         1         0         0         0         0         0         0         0         1         0         0         0         0         0         0         0         1         0         1         0         0         0         0         1         0         0         0         0         0         0         0         0         0         2         1         1         0         0         0         0         1         0         1         0         0         0         0         1         0         0         0         0         0         0         0         1         0         0         0         0         0         0         0         0         0         1         0         0         0         0         1         0         0         0         0         1         0         0         0         0     -9998     -9999     -9999     -9999     -9998     -9999     -9999     -9999     -9999     -9999     -9999     -9999     -9999
     -9999         0         0         0         0         0         1         0         0         0         1         0         1         0         0         0         0         1         1         0         0         1         1         0         0         0         0         0         0         0         0         0         0         0         0         0         1         0         0         0         0         0         1         0         1         0         1         0         1         0         0         0         0         0         0         0         0         0         0         0         1         0         0         0         0         0         0         0         0         0         1         0         0         0         1         0         0         1         0         0         0         0         0         0         0         0         0         0         0         0         0         0         1         0         0         0         0         1         1         0         0         0         0         0         0         0         0         0         0         1         0         1         0         0         0         0         0         0         0         0         1         0         1     -9999     -9998     -9999     -9999     -9999     -9999     -9999     -9999     -9999     -9999     -9999     -9999     -9999
     -9999         0         0         0         0         0         0         0         0         0         0         0         2         0         0         0         1         0         1         1         0         0         0         1         0         0         0         0         0         0         0         0         0         0         0         0         0         0         0         0         0         0         1         0         1         0         0         0         0         0         1         0         0         0         0         0         0         0         0         0         0         0         0         0         0         0         0         1         0         0         0         0         0         1         0         0         0         1         1         1         0         0         0         1         0         0         0         0         0         0         0         0         0         0         0         0         0         0         0         0         1         0         0         0         0         0         0         0         0         0         1         0         0         0         0         1         1         1         0         0         0         1         0     -9999     -9999     -9999     -9999     -9999     -9999     -9999     -9999     -9999     -9999     -9999     -9999     -9999
     -9999         0         0         0         0         0         0         1         0         0         0         0         0         0         0         0         0         0         0         1         0         0         0         0         0         0         0         0         0         0         0         0         0         0         0         0         1         0         1         0         0         1         0         1         0         0         0         1         0         1         0         0         0         0         0         0         0         0         0         0         0         0         0         0         1         0         0         0         0         1         0         0         0         0         0         0         1         1         0         0         1         0         0         0         0         0         0         0         0         0         0         0         0         0         1         0         2         0         0         0         0         0         1         0         0         0         0         0         0         0         0         0         0         0         0         1         1         0         1         0         0         0         0     -9999     -9999     -9998     -9999     -9999     -9999     -9999     -9999     -9999     -9999     -9999     -9999     -9999
     -9999     -9999         0         0         0         0         0         0         0         0         0         0         0         0         1         1         0         0         0         0         0         1         0         0         0         0         0         0         0         0         0         0         0         0         0         0         0         1         0         0         1         0         0         2         0         1         1         0         1         0         0         0         0         0         0         0         0         0         0         0         0         0         0         1         0         0         1         0         0         1         0         0         0         0         0         0         1         0         0         1         0         1         1         0         0         1         1         0         0         0         0         0         0         0         0         0         0         1         0         0         0         0         0         0         0         0         0         0         0         0         0         0         1         0         0         0         0         0         0         0         1         0         0     -9999     -9999     -9999     -9999     -9999     -9999     -9999     -9999     -9999     -9999     -9999     -9999     -9999
     -9999     -9999         0         0         0         0         0         0         0         0         0         0         0         0         0         0         1         1         0         0         0         0         0         1         0         0         0         0         0         0         0         0         0         0         0         0         0         0         0         1         0         0         1         1         0         1         0         0         0         0         1         0         0         0         0         0         0         0         0         0         0         0         0         1         0         0         0         0         1         0         0         1         0         0         0         1         0         0         0         0         0         0         0         1         0         0         0         0         0         0         0         0         0         0         0         0         0         0         1         0         0         0         0         0         0         0         0         0         0         0         0         0         0         0         1         2         0         0         0     -9999     -9999     -9998     -9999     -9999     -9998     -9999     -9999     -9999     -9999     -9999     -9999     -9999     -9999     -9999     -9999     -9999
     -9999     -9999         0         0         0         0         0         1         0         0         0         0         0         0         0         0         0         1         0         0         0         0         0         0         0         1         0         0         0         0         0         0         0         0         0         0         0         0         0         1         0         1         0         0         0         0         0         0         1         0         0         1         0         0         0         0         0         0         0         0         0         0         0         0         0         0         0         0         0         0         1         0         0         0         0         1         0         1         0         0         0         0         1         0         0         2         0         0         0         0         0         0         0         0         0         0         0         0         1         0         0         0         0         0         0         0         0         0         0         0         0         0         0         0         0         0         0         1         0     -9999     -9999     -9998     -9999     -9998     -9999     -9999     -9999     -9999     -9999     -9999     -9999     -9999     -9999     -9999     -9999     -9999
     -9999     -9999     -9999         0         0         0         0         0         0         0         0         0         0         0         0         0         0         0         0         2         1         0         0         0         0         0         0         0         0         0         0         0         0         0         0         0         0         0         0         0         0         0         0         1         0         0         0         0         1         0         0         0         0         0         0         0         0         0         0         0         0         0         1         0         0         0         0         0         0         0         1         0         0         0         0         0         0         0         0         0         0         0         0         0         0         1         0         0         0         0         0         0         0         0         0         0         0         0         1         0         1         0         0         0         0         0         0         0         0         0         0         0         0         0         0         0         0         0     -9999     -9999     -9999     -9999     -9999     -9998     -9999     -9999     -9999     -9999     -9999     -9999     -9999     -9999     -9999     -9999     -9999     -9999
     -9999     -9999     -9999         0         0         0         1         0         1         0         0         0         0         0         0         0         0         0         0         0         0         1         0         0         1         0         0         0         0         0         0         0         0         0         0         0         0         0         1         0         0         1         0         0         0         0         0         0         0         0         1         1         0         0         0         0         0         0         0         0         0         0         0         0         0         0         0         0         0         0         0         0         0         0         0         0         0         0         1         0         0         0         0         0         0         0         0         0         0         0         0         0         0         0         0         1         0         0         0         0         0         0         0         0         0         0         0         0         0         0         0         0         0         0         0         0         0         0     -9999     -9998     -9998     -9999     -9998     -9999     -9999     -9998     -9999     -9999     -9999     -9999     -9999     -9999     -9999     -9999     -9999     -9999
     -9999     -9999     -9999         0         0         0         1         0         1         1         0         0         0         0         0         0         0         0         0         0         0         0         0         2         0         0         1         0         0         0         0         0         0         0         0         0         0         0         0         0         0         0         0         2         0         0         0         0         0         1         0         0         0         0         0         0         0         0         0         0         0         0         0         0         0         0         0         0         0         0         0         1         0         0         0         0         0         0         0         0         2         0         0         0         1         0         0         0         0         0         0         0         0         0         0         0         0         0         0         0         0         0         0         0         0         0         0         0         0         0         0         0         0         0         0         0         0         0     -9999     -9999     -9999     -9998     -9999     -9999     -9999     -9999     -9999     -9999     -9999     -9999     -9999     -9999     -9999     -9999     -9999     -9999
     -9999     -9999     -9999     -9999         0         0         0         0         0         0         0         1         1         1         0         0         0         0         0         0         0         0         0         0         0         0         1         1         0         0         0         0         0         0         0         0         0         0         0         1         1         0         0         1         0         0         0         1         1         0         0         0         0         0         0         0         0         0         0         0         0         0         0         0         0         0         0         0         0         0         0         0         1         0         0         0         0         1         0         0         0         0         0         2         0         0         0         0         0         0         0         0         0         0         1         0         0         0         0         0         0         0         0         0         0         0         0         0         0         0         0         0         0         0         0         0         0         0     -9999     -9999     -9999     -9998     -9999     -9999     -9999     -9999     -9999     -9999     -9999     -9999     -9999     -9999     -9999     -9999     -9999     -9999
     -9999     -9999     -9999     -9999         0         0         0         1         1         0         0         0         0         0         0         0         0         0         0         0         0         0         1         0         0         1         0         0         1         0         1         0         0         0         0         0         0         0         0         1         0         0         1         1         0         0         0         0         0         1         0         0         0         0         0         0         0         0         0         0         0         0         0         0         0         0         0         0         0         0         1         0         0         0         1         0         0         0         0         1         0         0         0         0         0         0         0         0         0         0         0         0         0         0         1         0         0         0         0         0         0         0         0         0         0         0         0         0         0         0         0         0         0         0         0         0         0         0         0     -9999     -9999     -9999     -9999     -9999     -9999     -9999     -9999     -9999     -9999     -9999     -9999     -9999     -9999     -9999     -9999     -9999
     -9999     -9999     -9999     -9999     -9999     -9998         0         1         1         0         1         0         1         1         1         0         0         0         0         0         0         1         0         0         0         0         0         1         1         1         0         0         0         0         0         0         0         0         0         1         0         0         0         1         0         0         1         0         0         0         0         1         0         0         0         0         0         0         0         0         0         0         0         0         0         0         0         0         0         0         0         1         0         0         0         0         1         1         0         0         0         0         0         0         0         0         0         0         0         0         0         0         0         1         0         0         0         0         0         0         0         0         0         0         0         0         0         0         0         0         0         0         0         0         0         0         0         0         0     -9999     -9999     -9999     -9999     -9999     -9999     -9999     -9999     -9999     -9999     -9999     -9999     -9999     -9999     -9999     -9999     -9999
     -9999     -9999     -9999     -9999     -9999     -9999         0         0         0         0         1         1         0         0         0         0         1         0         0         0         0         0         0         0         0         0         0         1         0         1         0         0         0         0         0         0         0         0         0         1         0         0         0         1         0         0         0         1         1         0         0         0         0         1         0         0         0         0         0         0         0         0         0         0         0         0         0         0         0         1         0         1         0         0         0         1         1         0         0         1         0         2         0         0         0         0         0         0         0         0         0         1         0         0         0         1         0         0         0         0         0         0         0         0         0         0         0         0         0         0         0         0         0         1         0         0         0         0         0         1     -9999     -9999     -9999     -9999     -9999     -9999     -9999     -9999     -9999     -9999     -9999     -9999     -9999     -9999     -9999     -9999
     -9999     -9999     -9999     -9999     -9999     -9999     -9999         0         0         1         0         1         0         1         0         0         1         0         0         0         1         0         0         1         1         0         2         0         0         0         0         1         0         0         0         1         0         0         0         1         0         0         0         0         0         1         1         2         0         0         0         0         0         0         1         0         0         0         0         0         0         0         0         0         0         1         0         0         1         1         0         0         0         1         0         0         0         0         0         0         0         1         2         0         0         0         0         0         0         0         0         1         0         0         0         0         0         0         1         1         0         0         0         0         0         0         0         0         0         0         0         0         1         0         0         0         0         0         0         0         0     -9999     -9999     -9999     -9999     -9999     -9999     -9999     -9999     -9999     -9999     -9999     -9999     -9999     -9999     -9999
     -9999     -9999     -9999     -9999     -9999     -9999     -9999         0         0         0         0         0         0         1         0         1         0         0         1         0         0         0         0         0         0         0         1         1         0         1         0         1         0         0         0         0         1         0         0         0         1         0         0         0         0         0         0         0         1         0         0         0         0         1         0         0         1         0         0         0         0         0         0         0         0         0         0         1         0         0         0         1         0         0         1         2         0         0         0         0         0         0         0         0         0         0         0         0         0         0         1         0         0         0         0         0         0         1         0         0         0         1         0         0         0         0         0         0         0         0         0         0         1         0         0         0         0         0         1         0         0     -9999     -9999     -9999     -9999     -9999     -9999     -9999     -9999     -9999     -9999     -9999     -9999     -9999     -9999     -9999
     -9999     -9999     -9999     -9999     -9999     -9999     -9999         0         0         0         0         0         1         1         0         0         1         0         0         0         0         0         0         0         0         0         0         2         0         0         0         0         0         2         0         0         0         0         0         0         0         0         0         0         0         0         1         0         0         0         0         2         0         1         0         0         0         0         1         0         0         0         0         0         0         0         0         1         1         0         0         0         0         0         0         0         0         1         0         0         1         1         0         0         0         0         0         0         0         0         0         0         1         0         0         0         0         0         1         0         0         0         0         0         0         0         0         0         0         0         0         0         0         0         0         0         0         0         0         0         0         0         0     -9999     -9999     -9999     -9999     -9999     -9999     -9999     -9999     -9999     -9999     -9999     -9999     -9999
     -9999     -9999     -9999     -9999     -9999     -9999     -9999         0         0         0         0         1         0         0         0         0         0         0         0         0         0         1         0         0         0         0         1         0         1         1         0         0         0         0         0         1         1         0         0         1         0         0         0         0         0         0         0         0         0         1         0         0         1         0         0         0         0         0         0         0         0         0         0         0         0         0         0         0         1         0         1         0         0         1         1         1         0         0         1         0         1         0         0         0         2         0         0         0         0         1         0         0         0         0         1         0         0         0         0         0         0         0         0         1         0         0         0         0         0         0         0         1         0         0         0         0         0         1         0         0         0         0         0     -9999     -9999     -9999     -9999     -9999     -9999     -9999     -9999     -9999     -9999     -9999     -9999     -9999
     -9999     -9999     -9999     -9999     -9999     -9999     -9999         0         0         0         0         0         1         0         0         0         0         0         0         0         0         0         0         1         0         0         0         1         0         0         1         1         0         0         0         0         0         0         1         0         0         0         0         0         0         1         0         0         0         0         0         0         0         0         0         0         0         0         0         0         0         0         0         0         0         0         0         1         0         1         0         0         0         0         0         1         0         1         0         0         0         0         1         1         2         0         0         0         0         0         0         0         0         0         0         1         0         1         0         0         0         1         1         0         0         0         0         0         0         0         0         0         0         1         0         0         1         0         0         0         0         1         0     -9999     -9999     -9999     -9999     -9999     -9999     -9999     -9999     -9999     -9999     -9999     -9999     -9999
     -9999     -9999     -9999     -9999     -9999     -9999     -9999     -9999         0         0         0         0         0         0         0         0         0         0         0         0         0         1         0         1         0         1         0         0         0         0         1         0         0         0         0         0         0         0         0         0         1         0         0         0         0         0         0         1         0         0         0         1         0         0         1         0         0         0         0         0         0         0         0         0         0         0         0         0         0         0         0         0         1         1         0         0         1         0         0         1         0         0         0         0         0         0         0         0         0         0         0         0         0         0         0         0         1         0         0         0         1         0         0         0         0         0         0         0         0         0         0         1         0         0         0         0         0         0         0         0         0         0         0     -9999     -9999     -9999     -9999     -9999     -9999     -9999     -9999     -9999     -9999     -9999     -9999     -9999
     -9999     -9999     -9999     -9999     -9999     -9999     -9999     -9999     -9999         0         0         0         0         0         0         0         0         0         0         0         0         0         1         0         1         0         0         0         1         0         0         0         0         0         0         0         0         0         0         0         0         1         0         0         0         0         0         0         0         1         2         1         0         0         0         0         1         0         0         0         0         0         0         0         0         0         0         0         0         0         0         0         0         0         1         0         0         0         0         0         0         0         0         0         0         1         0         0         0         0         0         1         0         0         0         0         0         0         0         1         0         1         0         0         1         1         0         0         0         0         0         0         0         0         0         1         0         0         0         0         1         0         0     -9999     -9999     -9999     -9999     -9999     -9999     -9999     -9999     -9999     -9999     -9999     -9999     -9999
     -9999     -9999     -9999     -9999     -9999     -9999     -9999     -9999     -9999     -9999     -9999     -9999         0         0         0         0         0         0     -9999         1         0         1         0         1         0         0         0         0         1         1         1         1         0         0         0         0         0         0         1         0         0         0         1         0         0         0         0         0         0         0         0         0         0         0         0         0         0         1         0         0         0         0         0         0         0         0         0         0         0         0         0         0         0         0         0         1         0         0         0         1         0         0         0         0         1         0         1         0         0         0         0         0         0         0         0         0         0         0         0         1         0         0         0         1         0         0         1         0         0         0         0         0         0         0         0         0         0         0         0         0         0         0         0     -9999     -9999     -9999     -9999     -9999     -9999     -9999     -9999     -9999     -9999     -9999     -9999     -9999
     -9999     -9999     -9999     -9999     -9999     -9999     -9999     -9999     -9999     -9999     -9999     -9999     -9999     -9998     -9998     -9999     -9999     -9999     -9998         1         0         0         1         1         0         0         0         0         1         1         1         1         0         0         0         0         0         1         0         0         1         0         0         0         1         0         0         0         0         0         1         1         0         1         1         0         0         0         0         1         0         0         0         0         0         0         0         0         0         1         0         0         0         0         0         0         0         0         0         1         0         1         1         0         0         0         1         0         0         0         0         1         0         0         0         0         0         1         1         0         0         1         0         0         0         0         0         0         1         0         1         0         0         0         1         0         0         0         0         1         0         0         0     -9999     -9998     -9999     -9999     -9999     -9999     -9999     -9999     -9999     -9999     -9999     -9999     -9999
     -9999     -9999     -9999     -9999     -9999     -9999     -9999     -9999     -9999     -9999     -9999     -9999     -9999     -9999     -9999     -9999     -9999     -9999     -9999         0         0         0         0         0         1         0         0         1         0         0         0         0         0         0         0         0         0         0         0         0         0         0         1         0         0         1         1         1         0         0         0         0         1         0         1         0         1         0         0         0         0         1         0         0         0         0         0         0         0         0         1         0         0         0         0         0         0         0         0         0         0         0         0         0         0         0         0         2         0         0         0         0         0         0         0         0         0         0         0         0         0         0         0         0         0         0         0         0         0         0         1         0         0         0         0         0         1         0         0         1         0         1         0     -9998     -9998     -9999     -9998     -9999     -9999     -9999     -9999     -9999     -9999     -9999     -9999     -9999
     -9999     -9999     -9999     -9999     -9999     -9999     -9999     -9999     -9999     -9999     -9999     -9999     -9999     -9999     -9999     -9998     -9998     -9999     -9999         0         1         0         0         0         0         0         0         0         0         0         0         1         1         0         0         0         0         0         1         0         0         0         0         0         1         0         0         2         0         0         2         1         0         1         0         1         0         0         1         0         0         0         0         0         1         0         0         0         0         0         0         0         1         0         0         0         0         0         0         0         0         0         1         0         2         0         2         0         0         0         0         0         1         0         0         0         0         1         0         0         0         0         0         0         1         0         0         0         0         0         0         0         1         0         0         0         0         1         1         0         1         0         1     -9999     -9999     -9999     -9999     -9999     -9999     -9999     -9999     -9999     -9999     -9999     -9999     -9999
     -9999     -9999     -9999     -9999     -9999     -9999     -9999     -9999     -9999     -9999     -9999     -9999     -9999     -9999     -9999     -9999     -9999     -9999     -9998     -9999         0         0         0         0         0         0         0         1         0         1         1         0         0         0         0         0         0         0         0         0         0         1         0         1         0         0         0         0         1         1         0         0         0         0         0         0         0         0         0         0         0         0         0         0         0         0         0         0         0         0         0         0         0         0         1         0         0         0         0         0         0         0         0         0         0         0         0         0         0         0         0         0         0         0         0         0         0         1         0         0         0         0         0         1         0         0         1         0         0         0         0         0         0         0         1         0         0         0         1         0         0         0         0     -9998     -9999     -9999     -9999     -9999     -9999     -9999     -9999     -9999     -9999     -9999     -9999     -9999
     -9999     -9999     -9999     -9999     -9999     -9999     -9999     -9999     -9999     -9999     -9999     -9999     -9999     -9999     -9998     -9999     -9999     -9999     -9999     -9998         1         1         0         1         0         0         0         0         0         2         0         0         0         0         0         0         0         0         0         0         1         0         0         1         0         0         1         0         0         0         0         0         0         1         0         0         0         0         0         0         0         0         0         0         0         0         1         0         0         0         0         0         0         0         0         0         1         0         0         0         1         0         0         0         1         1         0         0         0         0         0         0         0         0         1         0         0         0         0         1         0         0         0         0         0         0         0         0         1         0         0         0         0         0         0         1         0         0         0         1         0         0         0     -9998     -9999     -9999     -9999     -9999     -9999     -9999     -9999     -9999     -9999     -9999     -9999     -9999
     -9999     -9999     -9999     -9999     -9999     -9999     -9999     -9999     -9999     -9999     -9999     -9999     -9999     -9999     -9998     -9998     -9999     -9998     -9999     -9999         0         0         0         1         0         0         0         0         0         1         1         0         0         0         0         0         0         0         0         0         1         0         0         0         0         0         1         1         0         1         0         0         1         1         0         1         0         0         0         0         0         0         0         0         0         0         0         0         1         0         0         0         0         0         0         0         0         0         0         0         0         0         0         0         0         0         0         0         0         0         0         0         0         0         1         1         0         0         0         0         0         0         1         0         1         0         0         0         0         0         0         0         1         0         0         0         0         0         0         1         0         1         1     -9999     -9999     -9999     -9999     -9999     -9999     -9999     -9999     -9999     -9999     -9999     -9999     -9999
     -9999     -9999     -9999     -9999     -9999     -9999     -9999     -9999     -9999     -9999     -9999     -9999     -9999     -9999     -9999     -9999     -9999     -9999     -9999     -9999         0         0         0         0         1         1         1         1         0         0         0         0         0         0         0         0         0         0         0         0         1         0         1         0         0         0         0         0         0         1         0         0         0         0         0         1         0         0         0         0         0         0         0         0         0         0         0         0         0         0         0         0         0         0         0         0         0         0         1         0         0         0         0         0         0         0         0         0         0         0         0         0         0         0         0         1         0         0         0         0         0         1         0         0         0         0         0         0         0         0         0         0         1         0         0         0         0         0         0         0         0         0         0     -9999     -9999     -9999     -9999     -9999     -9999     -9999     -9999     -9999     -9999     -9999     -9999     -9999
     -9999     -9999     -9999     -9999     -9999     -9999     -9999     -9999     -9999     -9999     -9999     -9999     -9999     -9999     -9998     -9999     -9999     -9998     -9999     -9999         0         0         0         0         0         0         0         0         0         1         0         1         0         0         0         0         0         0         0         1         0         0         1         1         0         1         0         0         0         0         1         0         0         0         0         0         0         0         0         0         0         0         0         0         0         0         0         0         0         0         1         1         0         0         0         0         0         0         0         0         1         0         0         0         1         1         0         0         0         0         0         0         0         0         0         2         0         0         0         0         0         0         0         0         0         0         0         0         0         0         0         0         0         0         0         0         0         0         0         0         0         1         0     -9999     -9999     -9999     -9999     -9999     -9999     -9999     -9999     -9999     -9999     -9999     -9999     -9999
     -9999     -9999     -9999     -9999     -9999     -9999     -9999     -9999     -9999     -9999     -9999     -9999     -9999     -9999     -9998     -9999     -9999     -9999     -9999     -9999         0         0         0         0         1         0         0         0         0         0         0         0         0         0         0         0         0         0         0         0         0         1         0         0         1         0         0         1         0         0         0         0         0         0         0         0         0         1         0         0         0         0         0         0         0         0         0         0         0         0         0         0         0         0         0         0         0         0         0         0         0         0         1         0         0         1         0         0         0         0         0         1         0         0         0         1         1         0         0         0         0         0         0         0         0         0         1         0         0         0         0         1         0         0         0         0         0         0         0         0         0         0         0     -9999     -9999     -9999     -9999     -9999     -9999     -9999     -9999     -9999     -9999     -9999     -9999     -9999
     -9999     -9999     -9999     -9999     -9999     -9999     -9999     -9999     -9999     -9999     -9999     -9999     -9999     -9999     -9999     -9999     -9999     -9998     -9999     -9999         0         0         0         0         0         0         0         0         0         0         1         0         1         0         0         1         0         0         0         0         1         0         2         0         0         0         1         0         1         0         0         0         0         0         0         0         0         0         0         1         0         0         0         0         0         0         0         0         0         0         0         0         0         1         0         0         0         0         0         0         0         0         0         1         0         0         0         0         0         1         1         1         0         0         0         0         0         0         1         0         0         0         0         0         0         0         0         1         0         0         1         0         0         1         0         0         0         0         0         0         0         0         0     -9999     -9999     -9999     -9999     -9999     -9999     -9999     -9999     -9999     -9999     -9999     -9999     -9999
     -9999     -9999     -9999     -9999     -9999     -9999     -9999     -9999     -9999     -9999     -9999     -9999     -9999     -9999     -9999     -9998     -9999     -9999     -9999     -9999         0         0         0         0         0         0         0         0         0         0         0         1         0         0         0         0         0         0         0         0         1         0         1         0         0         1         1         1         0         0         0         1         0         0         0         0         0         0         0         0         0         0         0         0         0         0         0         0         0         0         0         0         0         0         0         1         0         0         0         0         0         0         0         0         0         0         0         1         1         0         0         1         0         1         0         0         0         1         1         1         0         0         0         0         1         0         0         1         0         1         0         0         0         0         0         0         0         0         0         0         0         0         0     -9999     -9999     -9999     -9999     -9999     -9999     -9999     -9999     -9999     -9999     -9999     -9999     -9999
     -9999     -9999     -9999     -9999     -9999     -9999     -9999     -9999     -9999     -9999     -9999     -9999     -9999     -9999     -9999     -9998     -9999     -9999     -9998     -9999         0         0         0         0         0         1         0         0         0         0         0         0         0         1         0         0         1         0         0         0         0         0         0         0         1         0         0         0         1         1         0         0         0         0         0         0         0         0         0         1         0         0         0         0         0         0         0         0         0         0         0         0         0         0         0         0         0         0         1         0         0         0         0         0         0         0         0         0         0         1         0         0         1         0         2         0         0         1         2         0         0         1         0         0         0         0         0         0         0         0         0         1         1         0         0         0         0         0         1         1         0         0         0     -9999     -9999     -9999     -9999     -9999     -9999     -9999     -9999     -9999     -9999     -9999     -9999     -9999
     -9999     -9999     -9999     -9999     -9999     -9999     -9999     -9999     -9999     -9999     -9999     -9999     -9999     -9999     -9999     -9999     -9999     -9999     -9999     -9999         0         0         0         0         0         0         0         0         0         2         0         0         0         0         0         1         0         1         2         0         0         0         0         0         0         1         0         0         2         0         1         0         0         1         0         0         1         0         0         0         0         0         0         0         0         0         0         0         0         0         0         0         0         0         0         0         0         0         0         0         1         0         1         0         0         0         0         0         1         0         1         1         0         1         1         0         1         1         1         0         0         0         0         1         0         0         0         0         1         0         0         0         1         0         0         0         0         0         0         1         0         0         0     -9999     -9999     -9999     -9999     -9999     -9999     -9999     -9999     -9999     -9999     -9999     -9999     -9999
     -9999     -9999     -9999     -9999     -9999     -9999     -9999     -9999     -9999     -9999     -9999     -9999     -9999     -9999     -9999     -9998     -9999     -9999     -9999     -9999         0         0         0         0         0         0         1         0         0         0         0         0         0         0         0         0         0         0         1         0         0         0         1         0         1         0         1         0         0         1         1         0         0         0         0         1         1         1         0         0         0         0         0         0         0         0         0         0         0         0         0         0         0         0         0         0         0         0         0         0         0         1         0         0         1         0         0         1         0         0         0         0         0         0         0         0         1         0         0         0         0         0         0         0         0         1         0         0         0         0         1         0         0         0         1         0         0         1         0         0         0         0         0     -9999     -9999     -9999     -9999     -9999     -9999     -9999     -9999     -9999     -9999     -9999     -9999     -9999
     -9999     -9999     -9999     -9999     -9999     -9999     -9999     -9999     -9999     -9999     -9999     -9999     -9999     -9998     -9999     -9999     -9999     -9999     -9998     -9999         0         1         0         1         1         0         0         2         0         0         0         0         0         0         0         0         1         0         1         0         0         1         0         0         0         0         0         1         0         0         0         0         0         0         0         0         0         0         0         0         0         0         0         0         0         0         0         0         0         0         0         0         0         0         0         0         0         0         0         0         0         0         1         1         0         0         0         0         0         0         0         0         0         0         0         0         0         1         1         0         0         0         1         0         0         0         0         1         0         0         0         0         0         1         0         0         1         0         0         0         0         0         0     -9999     -9999     -9999     -9999     -9999     -9999     -9999     -9999     -9999     -9999     -9999     -9999     -9999
     -9999     -9999     -9999     -9999     -9999     -9999     -9999     -9999     -9999     -9999     -9999     -9999     -9999     -9999     -9999     -9999     -9999     -9999     -9999     -9998         0         0         0         0         0         0         1         0         0         0         1         0         0         0         0         0         0         1         0         0         1         0         0         0         0         0         0         0         1         1         0         1         0         1         0         1         0         1         0         0         1         0         0         0         0         0         0         0         0         0         0         0         0         0         0         0         0         0         0         0         0         0         0         0         1         0         2         0         0         0         0         0         0         1         0         0         0         0         0         1         0         0         0         0         0         0         0         0         0         1         0         0         0         0         0         0         0         0         0         0         0         0         0     -9999     -9999     -9999     -9999     -9999     -9999     -9999     -9999     -9999     -9999     -9999     -9999     -9999
     -9999     -9999     -9999     -9999     -9999     -9999     -9999     -9999     -9999     -9999     -9999     -9999     -9999     -9999     -9999     -9999     -9998     -9999     -9999     -9999         0         0         0         0         0         0         0         0         1         0         2         1         0         0         0         1         0         0         0         0         0         1         0         1         0         0         0         0         1         0         0         0         1         0         1         0         0         2         1         0         1         1         0         0         0         0         0         0         0         0         0         0         0         0         0         0         0         0         0         0         0         0         0         0         0         1         0         0         0         0         0         0         1         0         0         0         0         0         0         0         0         1         0         0         0         0         2         0         0         0         0         0         1         0         0         0         0         0         0         1         0         0         0         0     -9999     -9999     -9999     -9999     -9999     -9999     -9999     -9999     -9999     -9999     -9999     -9999
     -9999     -9999     -9999     -9999     -9999     -9999     -9999     -9999     -9999     -9999     -9999     -9999     -9999     -9999     -9999     -9999     -9999     -9999     -9999     -9999         0         0         0         0         0         0         1         0         0         1         0         0         0         0         0         0         1         0         0         1         0         0         1         0         1         0         1         0         0         3         0         0         0         1         0         0         1         1         0         0         1         1         0         0         0         0         0         0         0         0         0         0         0         0         0         0         0         0         0         0         0         0         0         0         0         0         0         0         0         0         0         0         0         1         0         1         0         0         1         0         0         1         0         0         0         0         0         0         0         0         0         0         0         0         0         0         0         0         0         0         0         1         0         0         0     -9999     -9999     -9999     -9999     -9999     -9999     -9999     -9999     -9999     -9999     -9999
     -9999     -9999     -9999     -9999     -9999     -9999     -9999     -9999     -9999     -9999     -9999     -9999     -9999     -9999     -9999     -9999     -9999     -9999     -9999     -9999         0         0         0         0         0         0         0         1         0         0         0         0         0         0         0         0         0         0         0         0         0         0         0         1         0         1         0         0         0         0         2         1         0         0         0         1         1         0         0         0         0         1         1         0         1         0         0         0         0         0         0         0         0         0         0         0         0         0         0         0         0         0         0         0         0         0         0         0         0         0         0         0         1         0         0         0         0         1         0         0         0         0         0         0         0         1         0         0         0         0         1         0         0         0         0         0         0         0         0         0         0         0         0         1         0     -9999     -9999     -9999     -9999     -9999     -9999     -9999     -9999     -9999     -9999     -9999
     -9999     -9999     -9999     -9999     -9999     -9999     -9999     -9999     -9999     -9999     -9999     -9999     -9999     -9999     -9999     -9999     -9999     -9999     -9999     -9999         0         0         0         0         0         0         0         0         1         1         1         0         0         0         0         0         0         0         0         0         0         1         0         0         1         0         0         1         0         0         0         1         0         0         1         0         1         0         0         0         0         0         0         1         0         1         0         0         0         0         0         0         0         0         0         0         0         0         0         0         0         0         0         0         0         1         0         0         0         0         0         1         0         0         0         0         0         0         0         0         0         0         0         0         0         0         0         0         0         0         0         0         0         0         0         0         0         0         0         0         0         0         0         0         1     -9999     -9999     -9999     -9999     -9999     -9999     -9999     -9999     -9999     -9999     -9999
     -9999     -9999     -9999     -9999     -9999     -9999     -9999     -9999     -9999     -9999     -9999     -9999     -9999     -9999     -9999     -9999     -9999     -9999     -9999         0         0         0         0         0         0         0         0         0         0         0         0         1         1         0         1         0         0         0         0         0         1         2         0         0         0         1         1         0         1         0         1         0         0         1         0         0         1         0         1         0         0         2         0         0         1         0         0         0         0         0         0         0         0         0         0         0         0         0         0         0         0         0         1         1         0         0         0         0         0         0         0         1         1         0         0         0         1         0         0         1         0         0         0         0         1         0         0         0         0         1         0         0         0         0         0         0         0         0         0         0         0         0         0         0         0         0     -9999     -9999     -9999     -9999     -9999     -9999     -9999     -9999     -9999     -9999
     -9999     -9999     -9999     -9999     -9999     -9999     -9999     -9999     -9999     -9999     -9999     -9999     -9999     -9999     -9999     -9999     -9999     -9999     -9999         0         0         0         0         0         0         0         1         0         0         0         1         2         0         1         0         0         1         0         0         1         0         0         0         0         1         0         0         2         0         0         0         0         0         0         0         0         0         0         0         0         0         1         0         0         0         1         0         0         0         1         0         0         0         0         0         0         0         0         0         0         0         1         1         0         0         0         0         0         0         0         0         0         1         1         0         0         0         0         0         0         0         1         0         0         0         0         0         0         1         0         0         0         0         0         0         0         0         0         0         0         0         0         0         0         0         0     -9999     -9999     -9999     -9999     -9999     -9999     -9999     -9999     -9999     -9999
     -9999     -9999     -9999     -9999     -9999     -9999     -9999     -9999     -9999     -9999     -9999     -9999     -9999     -9999     -9999     -9999     -9999     -9999     -9999         0         0         0         0         0         0         0         0         1         0         0         1         0         0         0         0         0         0         0         1         0         0         1         0         0         0         0         1         0         1         1         2         1         0         0         0         0         0         0         0         1         1         0         0         0         1         0         0         1         1         0         1         0         0         0         0         0         0         0         0         0         1         0         0         0         0         2         0         0         0         0         0         0         0         0         2         0         0         0         0         0         0         0         0         1         0         0         0         0         1         0         0         0         1         0         0         0         0         0         0         0         0         0         0         0         0         0     -9999     -9999     -9999     -9999     -9999     -9999     -9999     -9999     -9999     -9999
     -9999     -9999     -9999     -9999     -9999     -9999     -9999     -9999     -9999     -9999     -9999     -9999     -9999     -9999     -9999     -9999     -9999     -9999     -9999         0         0         0         0         0         1         0         0         0         1         2         0         1         1         0         0         0         0         0         0         0         1         0         0         1         0         1         0         0         0         0         0         0         0         0         0         0         0         0         0         1         0         0         1         0         0         0         1         0         0         1         0         0         0         0         0         0         0         0         2         0         0         0         1         0         1         1         0         0         0         0         2         0         0         0         0         0         2         1         0         0         0         0         0         0         0         1         0         0         0         0         1         0         1         0         1         0         0         0         0         0         0         0         0         0         0         0     -9999     -9999     -9999     -9999     -9999     -9999     -9999     -9999     -9999     -9999
     -9999     -9999     -9999     -9999     -9999     -9999     -9999     -9999     -9999     -9999     -9999     -9999     -9999     -9999     -9999     -9999     -9999     -9999     -9999         0         0         0         1         0         1         0         0         0         0         1         0         0         0         1         1         0         0         0         1         1         0         0         0         0         2         0         1         1         0         1         0         0         0         0         0         1         0         0         1         0         0         0         0         1         1         2         1         0         1         1         1         0         0         0         0         0         0         0         0         0         0         0         0         0         2         0         0         0         0         0         1         0         0         0         1         0         0         1         0         1         0         0         1         0         0         0         0         1         0         0         0         1         0         1         0         0         0         0         0         0         0         0         0         0         0     -9999     -9999     -9999     -9999     -9999     -9999     -9999     -9999     -9999     -9999     -9999
     -9999     -9999     -9999     -9999     -9999     -9999     -9999     -9999     -9999     -9999     -9999     -9999     -9999     -9999     -9999     -9999     -9999     -9999         0         0         0         0         0         0         0         1         0         0         0         0         1         0         0         1         0         1         0         1         0         1         0         1         1         0         1         0         1         0         1         0         1         0         0         1         0         1         0         1         0         0         1         0         2         2         1         0         0         0         0         1         0         0         0         0         0         0         0         1         0         0         1         0         0         1         0         0         0         0         0         0         0         0         0         1         1         0         0         0         0         0         0         1         0         0         0         0         0         0         0         0         0         0         1         0         0         0         0         0         0         0         0         0         0         0         0     -9999     -9999     -9999     -9999     -9999     -9999     -9999     -9999     -9999     -9999     -9999
     -9999     -9999     -9999     -9999     -9999     -9999     -9999     -9999     -9999     -9999     -9999     -9999     -9999     -9999     -9999     -9999     -9999     -9999         0         0         0         0         0         0         0         0         0         2         0         0         1         1         0         0         0         0         1         0         0         1         0         0         0         0         1         0         2         0         1         0         1         1         0         0         0         0         0         0         0         0         0         0         1         0         0         0         0         1         1         0         1         0         1         0         1         0         1         0         0         0         0         2         1         0         1         0         1         0         0         0         2         0         1         1         0         0         0         0         0         0         0         1         0         0         0         0         0         0         0         0         0         0         0         0         0         1         0         0         0         0         0         0         0         0         0     -9999     -9999     -9999     -9999     -9999     -9999     -9999     -9999     -9999     -9999     -9999
     -9999     -9999     -9999     -9999     -9999     -9999     -9999     -9999     -9999     -9999     -9999     -9999     -9999     -9999     -9999     -9999     -9999     -9999         0         0         0         0         0         1         1         1         0         1         1         0         2         0         0         1         0         0         0         1         1         0         0         0         1         0         0         1         0         2         0         1         1         0         2         1         0         0         0         0         0         1         0         0         2         0         1         1         0         1         0         1         0         1         2         1         1         0         0         0         0         1         1         0         0         0         1         0         0         1         0         1         1         1         0         0         0         0         0         0         0         0         0         0         0         0         0         0         0         0         0         0         0         0         0         0         0         0         0         0         0         0         0         0         0         0     -9999     -9999     -9999     -9999     -9999     -9999     -9999     -9999     -9999     -9999     -9999     -9999
     -9999     -9999     -9999     -9999     -9999     -9999     -9999     -9999     -9999     -9999     -9999     -9999     -9999     -9999     -9999     -9999     -9999     -9999         0         0         0         1         0         0         1         0         0         0         0         2         0         1         0         0         0         0         0         1         0         0         0         0         0         1         1         0         0         0         0         0         2         0         1         1         0         0         0         0         0         1         1         0         0         0         0         0         1         0         0         0         2         0         0         0         0         1         0         0         1         0         0         0         0         0         0         0         0         0         0         2         1         0         0         0         0         0         0         0         0         0         1         0         0         0         0         0         0         0         0         0         0         0         0         0         1         0         0         0         0         0         0         0         0         0     -9999     -9999     -9999     -9999     -9999     -9999     -9999     -9999     -9999     -9999     -9999     -9999
     -9999     -9999     -9999     -9999     -9999     -9999     -9999     -9999     -9999     -9999     -9999     -9999     -9999     -9999     -9999     -9999     -9999     -9999     -9999         0         0         0         1         0         0         0         0         0         0         1         0         0         0         0         0         0         0         0         0         0         1         0         0         0         0         0         0         0         0         2         0         1         0         0         0         0         0         0         0         0         0         1         0         0         0         1         0         1         0         1         0         1         1         1         2         0         1         0         0         0         0         0         0         0         0         0         1         0         1         1         0         0         1         0         0         0         0         0         0         0         0         0         0         0         0         0         0         0         0         0         0         1         0         0         0         0         0         0         0         0         0         0         0         0     -9999     -9999     -9999     -9999     -9999     -9999     -9999     -9999     -9999     -9999     -9999     -9999
     -9999     -9999     -9999     -9999     -9999     -9999     -9999     -9999     -9999     -9999     -9999     -9999     -9999     -9999     -9999     -9999     -9999     -9999     -9999     -9999         0         0         0         0         0         0         1         2         0         1         1         0         0         0         0         0         1         0         0         1         0         0         1         0         0         0         0         1         0         0         1         1         0         0         0         0         0         0         1         0         1         0         1         0         0         1         2         0         1         0         1         0         1         1         0         1         0         0         0         0         0         0         0         0         0         0         0         1         1         1         4         1         0         0         0         0         0         0         0         0         1         0         0         0         0         0         0         0         0         0         0         0         0         1         0         0         0         0         0         0         0         0         0     -9999     -9999     -9999     -9999     -9999     -9999     -9999     -9999     -9999     -9999     -9999     -9999     -9999
     -9999     -9999     -9999     -9999     -9999     -9999     -9999     -9999     -9999     -9999     -9999     -9999     -9999     -9999     -9999     -9999     -9999     -9999     -9999     -9999     -9999         0         0         0         0         0         0         0         1         0         0         0         0         0         0         2         1         0         1         0         1         0         0         0         0         0         1         1         0         1         0         1         0         0         0         0         0         0         0         0         0         1         0         2         0         0         1         0         0         1         0         1         0         0         0         0         1         0         1         0         0         0         0         0         0         0         0         1         0         2         0         0         0         0         0         0         0         0         0         0         0         0         0         0         0         0         0         0         0         0         1         0         1         0         0         0         0         0         0         0         0         0         0     -9999     -9999     -9999     -9999     -9999     -9999     -9999     -9999     -9999     -9999     -9999     -9999     -9999
     -9999     -9999     -9999     -9999     -9999     -9999     -9999     -9999     -9999     -9999     -9999     -9999     -9999     -9999     -9999     -9999     -9999     -9999     -9999     -9999     -9999     -9999         0         0         1         0         1         0         0         0         0         1         0         1         0         0         1         0         1         1         1         0         0         0         1         0         0         1         0         0         0         0         1         1         0         1         0         0         0         1         0         0         0         1         1         0         0         1         0         1         1         1         0         0         0         0         1         0         0         0         0         0         0         0         0         0         1         0         0         1         0         0         0         0         0         0         0         0         0         1         0         0         0         0         0         0         0         0         0         0         0         0         1         0         1         0         1         0         0         0         0     -9999     -9999     -9999     -9999     -9999     -9999     -9999     -9999     -9999     -9999     -9999     -9999     -9999     -9999     -9999
     -9999     -9999     -9999     -9999     -9999     -9999     -9999     -9999     -9999     -9999     -9999     -9999     -9999     -9999     -9999     -9999     -9999     -9999     -9999     -9999     -9999     -9999     -9999     -9999         0         1         0         1         1         0         0         0         1         0         0         0         0         0         0         0         0         0         1         0         0         0         0         0         0         0         0         1         0         0         0         1         1         1         0         0         1         0         0         0         0         0         0         1         1         0         0         1         0         0         0         0         1         0         2         0         0         0         0         0         1         1         0         0         0         2         0         0         0         0         0         0         0         0         0         0         0         0         0         0         0         0         1         0         0         0         1         0         0         0         0         1         0         0         0     -9999     -9999     -9999     -9999     -9999     -9999     -9999     -9999     -9999     -9999     -9999     -9999     -9999     -9999     -9999     -9999     -9999
     -9999     -9999     -9999     -9999     -9999     -9999     -9999     -9999     -9999     -9999     -9999     -9999     -9999     -9999     -9999     -9999     -9999     -9999     -9999     -9999     -9999     -9999     -9999     -9999     -9999     -9999     -9999     -9998     -9999         0         0         1         0         1         2         0         1         0         0         0         0         1         0         1         0         0         0         0         0         1         0         0         0         1         0         0         0         1         0         0         0         0         1         0         1         0         0         0         1         0         1         0         0         1         0         0         0         0         1         0         0         1         0         0         1         0         0         0         0         1         0         1         0         0         0         0         0         0         0         1         0         0         0         0         0         0         0         1         0         0         0         0         0         0     -9999     -9998     -9999     -9999     -9999     -9999     -9999     -9999     -9999     -9999     -9999     -9999     -9999     -9999     -9999     -9999     -9999     -9999     -9999     -9999     -9999     -9999
     -9999     -9999     -9999     -9999     -9999     -9999     -9999     -9999     -9999     -9999     -9999     -9999     -9999     -9999     -9999     -9999     -9999     -9999     -9999     -9999     -9999     -9999     -9999     -9999     -9999     -9999     -9999     -9999     -9998         0         0         0         1         0         1         0         0         0         0         1         1         0         0         0         0         0         0         0         0         0         0         0         0         0         0         1         0         2         1         0         0         0         0         1         0         0         1         0         0         2         1         1         1         0         1         0         0         0         0         1         1         0         2         0         0         0         0         0         0         0         0         0         0         0         0         0         0         0         0         0         0         0         0         0         1         0         1         0         1         0         1         0         0         0     -9999     -9999     -9999     -9999     -9999     -9999     -9999     -9999     -9999     -9999     -9999     -9999     -9999     -9999     -9999     -9999     -9999     -9999     -9999     -9999     -9999     -9999
     -9999     -9999     -9999     -9999     -9999     -9999     -9999     -9999     -9999     -9999     -9999     -9999     -9999     -9999     -9999     -9999     -9999     -9999     -9999     -9999     -9999     -9999     -9999     -9999     -9999     -9999     -9999     -9998     -9998         1         1         0         2         0         0         0         0         0         0         0         1         1         0         0         1         0         0         0         0         0         0         1         0         0         0         1         2         0         0         1         0         0         0         0         1         0         1         0         1         0         0         1         0         0         0         0         0         0         0         0         1         1         0         0         0         0         0         0         2         0         1         0         0         0         0         0         0         0         1         0         0         0         1         0         0         1         0         0         0         0         0         1         0         0     -9999     -9999     -9999     -9999     -9999     -9999     -9999     -9999     -9999     -9999     -9999     -9999     -9999     -9999     -9999     -9999     -9999     -9999     -9999     -9999     -9999     -9999
     -9999     -9999     -9999     -9999     -9999     -9999     -9999     -9999     -9999     -9999     -9999     -9999     -9999     -9999     -9999     -9999     -9999     -9999     -9999     -9999     -9999     -9999     -9999     -9999     -9999     -9999     -9998     -9998     -9998         1         0         1         0         1         0         0         0         1         0         1         0         0         0         0         0         0         0         0         0         1         0         0         1         1         1         0         0         0         1         0         0         0         1         0         1         0         0         1         0         0         1         0         0         0         0         1         0         0         0         0         1         0         0         0         0         0         0         0         1         1         1         0         0         0         0         0         0         0         0         0         0         0         0         1         0         0         0         0         0         1         0         0         1         0     -9999     -9999     -9999     -9999     -9999     -9999     -9999     -9999     -9999     -9999     -9999     -9999     -9999     -9999     -9999     -9999     -9999     -9999     -9999     -9999     -9999     -9999
     -9999     -9999     -9999     -9999     -9999     -9999     -9999     -9999     -9999     -9999     -9999     -9999     -9999     -9999     -9999     -9999     -9999     -9999     -9999     -9999     -9999     -9999     -9999     -9999     -9999     -9999     -9999     -9999     -9999         0         1         0         0         0         1         0         0         0         1         0         0         0         1         0         0         0         1         0         0         0         1         0         0         0         0         0         0         0         1         0         0         0         0         0         0         1         0         0         0         1         0         0         1         0         0         0         0         1         0         0         0         1         0         0         0         0         0         0         0         1         1         0         0         0         0         0         0         1         0         0         0         1         1         0         0         0         0         0         0         0         0         0         0         0     -9999     -9999     -9999     -9999     -9999     -9999     -9999     -9999     -9999     -9999     -9999     -9999     -9999     -9999     -9999     -9999     -9999     -9999     -9999     -9999     -9999     -9999
     -9999     -9999     -9999     -9999     -9999     -9999     -9999     -9999     -9999     -9999     -9999     -9999     -9999     -9999     -9999     -9999     -9999     -9999     -9999     -9999     -9999     -9999     -9999     -9999     -9999     -9999     -9999     -9999     -9999     -9999         0         1         0         0         0         0         0         1         0         0         0         0         0         1         0         0         0         1         0         0         0         0         0         0         1         1         0         0         0         0         1         0         1         0         0         0         0         0         0         1         1         0         0         0         0         0         0         0         1         0         1         0         0         0         0         0         0         1         0         0         1         0         0         0         0         0         0         0         0         0         0         1         1         1         0         0         0         1         0         0         1         0         0         0     -9999     -9999     -9999     -9999     -9999     -9999     -9999     -9999     -9999     -9999     -9999     -9999     -9999     -9999     -9999     -9999     -9999     -9999     -9999     -9999     -9999     -9999
     -9999     -9999     -9999     -9999     -9999     -9999     -9999     -9999     -9999     -9999     -9999     -9999     -9999     -9999     -9999     -9999     -9999     -9999     -9999     -9999     -9999     -9999     -9999     -9999     -9999     -9999     -9999     -9999     -9998     -9998         0         0         0         0         0         1         1         0         0         0         0         0         0         0         0         1         0         0         0         0         1         0         0         0         0         1         0         0         0         1         1         1         0         1         0         1         1         0         0         0         0         1         0         0         0         0         0         1         0         1         0         0         1         0         0         0         1         0         0         0         0         1         1         0         0         1         0         0         0         1         0         0         1         0         0         0         0         0         1         0         1         0         0         0     -9999     -9999     -9999     -9999     -9999     -9999     -9999     -9999     -9999     -9999     -9999     -9999     -9999     -9999     -9999     -9999     -9999     -9999     -9999     -9999     -9999     -9999
     -9999     -9999     -9999     -9999     -9999     -9999     -9999     -9999     -9999     -9999     -9999     -9999     -9999     -9999     -9999     -9999     -9999     -9999     -9999     -9999     -9999     -9999     -9999     -9999     -9999     -9999     -9999     -9999     -9999     -9998         0         0         0         0         0         0         0         0         0         0         1         0         0         1         0         1         0         0         0         1         0         0         0         0         0         1         0         0         1         0         1         0         0         0         1         0         1         0         0         1         1         0         0         0         0         0         1         0         0         0         0         1         1         0         0         1         0         0         0         0         0         1         0         1         0         0         0         1         0         0         0         0         1         0         0         1         0         0         0         0         0         0         0         0     -9999     -9999     -9999     -9999     -9999     -9999     -9999     -9999     -9999     -9999     -9999     -9999     -9999     -9999     -9999     -9999     -9999     -9999     -9999     -9999     -9999     -9999
     -9999     -9999     -9999     -9999     -9999     -9999     -9999     -9999     -9999     -9999     -9999     -9999     -9999     -9999     -9999     -9999     -9999     -9999     -9999     -9999     -9998     -9999     -9999     -9999     -9998     -9998     -9999     -9998     -9998     -9999         1         0         0         1         0         0         1         0         1         0         1         0         0         0         1         0         0         1         0         0         0         1         1         0         1         0         0         1         0         0         0         1         1         0         0         1         0         1         0         0         0         0         0         1         0         0         0         0         0         0         1         0         0         0         1         0         0         0         0         0         0         0         0         1         1         1         0         0         0         1         0         1         0         0         0         0         0         1         0         0         0         0         0         0     -9999     -9999     -9999     -9999     -9999     -9999     -9999     -9999     -9999     -9999     -9999     -9999     -9999     -9999     -9999     -9999     -9999     -9999     -9999     -9999     -9999     -9999
     -9999     -9999     -9999     -9999     -9999     -9999     -9999     -9999     -9999     -9999     -9999     -9999     -9999     -9999     -9999     -9999     -9999     -9999     -9999     -9999     -9999     -9999     -9999     -9998     -9998     -9999     -9999     -9999     -9999     -9999         0         0         1         1         1         0         0         0         0         0         0         1         0         0         0         0         0         0         0         0         0         0         1         1         0         1         1         0         0         0         1         0         0         0         2         0         0         0         1         0         0         0         1         0         1         0         0         0         0         0         0         1         3         1         0         1         0         0         0         0         0         0         0         1         0         0         0         1         0         0         0         0         0         0         0         0         1         0         0         0         0         0         0         0     -9999     -9999     -9999     -9999     -9999     -9999     -9999     -9999     -9999     -9999     -9999     -9999     -9999     -9999     -9999     -9999     -9999     -9999     -9999     -9999     -9999     -9999
     -9999     -9999     -9999     -9999     -9999     -9999     -9999     -9999     -9999     -9999     -9999     -9999     -9999     -9999     -9999     -9999     -9999     -9999     -9999     -9999     -9999     -9999     -9998     -9999     -9999     -9998     -9999     -9998     -9999     -9998         0         0         1         0         0         1         0         0         0         0         0         0         2         1         0         0         1         0         0         1         0         0         0         0         1         1         0         0         0         0         0         0         0         0         1         1         0         0         0         1         0         0         0         1         0         1         0         0         0         1         0         0         1         1         0         0         1         0         0         0         0         0         0         0         0         0         0         0         0         0         0         0         0         0         0         0         0         0         0         0         0         0         0         0     -9999     -9999     -9999     -9999     -9999     -9999     -9999     -9999     -9999     -9999     -9999     -9999     -9999     -9999     -9999     -9999     -9999     -9999     -9999     -9999     -9999     -9999
     -9999     -9999     -9999     -9999     -9999     -9999     -9999     -9999     -9999     -9999     -9999     -9999     -9999     -9999     -9999     -9999     -9999     -9999     -9999     -9999     -9998     -9999     -9999     -9999     -9997     -9998     -9998     -9998     -9997     -9999         1         1         0         0         0         0         1         0         0         0         1         0         0         2         0         0         0         0         0         0         0         0         0         1         0         1         0         0         1         0         0         0         0         1         0         1         0         0         0         0         1         0         1         0         0         0         0         1         0         1         0         1         1         0         0         0         0         0         1         0         0         2         0         0         0         0         0         0         0         0         0         0         0         0         0         0         0         0         0         0         0         0         0         0     -9999     -9999     -9999     -9999     -9999     -9999     -9999     -9999     -9999     -9999     -9999     -9999     -9999     -9999     -9999     -9999     -9999     -9999     -9999     -9999     -9999     -9999
     -9999     -9999     -9999     -9999     -9999     -9999     -9999     -9999     -9999     -9999     -9999     -9999     -9999     -9999     -9999     -9999     -9999     -9999     -9999     -9999     -9999     -9999     -9998     -9999     -9999     -9998     -9998     -9999     -9999     -9998         0         1         0         0         0         0         0         1         1         0         0         0         0         0         1         0         0         1         0         0         0         0         0         0         0         1         1         0         0         0         0         0         1         0         1         0         1         0         0         1         0         1         0         0         0         0         0         0         0         1         0         0         0         0         1         1         0         0         0         1         1         1         0         0         0         0         0         0         0         0         0         0         0         0         0         0         0         0         0         0         0         0         0         0     -9999     -9999     -9999     -9999     -9999     -9999     -9999     -9999     -9999     -9999     -9999     -9999     -9999     -9999     -9999     -9999     -9999     -9999     -9999     -9999     -9999     -9999
     -9999     -9999     -9999     -9999     -9999     -9999     -9999     -9999     -9999     -9999     -9999     -9999     -9999     -9999     -9999     -9999     -9999     -9999     -9999     -9999     -9999     -9999     -9999     -9998     -9999     -9999     -9999     -9999     -9998     -9999     -9999         0         0         0         1         0         0         0         1         0         0         0         0         0         1         1         0         0         0         0         0         0         0         0         0         1         1         0         0         0         1         0         0         0         1         1         0         1         0         0         1         0         1         0         0         0         0         0         0         2         0         0         0         1         0         0         0         1         0         0         1         0         1         0         0         0         0         0         0         0         0         0         0         0         0         0         0         0         0         0         0         0     -9999     -9999     -9999     -9999     -9999     -9999     -9999     -9999     -9999     -9999     -9999     -9999     -9999     -9999     -9999     -9999     -9999     -9999     -9999     -9999     -9999     -9999     -9999     -9999
     -9999     -9999     -9999     -9999     -9999     -9999     -9999     -9999     -9999     -9999     -9999     -9999     -9999     -9999     -9999     -9999     -9999     -9999     -9999     -9999     -9999     -9998     -9999     -9999     -9999     -9999     -9999     -9999     -9999     -9998     -9999         0         0         0         0         0         1         1         0         0         0         0         0         1         0         1         0         0         0         0         0         0         0         0         0         0         0         1         0         1         1         0         0         1         0         0         1         1         0         0         0         1         1         0         0         0         0         1         0         0         0         0         0         0         1         0         2         0         1         1         0         0         0         0         0         0         0         0         0         0         0         0         0         0         0         0         0         0         0         0         0         0     -9999     -9999     -9999     -9999     -9999     -9999     -9999     -9999     -9999     -9999     -9999     -9999     -9999     -9999     -9999     -9999     -9999     -9999     -9999     -9999     -9999     -9999     -9999     -9999
     -9999     -9999     -9999     -9999     -9999     -9999     -9999     -9999     -9999     -9999     -9999     -9999     -9999     -9999     -9999     -9999     -9999     -9999     -9999     -9999     -9999     -9997     -9999     -9999     -9999     -9999     -9999     -9999     -9999     -9999     -9999     -9999     -9998         0         0         0         0         1         0         0         0         0         2         1         0         0         0         0         0         0         0         0         0         1         1         1         0         0         0         0         1         0         0         0         1         0         1         1         0         0         1         0         1         0         0         0         0         0         0         0         0         0         0         0         0         2         0         2         0         0         1         0         0         0         0         0         0         0         0         0         0         0         0         0         0         0         0         0         0         0         0         0     -9999     -9999     -9999     -9999     -9999     -9999     -9999     -9999     -9999     -9999     -9999     -9999     -9999     -9999     -9999     -9999     -9999     -9999     -9999     -9999     -9999     -9999     -9999     -9999
     -9999     -9999     -9999     -9999     -9999     -9999     -9999     -9999     -9999     -9999     -9999     -9999     -9999     -9999     -9999     -9999     -9999     -9999     -9999     -9999     -9999     -9999     -9999     -9999     -9999     -9999     -9999     -9999     -9998     -9999     -9999     -9998     -9999         0         1         1         1         0         0         0         0         1         0         1         0         1         0         0         0         0         0         0         1         0         1         0         1         1         1         1         0         0         0         1         0         0         0         0         1         1         0         1         0         1         1         0         2         1         0         0         0         0         0         1         1         0         0         1         0         0         0         1         0         0         0         0         0         0         0         0         0         0         0         0         0         0         0         0         0         0         0         0         0         0     -9999     -9999     -9999     -9999     -9999     -9999     -9999     -9999     -9999     -9999     -9999     -9999     -9999     -9999     -9999     -9999     -9999     -9999     -9999     -9999     -9999     -9999
     -9999     -9999     -9999     -9999     -9999     -9999     -9999     -9999     -9999     -9999     -9999     -9999     -9999     -9999     -9999     -9999     -9999     -9999     -9999     -9999     -9999     -9999     -9999     -9999     -9999     -9999     -9999     -9999     -9999     -9999     -9998     -9999     -9998         0         1         1         0         0         0         1         0         1         1         0         0         0         0         0         0         0         1         0         0         1         0         2         0         1         0         0         0         0         0         0         0         0         1         0         2         1         0         1         0         2         1         0         1         0         0         0         0         1         0         0         0         0         1         0         0         0         0         0         0         0         0         0         0         0         0         0         0         0         0         0         0         0         0         0         0         0         0         0         0         0     -9999     -9999     -9999     -9999     -9999     -9999     -9999     -9999     -9999     -9999     -9999     -9999     -9999     -9999     -9999     -9999     -9999     -9999     -9999     -9999     -9999     -9999
     -9999     -9999     -9999     -9999     -9999     -9999     -9999     -9999     -9999     -9999     -9999     -9999     -9999     -9999     -9999     -9999     -9999     -9999     -9999     -9999     -9999     -9999     -9999     -9999     -9999     -9999     -9999     -9999     -9999     -9999     -9999     -9999     -9999     -9998         0         0         0         0         1         0         0         0         0         1         0         2         0         0         0         0         0         1         0         0         2         0         1         0         1         0         0         1         0         0         1         1         0         1         0         1         2         0         0         0         0         0         1         0         0         0         1         0         1         0         0         1         0         0         0         0         0         0         0         0         0         0         0         0         0         0         0         0         0         0         0         0         0         0         0         0         0         0         0         0     -9999     -9999     -9999     -9999     -9999     -9999     -9999     -9999     -9999     -9999     -9999     -9999     -9999     -9999     -9999     -9999     -9999     -9999     -9999     -9999     -9999     -9999
     -9999     -9999     -9999     -9999     -9999     -9999     -9999     -9999     -9999     -9999     -9999     -9999     -9999     -9999     -9999     -9999     -9999     -9999     -9999     -9999     -9999     -9999     -9999     -9999     -9999     -9999     -9999     -9999     -9999     -9999     -9999     -9999     -9999     -9999         1         0         0         0         0         0         0         0         2         1         1         0         1         0         0         0         0         1         0         1         1         1         0         0         0         0         0         0         0         0         0         1         1         0         0         0         1         1         1         0         1         0         0         0         0         1         0         0         0         1         1         0         0         0         0         0         0         0         0         0         0         0         0         0         0         0         0         0         0         0         0         0         0         0         0         0         0         0         0         0     -9999     -9999     -9999     -9999     -9999     -9999     -9999     -9999     -9999     -9999     -9999     -9999     -9999     -9999     -9999     -9999     -9999     -9999     -9999     -9999     -9999     -9999
     -9999     -9999     -9999     -9999     -9999     -9999     -9999     -9999     -9999     -9999     -9999     -9999     -9999     -9999     -9999     -9999     -9999     -9999     -9999     -9999     -9999     -9999     -9999     -9999     -9999     -9999     -9999     -9999     -9999     -9999     -9999     -9999     -9999     -9999     -9999         1         0         1         0         1         0         0         0         1         1         0         0         1         0         1         0         0         0         0         1         0         1         0         0         0         0         0         0         1         0         0         0         0         0         1         0         0         1         0         1         0         0         1         0         0         1         0         0         0         0         0         0         0         0         0         0         0         0         0         0         0         0         0         0         0         0         0         0         0         0         0         0         0         0         0         0         0         0         0     -9999     -9999     -9999     -9999     -9999     -9999     -9999     -9999     -9999     -9999     -9999     -9999     -9999     -9999     -9999     -9999     -9999     -9999     -9999     -9999     -9999     -9999
     -9999     -9999     -9999     -9999     -9999     -9999     -9999     -9999     -9999     -9999     -9999     -9999     -9999     -9999     -9999     -9999     -9999     -9999     -9999     -9999     -9999     -9999     -9999     -9999     -9999     -9999     -9999     -9999     -9999     -9999     -9999     -9999     -9999     -9999     -9999         0         0         0         0         0         0         0         2         0         0         0         0         0         0         1         0         0         0         1         0         0         0         1         0         0         0         0         0         1         0         0         0         0         1         1         0         0         1         1         0         1         1         0         1         1         0         1         1         0         0         0         0         0         0         0         0         0         0         0         0         0         0         0         0         0         0         0         0         0         0         0         0         0         0         0         0         0         0         0     -9999     -9999     -9999     -9999     -9999     -9999     -9999     -9999     -9999     -9999     -9999     -9999     -9999     -9999     -9999     -9999     -9999     -9999     -9999     -9999     -9999     -9999
     -9999     -9999     -9999     -9999     -9999     -9999     -9999     -9999     -9999     -9999     -9999     -9999     -9999     -9999     -9999     -9999     -9999     -9999     -9999     -9999     -9999     -9999     -9999     -9999     -9999     -9999     -9999     -9999     -9999     -9999     -9999     -9999     -9999     -9999     -9999         0         0         1         0         0         0         0         0         0         0         0         1         0         0         2         0         1         0         0         1         0         1         0         0         0         0         0         0         0         0         1         0         0         0         0         0         0         1         1         1         0         1         2         0         1         0         3         1         0         0         0         0         0         0         0         0         0         0         0         0         0         0         0         0         0         0         0         0         0         0         0         0         0         0         0         0         0         0         0     -9999     -9999     -9999     -9999     -9999     -9999     -9999     -9999     -9999     -9999     -9999     -9999     -9999     -9999     -9999     -9999     -9999     -9999     -9999     -9999     -9999     -9999
     -9999     -9999     -9999     -9999     -9999     -9999     -9999     -9999     -9999     -9999     -9999     -9999     -9999     -9999     -9999     -9999     -9999     -9999     -9999     -9999     -9999     -9999     -9999     -9999     -9999     -9999     -9999     -9999     -9999     -9999     -9999     -9999     -9999     -9999     -9999         0         0         0         1         0         1         0         0         0         0         0         0         1         0         0         0         0         2         0         1         0         0         0         0         0         0         0         1         0         0         0         0         0         1         0         0         1         1         0         0         1         0         2         0         0         2         0         0         0         0         0         0         0         0         0         0         0         0         0         0         0         0         0         0         0         0         0         0         0         0         0         0         0         0         0         0         0         0         0     -9999     -9999     -9999     -9999     -9999     -9999     -9999     -9999     -9999     -9999     -9999     -9999     -9999     -9999     -9999     -9999     -9999     -9999     -9999     -9999     -9999     -9999
     -9999     -9999     -9999     -9999     -9999     -9999     -9999     -9999     -9999     -9999     -9999     -9999     -9999     -9999     -9999     -9999     -9999     -9999     -9999     -9999     -9999     -9999     -9999     -9999     -9999     -9999     -9999     -9999     -9999     -9999     -9999     -9999     -9999     -9999     -9999         0         0         2         0         1         1         1         0         0         0         0         0         2         1         0         0         2         0         1         0         0         1         1         0         0         0         0         1         2         0         0         0         1         0         0         0         1         1         0         1         0         1         0         2         2         0         0         0         1         0         0         0         0         0         0         0         0         0         0         0         0         0         0         0         0         0         0         0         0         0         0         0         0         0         0         0         0         0         0     -9999     -9999     -9999     -9999     -9999     -9999     -9999     -9999     -9999     -9999     -9999     -9999     -9999     -9999     -9999     -9999     -9999     -9999     -9999     -9999     -9999     -9999
     -9999     -9999     -9999     -9999     -9999     -9999     -9999     -9999     -9999     -9999     -9999     -9999     -9999     -9999     -9999     -9999     -9999     -9999     -9999     -9999     -9999     -9999     -9999     -9999     -9999     -9999     -9999     -9999     -9999     -9999     -9999     -9999     -9999     -9999     -9999         0         1         1         0         1         1         0         0         0         1         1         0         0         0         0         0         0         0         0         1         2         1         1         0         0         1         1         0         0         0         1         0         0         1         1         0         0         0         1         0         1         0         2         1         0         0         1         0         0         0         0         0         0         0         0         0         0         0         0         0         0         0         0         0         0         0         0         0         0         0         0         0         0         0         0         0         0         0         0     -9999     -9999     -9999     -9999     -9999     -9999     -9999     -9999     -9999     -9999     -9999     -9999     -9999     -9999     -9999     -9999     -9999     -9999     -9999     -9999     -9999     -9999
     -9999     -9999     -9999     -9999     -9999     -9999     -9999     -9999     -9999     -9999     -9999     -9999     -9999     -9999     -9999     -9999     -9999     -9999     -9999     -9999     -9999     -9999     -9999     -9999     -9999     -9999     -9999     -9999     -9999     -9999     -9999     -9999     -9999     -9999         0         0         0         0         1         0         0         0         0         1         0         0         1         1         1         2         0         0         0         1         0         0         0         1         0         1         0         0         0         0         1         0         0         1         0         0         1         1         1         2         1         0         1         1         1         0         0         0         0         0         0         0         0         0         0         0         0         0         0         0         0         0         0         0         0         0         0         0         0         0         0         0         0         0         0         0         0         0         0         0     -9999     -9999     -9999     -9999     -9999     -9999     -9999     -9999     -9999     -9999     -9999     -9999     -9999     -9999     -9999     -9999     -9999     -9999     -9999     -9999     -9999     -9999
     -9999     -9999     -9999     -9999     -9999     -9999     -9999     -9999     -9999     -9999     -9999     -9999     -9999     -9999     -9999     -9999     -9999     -9999     -9999     -9999     -9999     -9999     -9999     -9999     -9999     -9999     -9999     -9999     -9999     -9999     -9999     -9999     -9999     -9999         2         0         1         1         0         1         1         0         1         0         0         1         1         1         0         0         1         0         0         0         0         0         0         0         1         0         1         0         0         0         0         0         1         1         0         0         1         2         0         2         0         1         1         0         0         1         0         0         0         1         0         0         0         0         0         0         0         0         0         0         0         0         0         0         0         0         0         0         0         0         0         0         0         0         0         0         0         0         0         0     -9999     -9999     -9999     -9999     -9999     -9999     -9999     -9999     -9999     -9999     -9999     -9999     -9999     -9999     -9999     -9999     -9999     -9999     -9999     -9999     -9999     -9999
     -9999     -9999     -9999     -9999     -9999     -9999     -9999     -9999     -9999     -9999     -9999     -9999     -9999     -9999     -9999     -9999     -9999     -9999     -9999     -9999     -9999     -9999     -9999     -9999     -9999     -9999     -9999     -9999     -9999     -9999     -9999     -9999     -9999         0         0         1         0         0         0         1         1         1         0         0         1         0         1         2         0         0         1         2         0         0         0         1         0         1         0         1         0         0         0         0         0         0         0         1         1         1         1         0         2         0         2         0         0         0         2         0         0         0         0         0         0         0         0         0         0         0         0         0         0         0         0         0         0         0         0         0         0         0         0         0         0         0         0         0         0         0         0         0         0         0     -9999     -9999     -9999     -9999     -9999     -9999     -9999     -9999     -9999     -9999     -9999     -9999     -9999     -9999     -9999     -9999     -9999     -9999     -9999     -9999     -9999     -9999
     -9999     -9999     -9999     -9999     -9999     -9999     -9999     -9999     -9999     -9999     -9999     -9999     -9999     -9999     -9999     -9999     -9999     -9999     -9999     -9999     -9999     -9999     -9999     -9999     -9999     -9999     -9999     -9999     -9999     -9999     -9999         0         0         0         0         0         2         0         0         0         0         0         0         1         0         0         0         0         0         0         0         0         1         0         0         0         1         1         1         1         1         0         0         0         0         1         0         1         0         0         1         0         1         1         1         0         0         0         1         0         0         1         0         0         0         0         0         0         0         0         0         0         0         0         0         0         0         0         0         0         0         0         0         0         0         0         0         0         0         0         0         0         0         0     -9999     -9999     -9999     -9999     -9999     -9999     -9999     -9999     -9999     -9999     -9999     -9999     -9999     -9999     -9999     -9999     -9999     -9999     -9999     -9999     -9999     -9999
     -9999     -9999     -9999     -9999     -9999     -9999     -9999     -9999     -9999     -9999     -9999     -9999     -9999     -9999     -9999     -9999     -9999     -9999     -9999     -9999     -9999     -9999     -9999     -9999     -9999     -9999     -9999     -9999     -9999     -9999     -9999         0         0         1         0         0         0         1         1         0         0         0         0         1         1         2         1         1         0         0         1         0         1         1         0         0         0         1         1         1         0         0         0         0         0         0         1         0         0         0         0         0         1         0         0         0         1         0         0         2         1         0         1         0         0         0         0         0         0         0         0         0         0         0         0         0         0         0         0         0         0         0         0         0         0         0         0         0         0         0         0         0         0         0     -9999     -9999     -9999     -9999     -9999     -9999     -9999     -9999     -9999     -9999     -9999     -9999     -9999     -9999     -9999     -9999     -9999     -9999     -9999     -9999     -9999     -9999
     -9999     -9999     -9999     -9999     -9999     -9999     -9999     -9999     -9999     -9999     -9999     -9999     -9999     -9999     -9999     -9999     -9999     -9999     -9999     -9999     -9999     -9999     -9999     -9999     -9999     -9999     -9999     -9999     -9999     -9999     -9999         0         1         0         0         0         1         0         0         0         0         1         1         0         1         0         0         0         0         0         0         0         0         0         1         0         0         0         0         1         1         0         0         0         0         1         0         1         0         0         1         0         0         0         1         1         0         0         0         2         0         0         0         0         0         0         0         0         0         0         0         0         0         0         0         0         0         0         0         0         0         0         0         0         0         0         0         0         0         0         0         0         0         0     -9999     -9999     -9999     -9999     -9999     -9999     -9999     -9999     -9999     -9999     -9999     -9999     -9999     -9999     -9999     -9999     -9999     -9999     -9999     -9999     -9999     -9999
     -9999     -9999     -9999     -9999     -9999     -9999     -9999     -9999     -9999     -9999     -9999     -9999     -9999     -9999     -9999     -9999     -9999     -9999     -9999     -9999     -9999     -9999     -9999     -9999     -9999     -9999     -9999     -9999     -9999     -9999     -9999         1         0         0         0         1         0         1         0         1         1         0         1         0         0         0         1         0         1         0         0         0         1         1         1         1         0         1         0         0         0         1         1         0         1         0         0         0         0         0         3         0         0         0         1         0         0         0         1         0         0         0         0         0         1         0         0         0         0         0         0         0         0         0         0         0         0         0         0         0         0         0         0         0         0         0         0         0         0         0         0         0         0         0     -9999     -9999     -9999     -9999     -9999     -9999     -9999     -9999     -9999     -9999     -9999     -9999     -9999     -9999     -9999     -9999     -9999     -9999     -9999     -9999     -9999     -9999
     -9999     -9999     -9999     -9999     -9999     -9999     -9999     -9999     -9999     -9999     -9999     -9999     -9999     -9999     -9999     -9999     -9999     -9999     -9999     -9999     -9999     -9999     -9999     -9999     -9999     -9999     -9999     -9999     -9999     -9999     -9998         0         1         0         0         0         0         1         1         0         0         1         0         0         0         0         0         1         0         0         0         0         0         1         0         0         2         0         0         1         0         0         0         1         0         0         0         0         0         2         1         1         0         0         0         0         1         1         0         0         0         2         0         1         0         0         0         0         0         0         0         0         0         0         0         0         0         0         0         0         0         0         0         0         0         0         0         0         0         0         0         0         0         0     -9999     -9999     -9999     -9999     -9999     -9999     -9999     -9999     -9999     -9999     -9999     -9999     -9999     -9999     -9999     -9999     -9999     -9999     -9999     -9999     -9999     -9999
     -9999     -9999     -9999     -9999     -9999     -9999     -9999     -9999     -9999     -9999     -9999     -9999     -9999     -9999     -9999     -9999     -9999     -9999     -9999     -9999     -9999     -9999     -9999     -9999     -9999     -9999     -9999     -9999     -9999     -9999     -9999         0         0         0         0         1         0         0         0         0         1         0         0         1         0         0         1         0         0         0         1         1         0         1         0         2         1         0         0         1         0         0         0         0         1         0         0         0         1         1         0         0         0         0         0         2         0         0         0         0         1         0         1         0         0         1         0         0         0         0         0         0         0         0         0         0         0         0         0         0         0         0         0         0         0         0         0         0         0         0         0         0         0         0         0     -9999     -9999     -9999     -9999     -9999     -9999     -9999     -9999     -9999     -9999     -9999     -9999     -9999     -9999     -9999     -9999     -9999     -9999     -9999     -9999     -9999
     -9999     -9999     -9999     -9999     -9999     -9999     -9999     -9999     -9999     -9999     -9999     -9999     -9999     -9999     -9999     -9999     -9999     -9999     -9999     -9999     -9999     -9999     -9999     -9999     -9999     -9999     -9999     -9999     -9999     -9999     -9999         0         0         0         0         0         0         0         0         0         1         0         0         0         1         0         0         0         0         0         0         0         1         0         1         1         0         2         1         0         0         1         0         0         0         0         1         1         0         0         0         0         1         0         0         0         0         0         1         0         0         0         0         1         0         0         0         0         0         0         0         0         0         0         0         0         0         0         0         0         0         0         0         0         0         0         0         0         0         0         0         0         0         0     -9999     -9999     -9999     -9999     -9999     -9999     -9999     -9999     -9999     -9999     -9999     -9999     -9999     -9999     -9999     -9999     -9999     -9999     -9999     -9999     -9999     -9999
     -9999     -9999     -9999     -9999     -9999     -9999     -9999     -9999     -9999     -9999     -9999     -9999     -9999     -9999     -9999     -9999     -9999     -9999     -9999     -9999     -9999     -9999     -9999     -9999     -9999     -9999     -9999     -9999     -9999     -9999     -9999         0         0         0         0         0         0         0         1         0         0         0         0         0         0         0         0         0         0         1         0         0         0         1         0         0         0         0         1         1         1         0         0         0         0         0         1         0         0         0         0         0         0         1         0         1         0         0         0         1         0         0         0         0         1         0         0         1         0         0         0         0         0         0         0         0         0         0         0         0         0         0         0         0         0         0         0         0         0         0         0         0         0         0     -9999     -9999     -9999     -9999     -9999     -9999     -9999     -9999     -9999     -9999     -9999     -9999     -9999     -9999     -9999     -9999     -9999     -9999     -9999     -9999     -9999     -9999
     -9999     -9999     -9999     -9999     -9999     -9999     -9999     -9999     -9999     -9999     -9999     -9999     -9999     -9999     -9999     -9999     -9999     -9999     -9999     -9999     -9999     -9999     -9999     -9999     -9999     -9999     -9999     -9999     -9999     -9999     -9999         0         0         0         0         0         0         0         0         0         0         0         0         1         0         0         0         0         0         0         0         0         0         0         0         0         1         0         0         0         0         0         0         0         0         0         1         0         1         0         0         0         0         0         0         0         1         0         1         0         2         0         0         0         0         2         0         0         0         0         0         0         0         0         0         0         0         0         0         0         0         0         0         0         0         0         0         0         0         0         0         0     -9999     -9999     -9999     -9999     -9999     -9999     -9999     -9999     -9999     -9999     -9999     -9999     -9999     -9999     -9999     -9999     -9999     -9999     -9999     -9999     -9999     -9999     -9999     -9999
     -9999     -9999     -9999     -9999     -9999     -9999     -9999     -9999     -9999     -9999     -9999     -9999     -9999     -9999     -9999     -9999     -9999     -9999     -9999     -9999     -9999     -9999     -9999     -9999     -9999     -9999     -9999     -9999     -9999     -9999     -9999         0         0         0         0         0         0         0         0         0         0         0         1         0         0         0         0         0         0         0         0         1         0         0         0         1         0         1         0         0         2         1         1         0         1         1         0         1         0         0         0         1         0         0         0         1         0         1         1         0         0         1         1         0         0         0         1         0         0         0         0         0         0         0         0         0         0         0         0         0         0         0         0         0         0         0         0         0         0     -9999     -9999     -9999     -9999     -9999     -9999     -9999     -9999     -9999     -9999     -9999     -9999     -9999     -9999     -9999     -9999     -9999     -9999     -9999     -9999     -9999     -9999     -9999     -9999     -9999     -9999     -9999
     -9999     -9999     -9999     -9999     -9999     -9999     -9999     -9999     -9999     -9999     -9999     -9999     -9999     -9999     -9999     -9999     -9999     -9999     -9999     -9999     -9999     -9999     -9999     -9999     -9999     -9999     -9999     -9999     -9999     -9999     -9999         0         0         0         0         0         0         0         0         0         0         1         0         0         0         0         0         0         0         0         1         0         0         0         1         0         1         0         1         0         0         1         0         1         0         0         1         0         0         1         1         0         0         1         0         1         0         0         1         0         0         0         0         0         0         0         0         0         0         0         0         0         0         0         0         0         0         0         0         0         0         0         0         0         0         0         0         0         0     -9999     -9999     -9999     -9999     -9999     -9999     -9999     -9999     -9999     -9999     -9999     -9999     -9999     -9999     -9999     -9999     -9999     -9999     -9999     -9999     -9999     -9999     -9999     -9999     -9999     -9999     -9999
     -9999     -9999     -9999     -9999     -9999     -9999     -9999     -9999     -9999     -9999     -9999     -9999     -9999     -9999     -9999     -9999     -9999     -9999     -9999     -9999     -9999     -9999     -9999     -9999     -9999     -9999     -9999     -9999     -9999     -9999     -9999         0         0         0         0         0         0         0         0         0         0         0         0         0         0         0         0         0         0         0         0         0         0         0         0         0         1         0         0         1         0         0         1         2         0         0         0         1         1         0         1         2         0         1         2         0         1         0         0         0         0         0         0         0         0         0         0         0         1         0         0         0         0         0         0         0         0         0         0         0         0         0         0         0         0         0         0         0     -9999     -9999     -9999     -9999     -9999     -9999     -9999     -9999     -9999     -9999     -9999     -9999     -9999     -9999     -9999     -9999     -9999     -9999     -9999     -9999     -9999     -9999     -9999     -9999     -9999     -9999     -9999     -9999
     -9999     -9999     -9999     -9999     -9999     -9999     -9999     -9999     -9999     -9999     -9999     -9999     -9999     -9999     -9999     -9999     -9999     -9999     -9999     -9999     -9999     -9999     -9999     -9999     -9999     -9999     -9999     -9999     -9999     -9999     -9999         0         0         0         0         0         0         0         0         0         0         0         0         0         0         0         0         0         0         0         0         0         1         0         1         0         1         0         0         1         0         1         0         0         1         0         0         0         2         1         0         1         0         0         1         0         0         1         0         0         0         0         0         0         0         0         0         0         0         1         0         0         0         0         0         0         0         0         0         0         0         0         0         0         0         0         0     -9999     -9999     -9999     -9999     -9999     -9999     -9999     -9999     -9999     -9999     -9999     -9999     -9999     -9999     -9999     -9999     -9999     -9999     -9999     -9999     -9999     -9999     -9999     -9999     -9999     -9999     -9999     -9999     -9999
     -9999     -9999     -9999     -9999     -9999     -9999     -9999     -9999     -9999     -9999     -9999     -9999     -9999     -9999     -9999     -9999     -9999     -9999     -9999     -9999     -9999     -9999     -9999     -9999     -9999     -9999     -9999     -9999     -9999     -9999     -9999         0         0         0         0         0         0         0         0         0         0         0         0         0         0         0         0         0         0         0         0         0         0         0         0         0         0         0         1         0         1         0         2         0         0         0         1         1         1         0         1         1         0         0         0         0         0         0         0         0         0         0         0         0         0         0         0         0         0         0         0         0         0         0         0         0         0         0         0         0         0         0         0         0         0         0     -9999     -9999     -9999     -9999     -9999     -9999     -9999     -9999     -9999     -9999     -9999     -9999     -9999     -9999     -9999     -9999     -9999     -9999     -9999     -9999     -9999     -9999     -9999     -9999     -9999     -9999     -9999     -9999     -9999     -9999
     -9999     -9999     -9999     -9999     -9999     -9999     -9999     -9999     -9999     -9999     -9999     -9999     -9999     -9999     -9999     -9999     -9999     -9999     -9999     -9999     -9999     -9999     -9999     -9999     -9999     -9999     -9999     -9999     -9999     -9999     -9999     -9999     -9999         0         0         0         0         0         0         0         0         0         0         0         0         0         0         0         0         0         0         0         0         0         0         1         0         1         0         0         0         1         2         0         0         0         2         3         1         0         0         0         1         0         0         0         0         0         0         0         0         0         0         0         0         0         0         0         0         0         0         1         0         0         0         0         0         0         0         0         0         0         0         0         0         0     -9999     -9999     -9999     -9999     -9999     -9999     -9999     -9999     -9999     -9999     -9999     -9999     -9999     -9999     -9999     -9999     -9999     -9999     -9999     -9999     -9999     -9999     -9999     -9999     -9999     -9999     -9999     -9999     -9999     -9999
     -9999     -9999     -9999     -9999     -9999     -9999     -9999     -9999     -9999     -9999     -9999     -9999     -9999     -9999     -9999     -9999     -9999     -9999     -9999     -9999     -9999     -9999     -9999     -9999     -9999     -9999     -9999     -9999     -9999     -9999     -9999     -9999     -9999         0         0         0         0         0         0         0         0         0         0         0         0         0         0         0         0         0         0         0         0         0         0         0         0         0         0         0         0         0         0         0         0         0         0         1         1         2         0         0         0         0         0         0         0         0         0         0         0         0         0         0         0         0         0         0         0         0         0         0         1         0         0         0         0         0         0         0         0         0         0         0         0         0     -9999     -9999     -9999     -9999     -9999     -9999     -9999     -9999     -9999     -9999     -9999     -9999     -9999     -9999     -9999     -9999     -9999     -9999     -9999     -9999     -9999     -9999     -9999     -9999     -9999     -9999     -9999     -9999     -9999     -9999
     -9999     -9999     -9999     -9999     -9999     -9999     -9999     -9999     -9999     -9999     -9999     -9999     -9999     -9999     -9999     -9999     -9999     -9999     -9999     -9999     -9999     -9999     -9999     -9999     -9999     -9999     -9999     -9999     -9999     -9999     -9999     -9999     -9999         0         0         0         0         0         0         0         0         0         0         0         0         0         0         0         0         0         0         0         0         0         0         0         0         0         0         0         0         0         0         1         1         0         1         0         0         0         3         0         0         0         0         0         0         0         0         0         0         0         0         0         0         0         0         0         0         0         0         0         0         0         0         0         0         0         0         0         0         0         0         0         0         0     -9999     -9999     -9999     -9999     -9999     -9999     -9999     -9999     -9999     -9999     -9999     -9999     -9999     -9999     -9999     -9999     -9999     -9999     -9999     -9999     -9999     -9999     -9999     -9999     -9999     -9999     -9999     -9999     -9999     -9999
     -9999     -9999     -9999     -9999     -9999     -9999     -9999     -9999     -9999     -9999     -9999     -9999     -9999     -9999     -9999     -9999     -9999     -9999     -9999     -9999     -9999     -9999     -9999     -9999     -9999     -9999     -9999     -9999     -9999     -9999     -9999     -9999     -9999         0         0         0         0         0         0         0         0         0         0         0         0         0         0         0         0         0         0         0         0         0         0         0         0         0         0         0         0         0         0         0         0         1         0         1         0         0         1         0         0         0         0         0         0         0         0         0         0         0         0         0         0         0         0         0         0         0         0         0         0         0         1         0         0         0         0         0         0         0         0         0         0         0     -9999     -9999     -9999     -9999     -9999     -9999     -9999     -9999     -9999     -9999     -9999     -9999     -9999     -9999     -9999     -9999     -9999     -9999     -9999     -9999     -9999     -9999     -9999     -9999     -9999     -9999     -9999     -9999     -9999     -9999
     -9999     -9999     -9999     -9999     -9999     -9999     -9999     -9999     -9999     -9999     -9999     -9999     -9999     -9999     -9999     -9999     -9999     -9999     -9999     -9999     -9999     -9999     -9999     -9999     -9999     -9999     -9999     -9999     -9999     -9999     -9999         0         0         0         0         0         0         0         0         0         0         0         0         0         0         0         0         0         0         0         0         0         0         0         0         0         0         0         0         0         0         0         0         0         0         0         0         0         0         0         0         2         0         0         0         0         0         0         0         0         0         0         0         0         0         0         0         0         0         0         0         0         0         0         0         1         0         0         0         0         0         0         0         0         0         0     -9999     -9999     -9999     -9999     -9999     -9999     -9999     -9999     -9999     -9999     -9999     -9999     -9999     -9999     -9999     -9999     -9999     -9999     -9999     -9999     -9999     -9999     -9999     -9999     -9999     -9999     -9999     -9999     -9999     -9999
     -9999     -9999     -9999     -9999     -9999     -9999     -9999     -9999     -9999     -9999     -9999     -9999     -9999     -9999     -9999     -9999     -9999     -9999     -9999     -9999     -9999     -9999     -9999     -9999     -9999     -9999     -9999     -9999     -9999     -9999     -9999         0         0         0         0         0         0         0         0         0         0         0         0         0         0         0         0         0         0         0         0         0         0         0         0         0         0         0         0         0         0         0         0         0         0         0         0         0         0         0         0         0         1         0         0         0         0         0         0         0         0         0         0         0         0         0         0         0         0         0         0         0         0         0         0         0         0         0         0         0         0         0         0         0         0         0     -9999     -9999     -9999     -9999     -9999     -9999     -9999     -9999     -9999     -9999     -9999     -9999     -9999     -9999     -9999     -9999     -9999     -9999     -9999     -9999     -9999     -9999     -9999     -9999     -9999     -9999     -9999     -9999     -9999     -9999
     -9999     -9999     -9999     -9999     -9999     -9999     -9999     -9999     -9999     -9999     -9999     -9999     -9999     -9999     -9999     -9999     -9999     -9999     -9999     -9999     -9999     -9999     -9999     -9999     -9999     -9999     -9999     -9999     -9999     -9999     -9999         0         0         0         0         0         0         0         0         0         0         0         0         0         0         0         0         0         0         0         0         0         0         0         0         0         0         0         0         0         0         0         0         0         0         0         0         0         1         0         2         0         0         3         0         0         0         0         0         0         0         0         0         0         0         0         0         0         0         0         0         0         0         0         0         0         0         1         0         0         0         0         0         0         0         0     -9999     -9999     -9999     -9999     -9999     -9999     -9999     -9999     -9999     -9999     -9999     -9999     -9999     -9999     -9999     -9999     -9999     -9999     -9999     -9999     -9999     -9999     -9999     -9999     -9999     -9999     -9999     -9999     -9999     -9999
     -9999     -9999     -9999     -9999     -9999     -9999     -9999     -9999     -9999     -9999     -9999     -9999     -9999     -9999     -9999     -9999     -9999     -9999     -9999     -9999     -9999     -9999     -9999     -9999     -9999     -9999     -9999     -9999     -9999     -9999     -9999         0         0         0         0         0         0         0         0         0         0         0         0         0         0         0         0         0         0         0         0         0         0         0         0         0         0         0         0         0         0         0         0         0         0         0         0         0         0         0         0         0         0         0         2         0         0         0         0         0         0         0         0         0         0         0         0         0         0         0         0         0         0         0         0         0         0         0         0         0         0         0         0         0         0         0     -9999     -9999     -9999     -9999     -9999     -9999     -9999     -9999     -9999     -9999     -9999     -9999     -9999     -9999     -9999     -9999     -9999     -9999     -9999     -9999     -9999     -9999     -9999     -9999     -9999     -9999     -9999     -9999     -9999     -9999
     -9999     -9999     -9999     -9999     -9999     -9999     -9999     -9999     -9999     -9999     -9999     -9999     -9999     -9999     -9999     -9999     -9999     -9999     -9999     -9999     -9999     -9999     -9999     -9999     -9999     -9999     -9999     -9999     -9999     -9999     -9999         0         0         0         0         0         0         0         0         0         0         0         0         0         0         0         0         0         0         0         0         0         0         0         0         0         0         0         0         0         0         0         0         0         0         0         0         0         0         0         1         0         0         0         0         2         0         0         0         0         0         0         0         0         0         0         0         0         0         0         0         0         0         0         0         0         0         0         0         1         0         0         0         0         0         0     -9999     -9999     -9999     -9999     -9999     -9999     -9999     -9999     -9999     -9999     -9999     -9999     -9999     -9999     -9999     -9999     -9999     -9999     -9999     -9999     -9999     -9999     -9999     -9999     -9999     -9999     -9999     -9999     -9999     -9999
     -9999     -9999     -9999     -9999     -9999     -9999     -9999     -9999     -9999     -9999     -9999     -9999     -9999     -9999     -9999     -9999     -9999     -9999     -9999     -9999     -9999     -9999     -9999     -9999     -9999     -9999     -9999     -9999     -9999     -9999         0         0         0         0         0         0         0         0         0         0         0         0         0         0         0         0         0         0         0         0         0         0         0         0         0         0         0         0         0         0         0         0         0         0         0         0         0         0         0         0         0         0         0         0         0         0         2         0         0         0         0         0         0         0         0         0         0         0         0         0         0         0         0         0         0         0         0         0         0         0         0         0         0         0         0         0         0     -9999     -9999     -9999     -9999     -9999     -9999     -9999     -9999     -9999     -9999     -9999     -9999     -9999     -9999     -9999     -9999     -9999     -9999     -9999     -9999     -9999     -9999     -9999     -9999     -9999     -9999     -9999     -9999     -9999
     -9999     -9999     -9999     -9999     -9999     -9999     -9999     -9999     -9999     -9999     -9999     -9999     -9999     -9999     -9999     -9999     -9999     -9999     -9999     -9999     -9999     -9999     -9999     -9999     -9999     -9999     -9999     -9999     -9999         0         0         0         0         0         0         0         0         0         0         0         0         0         0         0         0         0         0         0         0         0         0         0         0         0         0         0         0         0         0         0         0         0         0         0         0         0         0         0         0         0         0         0         0         0         0         0         0         1         0         0         0         0         0         0         0         0         0         0         0         0         0         0         0         0         0         0         0         0         0         0         0         1         0         0         0         0         0     -9999     -9999     -9999     -9999     -9999     -9999     -9999     -9999     -9999     -9999     -9999     -9999     -9999     -9999     -9999     -9999     -9999     -9999     -9999     -9999     -9999     -9999     -9999     -9999     -9999     -9999     -9999     -9999     -9999
     -9999     -9999     -9999     -9999     -9999     -9999     -9999     -9999     -9999     -9999     -9999     -9999     -9999     -9999     -9999     -9999     -9999     -9999     -9999     -9999     -9999     -9999     -9999     -9999     -9999     -9999     -9999     -9999     -9999         0         0         0         0         0         0         0         0         0         0         0         0         0         0         0         0         0         0         0         0         0         0         0         0         0         0         0         0         0         0         0         0         0         0         0         0         0         0         0         0         0         0         0         0         0         0         0         0         0         0         0         0         0         0         0         0         0         0         0         0         0         0         0         0         0         0         0         0         0         0         0         0         0         0         0         0         0         0     -9999     -9999     -9999     -9999     -9999     -9999     -9999     -9999     -9999     -9999     -9999     -9999     -9999     -9999     -9999     -9999     -9999     -9999     -9999     -9999     -9999     -9999     -9999     -9999     -9999     -9999     -9999     -9999     -9999
     -9999     -9999     -9999     -9999     -9999     -9999     -9999     -9999     -9999     -9999     -9999     -9999     -9999     -9999     -9999     -9999     -9999     -9999     -9999     -9999     -9999     -9999     -9999     -9999     -9999     -9999     -9999     -9999         0         0         0         0         0         0         0         0         0         0         0         0         0         0         0         0         0         0         0         0         0         0         0         0         0         0         0         0         0         0         0         0         0         0         0         0         0         0         0         0         0         0         0         0         0         0         0         0         0         0         0         1         0         0         0         0         0         0         0         0         0         0         0         0         0         0         0         0         0         0         0         0         0         0         0     -9998     -9999     -9999     -9999     -9999     -9999     -9999     -9999     -9999     -9999     -9999     -9999     -9999     -9999     -9999     -9999     -9999     -9999     -9999     -9999     -9999     -9999     -9999     -9999     -9999     -9999     -9999     -9999     -9999     -9999     -9999     -9999     -9999
     -9999     -9999     -9999     -9999     -9999     -9999     -9999     -9999     -9999     -9999     -9999     -9999     -9999     -9999     -9999     -9999     -9999     -9999     -9999     -9999     -9999     -9999     -9999     -9999     -9999     -9999     -9999     -9999     -9999         0         0         0         0         0         0         0         0         0         0         0         0         0         0         0         0         0         0         0         0     -9999     -9999     -9999     -9999     -9999     -9999     -9999     -9999     -9999         0         0         0         0         0         0         0         0         0         0         0         0         0         0         0         0         0         0         0         0         0         1         0         0         0         0         0         0         0         0         0         0         0         0         0         0         0         0         0         0     -9999     -9999     -9999     -9999     -9999     -9999     -9997     -9999     -9999     -9999     -9999     -9999     -9999     -9999     -9999     -9999     -9999     -9999     -9999     -9999     -9999     -9999     -9999     -9999     -9999     -9999     -9999     -9999     -9999     -9999     -9999     -9999     -9999     -9999     -9999     -9999     -9999     -9999
     -9999     -9999     -9999     -9999     -9999     -9999     -9999     -9999     -9999     -9999     -9999     -9999     -9999     -9999     -9999     -9999     -9999     -9999     -9999     -9999     -9999     -9999     -9999     -9999     -9999     -9999     -9999     -9999     -9999         0         0         0         0         0         0         0         0         0         0         0         0         0         0         0         0         0         0         0         0     -9999     -9999     -9999     -9999     -9999     -9999     -9999     -9999     -9999         0         0         0         0         0         0         0         0         0         0         0         0         0         0         0         0         0         0         0         0         0         0         0         0         0         0         0         0         0         0         0         0         0         0         0         0         0         0         0         0     -9999     -9999     -9999     -9999     -9999     -9999     -9999     -9999     -9999     -9999     -9999     -9999     -9999     -9999     -9999     -9999     -9999     -9999     -9999     -9999     -9999     -9999     -9999     -9999     -9999     -9999     -9999     -9999     -9999     -9999     -9999     -9999     -9999     -9999     -9999     -9999     -9999     -9999
     -9999     -9999     -9999     -9999     -9999     -9999     -9999     -9999     -9999     -9999     -9999     -9999     -9999     -9999     -9999     -9999     -9999     -9999     -9999     -9999     -9999     -9999     -9999     -9999     -9999     -9999     -9999     -9999     -9999     -9999     -9999     -9999     -9999         0         0         0         0         0         0         0         0         0         0         0     -9999     -9999     -9999     -9999     -9999     -9999     -9999     -9999     -9999     -9999     -9999     -9999     -9999     -9999     -9999     -9999     -9999         0         0         0         0         0         0         0         0         0         0         0         0         0         0         0         0         0         0         0         0         2         0         0         0         0         0         0         0         0         0         0         0         0         0         0     -9999     -9999     -9999     -9999     -9999     -9999     -9999     -9999     -9999     -9999     -9999     -9999     -9999     -9999     -9999     -9999     -9999     -9999     -9999     -9999     -9999     -9999     -9999     -9999     -9999     -9999     -9999     -9999     -9999     -9999     -9999     -9999     -9999     -9999     -9999     -9999     -9999     -9999     -9999     -9999
     -9999     -9999     -9999     -9999     -9999     -9999     -9999     -9999     -9999     -9999     -9999     -9999     -9999     -9999     -9999     -9999     -9999     -9999     -9999     -9999     -9999     -9999     -9999     -9999     -9999     -9999     -9999     -9999     -9999     -9999     -9999     -9999     -9999     -9999     -9999         0         0         0         0     -9999     -9999     -9999     -9999     -9999     -9999     -9999     -9999     -9999     -9999     -9999     -9999     -9999     -9999     -9999     -9999     -9999     -9999     -9999     -9999     -9999     -9999     -9999         0         0         0         0         0         0         0         0         0         0         0         0         0         0         0         0         0         0         0         0         1         0         0         0         0         0         0         0         0     -9999     -9999     -9999     -9999     -9999     -9999     -9999     -9999     -9999     -9999     -9999     -9999     -9999     -9999     -9999     -9999     -9999     -9999     -9999     -9999     -9999     -9999     -9999     -9999     -9999     -9999     -9999     -9999     -9999     -9999     -9999     -9999     -9999     -9999     -9999     -9999     -9999     -9999     -9999     -9999     -9999     -9999     -9999     -9999     -9999
     -9999     -9999     -9999     -9999     -9999     -9999     -9999     -9999     -9999     -9999     -9999     -9999     -9999     -9999     -9999     -9999     -9999     -9999     -9999     -9999     -9999     -9999     -9999     -9999     -9999     -9999     -9999     -9999     -9999     -9999     -9999     -9999     -9999     -9999     -9999     -9999     -9999     -9999     -9999     -9999     -9999     -9999     -9999     -9999     -9999     -9999     -9999     -9999     -9999     -9999     -9999     -9999     -9999     -9999     -9999     -9999     -9999     -9999     -9999     -9999     -9999     -9999     -9999     -9999         0         0         0         0         0         0         0         0         0         0         0         0         0         0         0         0         0         0         0         1         0         0         0         0         0         0         0     -9999     -9999     -9999     -9999     -9999     -9999     -9999     -9999     -9999     -9999     -9999     -9999     -9999     -9999     -9999     -9999     -9999     -9999     -9999     -9999     -9999     -9999     -9999     -9999     -9999     -9999     -9999     -9999     -9999     -9999     -9999     -9999     -9999     -9999     -9999     -9999     -9999     -9999     -9999     -9999     -9999     -9999     -9999     -9999     -9999
     -9999     -9999     -9999     -9999     -9999     -9999     -9999     -9999     -9999     -9999     -9999     -9999     -9999     -9999     -9999     -9999     -9999     -9999     -9999     -9999     -9999     -9999     -9999     -9999     -9999     -9999     -9999     -9999     -9999     -9999     -9999     -9999     -9999     -9999     -9999     -9999     -9999     -9999     -9999     -9999     -9999     -9999     -9999     -9999     -9999     -9999     -9999     -9999     -9999     -9999     -9999     -9999     -9999     -9999     -9999     -9999     -9999     -9999     -9999     -9999     -9999     -9999     -9999     -9999     -9999         0         0         0         0         0         0         0         0         0         0         0         0         0         0         0         0         0         0         0         0         0         0         0         0         0     -9999     -9999     -9999     -9999     -9999     -9999     -9999     -9999     -9999     -9999     -9999     -9999     -9999     -9999     -9999     -9999     -9999     -9999     -9999     -9999     -9999     -9999     -9999     -9999     -9999     -9999     -9999     -9999     -9999     -9999     -9999     -9999     -9999     -9999     -9999     -9999     -9999     -9999     -9999     -9999     -9999     -9999     -9999     -9999     -9999     -9999
     -9999     -9999     -9999     -9999     -9999     -9999     -9999     -9999     -9999     -9999     -9999     -9999     -9999     -9999     -9999     -9999     -9999     -9999     -9999     -9999     -9999     -9999     -9999     -9999     -9999     -9999     -9999     -9999     -9999     -9999     -9999     -9999     -9999     -9999     -9999     -9999     -9999     -9999     -9999     -9999     -9999     -9999     -9999     -9999     -9999     -9999     -9999     -9999     -9999     -9999     -9999     -9999     -9999     -9999     -9999     -9999     -9999     -9999     -9999     -9999     -9999     -9999     -9999     -9999     -9999     -9999         0         0         0         0         0         0         0         0         0         0         0         0         0         0         0         0         0         0         0         1         0         0         0     -9999     -9999     -9999     -9999     -9999     -9999     -9999     -9999     -9999     -9999     -9999     -9999     -9999     -9999     -9999     -9999     -9999     -9999     -9999     -9999     -9999     -9999     -9999     -9999     -9999     -9999     -9999     -9999     -9999     -9999     -9999     -9999     -9999     -9999     -9999     -9999     -9999     -9999     -9999     -9999     -9999     -9999     -9999     -9999     -9999     -9999     -9999
     -9999     -9999     -9999     -9999     -9999     -9999     -9999     -9999     -9999     -9999     -9999     -9999     -9999     -9999     -9999     -9999     -9999     -9999     -9999     -9999     -9999     -9999     -9999     -9999     -9999     -9999     -9999     -9999     -9999     -9999     -9999     -9999     -9999     -9999     -9999     -9999     -9999     -9999     -9999     -9999     -9999     -9999     -9999     -9999     -9999     -9999     -9999     -9999     -9999     -9999     -9999     -9999     -9999     -9999     -9999     -9999     -9999     -9999     -9999     -9999     -9999     -9999     -9999     -9999     -9999     -9999     -9999         0         0         0         0         0         0         0         0         0         0         0         0         0         0         0         0         0         0         0         1         0     -9999     -9999     -9999     -9999     -9999     -9999     -9999     -9999     -9999     -9999     -9999     -9999     -9999     -9999     -9999     -9999     -9999     -9999     -9999     -9999     -9999     -9999     -9999     -9999     -9999     -9999     -9999     -9999     -9999     -9999     -9999     -9999     -9999     -9999     -9999     -9999     -9999     -9999     -9999     -9999     -9999     -9999     -9999     -9999     -9999     -9999     -9999     -9999
     -9999     -9999     -9999     -9999     -9999     -9999     -9999     -9999     -9999     -9999     -9999     -9999     -9999     -9999     -9999     -9999     -9999     -9999     -9999     -9999     -9999     -9999     -9999     -9999     -9999     -9999     -9999     -9999     -9999     -9999     -9999     -9999     -9999     -9999     -9999     -9999     -9999     -9999     -9999     -9999     -9999     -9999     -9999     -9999     -9999     -9999     -9999     -9999     -9999     -9999     -9999     -9999     -9999     -9999     -9999     -9999     -9999     -9999     -9999     -9999     -9999     -9999     -9999     -9999     -9999     -9999     -9999     -9999     -9999         0         0         0         0         0         0         0         0         0         0         0         0         0         0         0         0         0         0     -9999     -9999     -9999     -9999     -9999     -9999     -9999     -9999     -9999     -9999     -9999     -9999     -9999     -9999     -9999     -9999     -9999     -9999     -9999     -9999     -9999     -9999     -9999     -9999     -9999     -9999     -9999     -9999     -9999     -9999     -9999     -9999     -9999     -9999     -9999     -9999     -9999     -9999     -9999     -9999     -9999     -9999     -9999     -9999     -9999     -9999     -9999     -9999     -9999
     -9999     -9999     -9999     -9999     -9999     -9999     -9999     -9999     -9999     -9999     -9999     -9999     -9999     -9999     -9999     -9999     -9999     -9999     -9999     -9999     -9999     -9999     -9999     -9999     -9999     -9999     -9999     -9999     -9999     -9999     -9999     -9999     -9999     -9999     -9999     -9999     -9999     -9999     -9999     -9999     -9999     -9999     -9999     -9999     -9999     -9999     -9999     -9999     -9999     -9999     -9999     -9999     -9999     -9999     -9999     -9999     -9999     -9999     -9999     -9999     -9999     -9999     -9999     -9999     -9999     -9999     -9999     -9999     -9999     -9999     -9999         0         0         0         0         0         0         0         0         0         0         0         0         0         0     -9999     -9999     -9998     -9999     -9999     -9999     -9999     -9999     -9999     -9999     -9999     -9999     -9999     -9999     -9999     -9999     -9999     -9999     -9999     -9999     -9999     -9999     -9999     -9999     -9999     -9999     -9999     -9999     -9999     -9999     -9999     -9999     -9999     -9999     -9999     -9999     -9999     -9999     -9999     -9999     -9999     -9999     -9999     -9999     -9999     -9999     -9999     -9999     -9999     -9999     -9999
     -9999     -9999     -9999     -9999     -9999     -9999     -9999     -9999     -9999     -9999     -9999     -9999     -9999     -9999     -9999     -9999     -9999     -9999     -9999     -9999     -9999     -9999     -9999     -9999     -9999     -9999     -9999     -9999     -9999     -9999     -9999     -9999     -9999     -9999     -9999     -9999     -9999     -9999     -9999     -9999     -9999     -9999     -9999     -9999     -9999     -9999     -9999     -9999     -9999     -9999     -9999     -9999     -9999     -9999     -9999     -9999     -9999     -9999     -9999     -9999     -9999     -9999     -9999     -9999     -9999     -9999     -9999     -9999     -9999     -9999     -9999         0         0         0         0         0         0         0         0         0         0         0         0         0         0     -9999     -9999     -9999     -9999     -9999     -9999     -9999     -9999     -9999     -9999     -9999     -9999     -9999     -9999     -9999     -9999     -9999     -9999     -9999     -9999     -9999     -9999     -9999     -9999     -9999     -9999     -9999     -9999     -9999     -9999     -9999     -9999     -9999     -9999     -9999     -9999     -9999     -9999     -9999     -9999     -9999     -9999     -9999     -9999     -9999     -9999     -9999     -9999     -9999     -9999     -9999
     -9999     -9999     -9999     -9999     -9999     -9999     -9999     -9999     -9999     -9999     -9999     -9999     -9999     -9999     -9999     -9999     -9999     -9999     -9999     -9999     -9999     -9999     -9999     -9999     -9999     -9999     -9999     -9999     -9999     -9999     -9999     -9999     -9999     -9999     -9999     -9999     -9999     -9999     -9999     -9999     -9999     -9999     -9999     -9999     -9999     -9999     -9999     -9999     -9999     -9999     -9999     -9999     -9999     -9999     -9999     -9999     -9999     -9999     -9999     -9999     -9999     -9999     -9999     -9999     -9999     -9999     -9999     -9999     -9999     -9999     -9999     -9999     -9999         0         0         0         0         0         0         0         0         0         0         0         0     -9999     -9999     -9999     -9999     -9997     -9999     -9999     -9999     -9999     -9999     -9999     -9999     -9999     -9999     -9999     -9999     -9999     -9999     -9999     -9999     -9999     -9999     -9999     -9999     -9999     -9999     -9999     -9999     -9999     -9999     -9999     -9999     -9999     -9999     -9999     -9999     -9999     -9999     -9999     -9999     -9999     -9999     -9999     -9999     -9999     -9999     -9999     -9999     -9999     -9999     -9999
     -9999     -9999     -9999     -9999     -9999     -9999     -9999     -9999     -9999     -9999     -9999     -9999     -9999     -9999     -9999     -9999     -9999     -9999     -9999     -9999     -9999     -9999     -9999     -9999     -9999     -9999     -9999     -9999     -9999     -9999     -9999     -9999     -9999     -9999     -9999     -9999     -9999     -9999     -9999     -9999     -9999     -9999     -9999     -9999     -9999     -9999     -9999     -9999     -9999     -9999     -9999     -9999     -9999     -9999     -9999     -9999     -9999     -9999     -9999     -9999     -9999     -9999     -9999     -9999     -9999     -9999     -9999     -9999     -9999     -9999     -9999     -9999     -9999     -9999     -9999         0         0         0         0         0         0         0     -9999     -9999     -9999     -9999     -9999     -9999     -9999     -9999     -9999     -9999     -9999     -9999     -9999     -9999     -9999     -9999     -9999     -9999     -9999     -9999     -9999     -9999     -9999     -9999     -9999     -9999     -9999     -9999     -9999     -9999     -9999     -9999     -9999     -9999     -9999     -9999     -9999     -9999     -9999     -9999     -9999     -9999     -9999     -9999     -9999     -9999     -9999     -9999     -9999     -9999     -9999     -9999     -9999     -9999
     -9999     -9999     -9999     -9999     -9999     -9999     -9999     -9999     -9999     -9999     -9999     -9999     -9999     -9999     -9999     -9999     -9999     -9999     -9999     -9999     -9999     -9999     -9999     -9999     -9999     -9999     -9999     -9999     -9999     -9999     -9999     -9999     -9999     -9999     -9999     -9999     -9999     -9999     -9999     -9999     -9999     -9999     -9999     -9999     -9999     -9999     -9999     -9999     -9999     -9999     -9999     -9999     -9999     -9999     -9999     -9999     -9999     -9999     -9999     -9999     -9999     -9999     -9999     -9999     -9999     -9999     -9999     -9999     -9999     -9999     -9999     -9999     -9999     -9999     -9999     -9999     -9999     -9999     -9999     -9999     -9999     -9999     -9999     -9999     -9999     -9999     -9999     -9999     -9999     -9999     -9999     -9999     -9999     -9999     -9999     -9999     -9999     -9999     -9999     -9999     -9999     -9999     -9999     -9999     -9999     -9999     -9999     -9999     -9999     -9999     -9999     -9999     -9999     -9999     -9999     -9999     -9999     -9999     -9999     -9999     -9999     -9999     -9999     -9999     -9999     -9999     -9999     -9999     -9999     -9999     -9999     -9999     -9999     -9999     -9999     -9999
